; This gcode is generated by my specialised python script for my PCB manufacturer project :))

; Machine Initialization Sequence...

G21 ; to set metric units
G90 ; to set absolute mode , G91 for incremental mode
G94 ; To set the active feed rate mode to units per minute mode

M5 ; disabling spindle PWM
C0 ; Choosing the empty tool slot in the multiplexer circuits

B1 ; Turn ON Machine

$H ; Homing :)
G10 P0 L20 X0.0Y0.0Z0.0 ; Force Reset current coordinates after homing


; The following gcode is the PCB holes drill gcode

; Getting and Activating Tool-2, The Tool.Spindle
G00X165.0Y91.0Z12.0 ; Go to Tool-2 Home Pos
G00X188 ; Enter Female Kinematic Mount Home Pos
A1 ; Latch on Kinematic Mount
G4 P5 ; Wait for Kinematic Mount to fully attach
G00X92 ; Exit Female Kinematic Mount Home Pos
#TODO X0.0Y0.0Z0.0 ;  ;Add tool offset coordinate
C2 ; Choosing tool 2 in the choose demultiplexer circuits

F600 ; setting default feedrate

S255 ; sets pwm speed when we enable it

G01 Z10F20 ; Moving Spindle to UP Postion

M3 ; Turn Motor ON
G4 P2 ; dwell for 2 seconds so motor reaches full RPM

G01 X50.35Y52.075F600
G01 Z13F1
G01 Z10F20
G01 X47.85Y52.075F600
G01 Z13F1
G01 Z10F20
G01 X48.325Y47.75F600
G01 Z13F1
G01 Z10F20
G01 X50.325Y47.75F600
G01 Z13F1
G01 Z10F20
G01 X60.975Y6.325F600
G01 Z13F1
G01 Z10F20
G01 X60.975Y6.325F600
G01 Z13F1
G01 Z10F20
G01 X7.225Y6.2F600
G01 Z13F1
G01 Z10F20
G01 X7.225Y6.2F600
G01 Z13F1
G01 Z10F20
G01 X49.95Y32.075F600
G01 Z13F1
G01 Z10F20
G01 X49.95Y29.535F600
G01 Z13F1
G01 Z10F20
G01 X49.95Y26.995F600
G01 Z13F1
G01 Z10F20
G01 X53.65Y8.9F600
G01 Z13F1
G01 Z10F20
G01 X51.11Y8.9F600
G01 Z13F1
G01 Z10F20
G01 X48.57Y8.9F600
G01 Z13F1
G01 Z10F20
G01 X46.03Y8.9F600
G01 Z13F1
G01 Z10F20
G01 X43.49Y8.9F600
G01 Z13F1
G01 Z10F20
G01 X40.95Y8.9F600
G01 Z13F1
G01 Z10F20
G01 X38.41Y8.9F600
G01 Z13F1
G01 Z10F20
G01 X35.87Y8.9F600
G01 Z13F1
G01 Z10F20
G01 X35.87Y21.6F600
G01 Z13F1
G01 Z10F20
G01 X38.41Y21.6F600
G01 Z13F1
G01 Z10F20
G01 X40.95Y21.6F600
G01 Z13F1
G01 Z10F20
G01 X43.49Y21.6F600
G01 Z13F1
G01 Z10F20
G01 X46.03Y21.6F600
G01 Z13F1
G01 Z10F20
G01 X48.57Y21.6F600
G01 Z13F1
G01 Z10F20
G01 X51.11Y21.6F600
G01 Z13F1
G01 Z10F20
G01 X53.65Y21.6F600
G01 Z13F1
G01 Z10F20
G01 X57.25Y34.475F600
G01 Z13F1
G01 Z10F20
G01 X59.79Y34.475F600
G01 Z13F1
G01 Z10F20
G01 X62.33Y34.475F600
G01 Z13F1
G01 Z10F20
G01 X60.975Y56.075F600
G01 Z13F1
G01 Z10F20
G01 X60.975Y56.075F600
G01 Z13F1
G01 Z10F20
G01 X21.3Y25.43F600
G01 Z13F1
G01 Z10F20
G01 X21.3Y26.7F600
G01 Z13F1
G01 Z10F20
G01 X21.3Y27.97F600
G01 Z13F1
G01 Z10F20
G01 X48.65Y5.25F600
G01 Z13F1
G01 Z10F20
G01 X46.15Y5.25F600
G01 Z13F1
G01 Z10F20
G01 X43.65Y5.25F600
G01 Z13F1
G01 Z10F20
G01 X41.15Y5.25F600
G01 Z13F1
G01 Z10F20
G01 X57.325Y41.9F600
G01 Z13F1
G01 Z10F20
G01 X59.825Y41.9F600
G01 Z13F1
G01 Z10F20
G01 X32.55Y45.6F600
G01 Z13F1
G01 Z10F20
G01 X40.17Y45.6F600
G01 Z13F1
G01 Z10F20
G01 X14.5Y48.925F600
G01 Z13F1
G01 Z10F20
G01 X11.96Y48.925F600
G01 Z13F1
G01 Z10F20
G01 X17.2Y42.995F600
G01 Z13F1
G01 Z10F20
G01 X19.74Y42.995F600
G01 Z13F1
G01 Z10F20
G01 X22.28Y42.995F600
G01 Z13F1
G01 Z10F20
G01 X24.82Y42.995F600
G01 Z13F1
G01 Z10F20
G01 X27.36Y42.995F600
G01 Z13F1
G01 Z10F20
G01 X29.9Y42.995F600
G01 Z13F1
G01 Z10F20
G01 X32.44Y42.995F600
G01 Z13F1
G01 Z10F20
G01 X34.98Y42.995F600
G01 Z13F1
G01 Z10F20
G01 X37.52Y42.995F600
G01 Z13F1
G01 Z10F20
G01 X40.06Y42.995F600
G01 Z13F1
G01 Z10F20
G01 X42.6Y42.995F600
G01 Z13F1
G01 Z10F20
G01 X45.14Y42.995F600
G01 Z13F1
G01 Z10F20
G01 X47.68Y42.995F600
G01 Z13F1
G01 Z10F20
G01 X50.22Y42.995F600
G01 Z13F1
G01 Z10F20
G01 X50.22Y35.375F600
G01 Z13F1
G01 Z10F20
G01 X47.68Y35.375F600
G01 Z13F1
G01 Z10F20
G01 X45.14Y35.375F600
G01 Z13F1
G01 Z10F20
G01 X42.6Y35.375F600
G01 Z13F1
G01 Z10F20
G01 X40.06Y35.375F600
G01 Z13F1
G01 Z10F20
G01 X37.52Y35.375F600
G01 Z13F1
G01 Z10F20
G01 X34.98Y35.375F600
G01 Z13F1
G01 Z10F20
G01 X32.44Y35.375F600
G01 Z13F1
G01 Z10F20
G01 X29.9Y35.375F600
G01 Z13F1
G01 Z10F20
G01 X27.36Y35.375F600
G01 Z13F1
G01 Z10F20
G01 X24.82Y35.375F600
G01 Z13F1
G01 Z10F20
G01 X22.28Y35.375F600
G01 Z13F1
G01 Z10F20
G01 X19.74Y35.375F600
G01 Z13F1
G01 Z10F20
G01 X17.2Y35.375F600
G01 Z13F1
G01 Z10F20
G01 X60.465Y37.525F600
G01 Z13F1
G01 Z10F20
G01 X52.845Y37.525F600
G01 Z13F1
G01 Z10F20
G01 X31.945Y8.875F600
G01 Z13F1
G01 Z10F20
G01 X29.405Y8.875F600
G01 Z13F1
G01 Z10F20
G01 X26.865Y8.875F600
G01 Z13F1
G01 Z10F20
G01 X24.325Y8.875F600
G01 Z13F1
G01 Z10F20
G01 X21.785Y8.875F600
G01 Z13F1
G01 Z10F20
G01 X19.245Y8.875F600
G01 Z13F1
G01 Z10F20
G01 X16.705Y8.875F600
G01 Z13F1
G01 Z10F20
G01 X14.165Y8.875F600
G01 Z13F1
G01 Z10F20
G01 X14.165Y21.575F600
G01 Z13F1
G01 Z10F20
G01 X16.705Y21.575F600
G01 Z13F1
G01 Z10F20
G01 X19.245Y21.575F600
G01 Z13F1
G01 Z10F20
G01 X21.785Y21.575F600
G01 Z13F1
G01 Z10F20
G01 X24.325Y21.575F600
G01 Z13F1
G01 Z10F20
G01 X26.865Y21.575F600
G01 Z13F1
G01 Z10F20
G01 X29.405Y21.575F600
G01 Z13F1
G01 Z10F20
G01 X31.945Y21.575F600
G01 Z13F1
G01 Z10F20
G01 X32.625Y47.925F600
G01 Z13F1
G01 Z10F20
G01 X40.245Y47.925F600
G01 Z13F1
G01 Z10F20
G01 X25.625Y32.15F600
G01 Z13F1
G01 Z10F20
G01 X25.625Y24.53F600
G01 Z13F1
G01 Z10F20
G01 X35.97Y26.1F600
G01 Z13F1
G01 Z10F20
G01 X28.35Y26.1F600
G01 Z13F1
G01 Z10F20
G01 X57.225Y46.825F600
G01 Z13F1
G01 Z10F20
G01 X59.725Y46.825F600
G01 Z13F1
G01 Z10F20
G01 X7.225Y56.1F600
G01 Z13F1
G01 Z10F20
G01 X7.225Y56.1F600
G01 Z13F1
G01 Z10F20
G01 X57.24Y29.55F600
G01 Z13F1
G01 Z10F20
G01 X59.78Y29.55F600
G01 Z13F1
G01 Z10F20
G01 X62.32Y29.55F600
G01 Z13F1
G01 Z10F20
G01 X37.65Y31.175F600
G01 Z13F1
G01 Z10F20
G01 X40.15Y31.175F600
G01 Z13F1
G01 Z10F20
G01 X42.65Y31.175F600
G01 Z13F1
G01 Z10F20
G01 X45.15Y31.175F600
G01 Z13F1
G01 Z10F20
G01 X43.425Y57.95F600
G01 Z13F1
G01 Z10F20
G01 X40.885Y57.95F600
G01 Z13F1
G01 Z10F20
G01 X43.425Y55.41F600
G01 Z13F1
G01 Z10F20
G01 X40.885Y55.41F600
G01 Z13F1
G01 Z10F20
G01 X43.425Y52.87F600
G01 Z13F1
G01 Z10F20
G01 X40.885Y52.87F600
G01 Z13F1
G01 Z10F20
G01 X43.425Y50.33F600
G01 Z13F1
G01 Z10F20
G01 X40.885Y50.33F600
G01 Z13F1
G01 Z10F20
G01 X14.1Y24.975F600
G01 Z13F1
G01 Z10F20
G01 X14.1Y32.595F600
G01 Z13F1
G01 Z10F20
G01 X26.945Y5.2F600
G01 Z13F1
G01 Z10F20
G01 X24.445Y5.2F600
G01 Z13F1
G01 Z10F20
G01 X21.945Y5.2F600
G01 Z13F1
G01 Z10F20
G01 X19.445Y5.2F600
G01 Z13F1
G01 Z10F20
G01 X20.825Y47.49F600
G01 Z13F1
G01 Z10F20
G01 X20.825Y55.11F600
G01 Z13F1
G01 Z10F20
G01 X22.5Y32.125F600
G01 Z13F1
G01 Z10F20
G01 X19.96Y32.125F600
G01 Z13F1
G01 Z10F20
G01 X17.42Y32.125F600
G01 Z13F1
G01 Z10F20

M5 ; disabling spindle PWM

; Returning the Deactivating Tool-2
C0 ; PWM Tool select demultiplexer to select tool zero which is the empty tool slot in multiplexers
#TODO X-0.0Y-0.0Z-0.0 ;  ;Remove tool offset coordinate
G00X165.0Y91.0Z12.0 ; Go to Tool-2 Home Pos
G00X92 ; Enter Female Kinematic Mount Home Pos
A0 ; Latch OFF Kinematic Mount
G4 P5 ; Wait for Kinematic Mount to fully detach
G00X188 ; Exit Female Kinematic Mount Home Pos

; Machine deinitialization Sequence... 
G00X0.0Y0.0Z0.0
B0 ; Turn Machine OFF
