; This gcode is generated by my specialised python script for my PCB manufacturer project :))

; Machine Initialization Sequence...

G21 ; to set metric units
G90 ; to set absolute mode , G91 for incremental mode
G94 ; To set the active feed rate mode to units per minute mode

M5 ; disabling spindle PWM
C0 ; Choosing the empty tool slot in the multiplexer circuits

B1 ; Turn ON Machine

$H ; Homing :)
G10 P0 L20 X0.0Y0.0Z0.0 ; Force Reset current coordinates after homing


; The following gcode is the PCB trace laser marking gcode

M5 ; Being extra sure it won't light up before activation

; Getting and Activating Tool-1, The Tool.Laser
G00X165.0Y0.0Z10.5 ; Go to Tool-1 Home Pos
G00X188 ; Enter Female Kinematic Mount Home Pos
A1 ; Latch on Kinematic Mount
G4 P5 ; Wait for Kinematic Mount to fully attach
G00X92 ; Exit Female Kinematic Mount Home Pos
#TODO X0.0Y0.0Z0.0 ;  ;Add tool offset coordinate
C1 ; Choosing tool 1 in the choose demultiplexer circuits

F400 ; setting default feedrate

G00Z16 ; Moving to correct focal length Z position

S200 ; Setting Laser Power

; Number of passes: 1

; Pass number: 1
G01 X3.68265Y45.33078
M3
G01 X3.65842Y45.36166
G01 X3.63733Y45.39477
G01 X3.61958Y45.42978
G01 X3.60536Y45.46637
G01 X3.31964Y46.32351
G01 X3.31817Y46.32875
G01 X3.31633Y46.33389
G01 X3.31289Y46.34765
G01 X3.30907Y46.36131
G01 X3.30812Y46.36668
G01 X3.3068Y46.37196
G01 X3.30471Y46.386
G01 X3.30225Y46.39997
G01 X3.30184Y46.4054
G01 X3.30104Y46.41079
G01 X3.30034Y46.42496
G01 X3.29926Y46.43911
G01 X3.29938Y46.44456
G01 X3.29911Y46.45
G01 X3.29911Y47.87857
G01 X3.29981Y47.89274
G01 X3.30012Y47.90693
G01 X3.30077Y47.91234
G01 X3.30104Y47.91778
G01 X3.30312Y47.93181
G01 X3.30482Y47.9459
G01 X3.306Y47.95122
G01 X3.3068Y47.95661
G01 X3.31024Y47.97037
G01 X3.31332Y47.98422
G01 X3.31501Y47.9894
G01 X3.31633Y47.99468
G01 X3.32111Y48.00804
G01 X3.32553Y48.02153
G01 X3.32772Y48.02651
G01 X3.32956Y48.03164
G01 X3.33562Y48.04447
G01 X3.34134Y48.05746
G01 X3.62706Y48.62889
G01 X3.62973Y48.63363
G01 X3.63206Y48.63855
G01 X3.63935Y48.65073
G01 X3.64632Y48.66309
G01 X3.64944Y48.66755
G01 X3.65224Y48.67222
G01 X3.66069Y48.68362
G01 X3.66883Y48.69525
G01 X3.67238Y48.69938
G01 X3.67562Y48.70375
G01 X3.68515Y48.71427
G01 X3.69439Y48.72504
G01 X3.69833Y48.7288
G01 X3.70198Y48.73284
G01 X3.98769Y49.01856
G01 X3.99173Y49.02222
G01 X3.9955Y49.02616
G01 X4.00627Y49.03539
G01 X4.01678Y49.04492
G01 X4.02116Y49.04817
G01 X4.0253Y49.05172
G01 X4.03691Y49.05985
G01 X4.04831Y49.0683
G01 X4.05298Y49.07111
G01 X4.05745Y49.07424
G01 X4.06981Y49.08119
G01 X4.08198Y49.08849
G01 X4.0869Y49.09082
G01 X4.09166Y49.09349
G01 X4.66309Y49.3792
G01 X4.67607Y49.38492
G01 X4.6889Y49.39098
G01 X4.69403Y49.39282
G01 X4.69902Y49.39501
G01 X4.7125Y49.39943
G01 X4.72586Y49.40421
G01 X4.73114Y49.40553
G01 X4.73632Y49.40723
G01 X4.75017Y49.4103
G01 X4.76393Y49.41374
G01 X4.76932Y49.41454
G01 X4.77465Y49.41572
G01 X4.78873Y49.41742
G01 X4.80276Y49.4195
G01 X4.80821Y49.41977
G01 X4.81362Y49.42042
G01 X4.8278Y49.42073
G01 X4.84197Y49.42143
G01 X5.4134Y49.42143
G01 X5.42757Y49.42073
G01 X5.44175Y49.42042
G01 X5.44716Y49.41977
G01 X5.45261Y49.4195
G01 X5.46664Y49.41742
G01 X5.48072Y49.41572
G01 X5.48605Y49.41454
G01 X5.49144Y49.41374
G01 X5.5052Y49.4103
G01 X5.51905Y49.40723
G01 X5.52423Y49.40553
G01 X5.52951Y49.40421
G01 X5.54287Y49.39943
G01 X5.55635Y49.39501
G01 X5.56134Y49.39282
G01 X5.56647Y49.39098
G01 X5.5793Y49.38492
G01 X5.59228Y49.3792
G01 X6.16371Y49.09349
G01 X6.16847Y49.09082
G01 X6.17339Y49.08849
G01 X6.18556Y49.08119
G01 X6.19792Y49.07424
G01 X6.20239Y49.07111
G01 X6.20706Y49.0683
G01 X6.21846Y49.05985
G01 X6.23007Y49.05172
G01 X6.23421Y49.04817
G01 X6.23859Y49.04492
G01 X6.2491Y49.03539
G01 X6.25987Y49.02616
G01 X6.26364Y49.02222
G01 X6.26768Y49.01856
G01 X6.55339Y48.73284
G01 X6.55704Y48.7288
G01 X6.56098Y48.72504
G01 X6.57022Y48.71427
G01 X6.57975Y48.70375
G01 X6.58299Y48.69938
G01 X6.58654Y48.69525
G01 X6.59468Y48.68362
G01 X6.60313Y48.67222
G01 X6.60593Y48.66755
G01 X6.60905Y48.66309
G01 X6.61602Y48.65073
G01 X6.62331Y48.63855
G01 X6.62564Y48.63363
G01 X6.62831Y48.62889
G01 X6.91403Y48.05746
G01 X6.91583Y48.05337
G01 X6.91793Y48.04943
G01 X6.92373Y48.03541
G01 X6.92984Y48.02153
G01 X6.93123Y48.01728
G01 X6.93294Y48.01315
G01 X6.93734Y47.99864
G01 X6.94205Y47.98422
G01 X6.94302Y47.97986
G01 X6.94432Y47.97558
G01 X7.21938Y46.87533
G01 X7.45642Y46.40123
G01 X7.65034Y46.20731
G01 X8.07926Y45.99286
G01 X8.46183Y45.99286
G01 X8.89074Y46.20731
G01 X9.08466Y46.40123
G01 X9.29911Y46.83014
G01 X9.29911Y48.09938
G01 X9.03393Y48.89494
G01 X9.02336Y48.93274
G01 X9.01654Y48.9714
G01 X9.01355Y49.01054
G01 X9.01441Y49.04979
G01 X9.01911Y49.08876
G01 X9.02761Y49.12708
G01 X9.03982Y49.16439
G01 X9.05563Y49.20032
G01 X9.07489Y49.23452
G01 X9.0974Y49.26668
G01 X9.12296Y49.29647
G01 X9.15132Y49.32361
G01 X9.1822Y49.34785
G01 X9.21531Y49.36894
G01 X9.25032Y49.38668
G01 X9.28691Y49.4009
G01 X9.32471Y49.41147
G01 X9.36337Y49.41829
G01 X9.40251Y49.42128
G01 X9.44176Y49.42042
G01 X9.48073Y49.41572
G01 X9.51905Y49.40722
G01 X9.55636Y49.39501
G01 X9.59229Y49.3792
G01 X9.62649Y49.35994
G01 X9.65865Y49.33743
G01 X9.68844Y49.31187
G01 X9.71558Y49.28351
G01 X9.73982Y49.25263
G01 X9.76091Y49.21952
G01 X9.77865Y49.18451
G01 X9.79287Y49.14792
G01 X10.07858Y48.29078
G01 X10.08005Y48.28553
G01 X10.08189Y48.2804
G01 X10.08533Y48.26664
G01 X10.08915Y48.25298
G01 X10.0901Y48.24761
G01 X10.09142Y48.24233
G01 X10.09351Y48.22829
G01 X10.09597Y48.21432
G01 X10.09638Y48.20889
G01 X10.09718Y48.2035
G01 X10.09788Y48.18933
G01 X10.09896Y48.17518
G01 X10.09884Y48.16973
G01 X10.09911Y48.16429
G01 X10.09911Y46.73571
G01 X10.09841Y46.72154
G01 X10.0981Y46.70735
G01 X10.09745Y46.70195
G01 X10.09718Y46.6965
G01 X10.0951Y46.68247
G01 X10.0934Y46.66838
G01 X10.09222Y46.66306
G01 X10.09142Y46.65767
G01 X10.08798Y46.64391
G01 X10.08491Y46.63006
G01 X10.08321Y46.62488
G01 X10.08189Y46.6196
G01 X10.07711Y46.60624
G01 X10.07269Y46.59275
G01 X10.0705Y46.58777
G01 X10.06866Y46.58264
G01 X10.0626Y46.56981
G01 X10.05688Y46.55682
G01 X9.77117Y45.9854
G01 X9.7685Y45.98066
G01 X9.76617Y45.97573
G01 X9.75887Y45.96356
G01 X9.75191Y45.9512
G01 X9.74879Y45.94674
G01 X9.74599Y45.94206
G01 X9.73754Y45.93067
G01 X9.7294Y45.91904
G01 X9.72585Y45.91491
G01 X9.7226Y45.91053
G01 X9.71308Y45.90002
G01 X9.70384Y45.88925
G01 X9.6999Y45.88548
G01 X9.69624Y45.88145
G01 X9.41052Y45.59573
G01 X9.40649Y45.59207
G01 X9.40272Y45.58813
G01 X9.39195Y45.57889
G01 X9.38144Y45.56937
G01 X9.37706Y45.56612
G01 X9.37293Y45.56257
G01 X9.3613Y45.55443
G01 X9.34991Y45.54598
G01 X9.34523Y45.54318
G01 X9.34077Y45.54006
G01 X9.32841Y45.5331
G01 X9.31624Y45.5258
G01 X9.31131Y45.52347
G01 X9.30657Y45.5208
G01 X8.73515Y45.23509
G01 X8.72216Y45.22937
G01 X8.70933Y45.22331
G01 X8.7042Y45.22147
G01 X8.69922Y45.21928
G01 X8.68573Y45.21486
G01 X8.67237Y45.21008
G01 X8.66709Y45.20876
G01 X8.66191Y45.20706
G01 X8.64806Y45.20399
G01 X8.6343Y45.20055
G01 X8.62891Y45.19975
G01 X8.62359Y45.19857
G01 X8.6095Y45.19687
G01 X8.59547Y45.19479
G01 X8.59002Y45.19452
G01 X8.58462Y45.19387
G01 X8.57043Y45.19356
G01 X8.55626Y45.19286
G01 X7.98483Y45.19286
G01 X7.97066Y45.19356
G01 X7.95648Y45.19387
G01 X7.95107Y45.19452
G01 X7.94562Y45.19479
G01 X7.93159Y45.19687
G01 X7.91751Y45.19857
G01 X7.91218Y45.19975
G01 X7.90679Y45.20055
G01 X7.89303Y45.20399
G01 X7.87918Y45.20706
G01 X7.874Y45.20876
G01 X7.86872Y45.21008
G01 X7.85536Y45.21486
G01 X7.84188Y45.21928
G01 X7.83689Y45.22147
G01 X7.83176Y45.22331
G01 X7.81893Y45.22937
G01 X7.80595Y45.23509
G01 X7.23452Y45.5208
G01 X7.22977Y45.52347
G01 X7.22484Y45.5258
G01 X7.21267Y45.53309
G01 X7.20031Y45.54005
G01 X7.19585Y45.54318
G01 X7.19117Y45.54598
G01 X7.17978Y45.55443
G01 X7.16816Y45.56257
G01 X7.16402Y45.56612
G01 X7.15964Y45.56937
G01 X7.14913Y45.57889
G01 X7.13836Y45.58813
G01 X7.1346Y45.59207
G01 X7.13056Y45.59573
G01 X6.84484Y45.88145
G01 X6.84118Y45.88549
G01 X6.83724Y45.88925
G01 X6.828Y45.90002
G01 X6.81848Y45.91053
G01 X6.81523Y45.91491
G01 X6.81168Y45.91905
G01 X6.80354Y45.93067
G01 X6.79509Y45.94206
G01 X6.79229Y45.94674
G01 X6.78916Y45.9512
G01 X6.7822Y45.96356
G01 X6.77491Y45.97573
G01 X6.77258Y45.98066
G01 X6.76991Y45.98541
G01 X6.4842Y46.55684
G01 X6.4824Y46.56092
G01 X6.4803Y46.56486
G01 X6.4745Y46.57888
G01 X6.46839Y46.59277
G01 X6.467Y46.59701
G01 X6.46529Y46.60114
G01 X6.46089Y46.61566
G01 X6.45617Y46.63007
G01 X6.45521Y46.63443
G01 X6.45391Y46.63871
G01 X6.17885Y47.73896
G01 X5.9418Y48.21306
G01 X5.74788Y48.40698
G01 X5.31897Y48.62143
G01 X4.9364Y48.62143
G01 X4.50749Y48.40698
G01 X4.31357Y48.21306
G01 X4.09911Y47.78414
G01 X4.09911Y46.51491
G01 X4.3643Y45.71935
G01 X4.37487Y45.68155
G01 X4.38169Y45.64289
G01 X4.38468Y45.60375
G01 X4.38382Y45.56451
G01 X4.37912Y45.52554
G01 X4.37063Y45.48721
G01 X4.35841Y45.44991
G01 X4.3426Y45.41398
G01 X4.32335Y45.37977
G01 X4.30083Y45.34762
G01 X4.27527Y45.31782
G01 X4.24691Y45.29068
G01 X4.21603Y45.26645
G01 X4.18292Y45.24536
G01 X4.14791Y45.22761
G01 X4.11132Y45.21339
G01 X4.07352Y45.20282
G01 X4.03486Y45.196
G01 X3.99572Y45.19301
G01 X3.95648Y45.19387
G01 X3.91751Y45.19857
G01 X3.87918Y45.20706
G01 X3.84188Y45.21928
G01 X3.80595Y45.23509
G01 X3.77174Y45.25434
G01 X3.73959Y45.27686
G01 X3.70979Y45.30242
G01 X3.68265Y45.33078
G01 X3.68265Y45.33078
M5
G01 X3.62107Y43.41374
M3
G01 X3.6599Y43.4195
G01 X3.69911Y43.42143
G01 X9.69911Y43.42143
G01 X9.73832Y43.4195
G01 X9.77715Y43.41374
G01 X9.81522Y43.40421
G01 X9.85218Y43.39098
G01 X9.88767Y43.3742
G01 X9.92134Y43.35402
G01 X9.95287Y43.33063
G01 X9.98195Y43.30427
G01 X10.00831Y43.27519
G01 X10.0317Y43.24366
G01 X10.05188Y43.20999
G01 X10.06866Y43.1745
G01 X10.08189Y43.13754
G01 X10.09142Y43.09947
G01 X10.09718Y43.06064
G01 X10.09911Y43.02143
G01 X10.09718Y42.98222
G01 X10.09142Y42.94339
G01 X10.08189Y42.90532
G01 X10.06866Y42.86836
G01 X10.05188Y42.83287
G01 X10.0317Y42.7992
G01 X10.00831Y42.76767
G01 X9.98195Y42.73859
G01 X9.95287Y42.71223
G01 X9.92134Y42.68884
G01 X9.88767Y42.66866
G01 X9.85218Y42.65188
G01 X9.81522Y42.63865
G01 X9.77715Y42.62912
G01 X9.73832Y42.62336
G01 X9.69911Y42.62143
G01 X3.69911Y42.62143
G01 X3.6599Y42.62336
G01 X3.62107Y42.62912
G01 X3.583Y42.63865
G01 X3.54604Y42.65188
G01 X3.51055Y42.66866
G01 X3.47688Y42.68884
G01 X3.44535Y42.71223
G01 X3.41627Y42.73859
G01 X3.38991Y42.76767
G01 X3.36652Y42.7992
G01 X3.34634Y42.83287
G01 X3.32956Y42.86836
G01 X3.31633Y42.90532
G01 X3.3068Y42.94339
G01 X3.30104Y42.98222
G01 X3.29911Y43.02143
G01 X3.30104Y43.06064
G01 X3.3068Y43.09947
G01 X3.31633Y43.13754
G01 X3.32956Y43.1745
G01 X3.34634Y43.20999
G01 X3.36652Y43.24366
G01 X3.38991Y43.27519
G01 X3.41627Y43.30427
G01 X3.44535Y43.33063
G01 X3.47688Y43.35402
G01 X3.51055Y43.3742
G01 X3.54604Y43.39098
G01 X3.583Y43.40421
G01 X3.62107Y43.41374
G01 X3.62107Y43.41374
M5
G01 X8.28259Y38.43138
M3
G01 X8.29367Y38.41775
G01 X8.30488Y38.40422
G01 X8.30604Y38.40251
G01 X8.30734Y38.40091
G01 X8.31702Y38.38625
G01 X8.32686Y38.3717
G01 X8.32784Y38.36988
G01 X8.32898Y38.36816
G01 X8.33718Y38.35262
G01 X8.34554Y38.33718
G01 X8.34634Y38.33527
G01 X8.3473Y38.33344
G01 X8.35394Y38.31718
G01 X8.36075Y38.30099
G01 X8.36136Y38.29901
G01 X8.36214Y38.2971
G01 X8.36715Y38.28027
G01 X8.37234Y38.26348
G01 X8.37275Y38.26146
G01 X8.37334Y38.25948
G01 X8.37668Y38.24223
G01 X8.38019Y38.22502
G01 X8.38041Y38.22297
G01 X8.3808Y38.22094
G01 X8.38243Y38.20345
G01 X8.38424Y38.18598
G01 X8.38425Y38.18391
G01 X8.38444Y38.18186
G01 X8.38435Y38.16429
G01 X8.38444Y38.14672
G01 X8.38425Y38.14467
G01 X8.38424Y38.1426
G01 X8.38243Y38.12513
G01 X8.3808Y38.10764
G01 X8.38041Y38.10561
G01 X8.38019Y38.10356
G01 X8.37668Y38.08635
G01 X8.37334Y38.0691
G01 X8.37275Y38.06712
G01 X8.37234Y38.0651
G01 X8.36715Y38.04831
G01 X8.36214Y38.03148
G01 X8.36136Y38.02957
G01 X8.36075Y38.02759
G01 X8.35394Y38.0114
G01 X8.3473Y37.99514
G01 X8.34634Y37.99331
G01 X8.34554Y37.9914
G01 X8.33718Y37.97596
G01 X8.32898Y37.96042
G01 X8.32784Y37.9587
G01 X8.32686Y37.95688
G01 X8.31702Y37.94233
G01 X8.30734Y37.92767
G01 X8.30604Y37.92607
G01 X8.30488Y37.92436
G01 X8.29367Y37.91083
G01 X8.28259Y37.8972
G01 X8.28114Y37.89573
G01 X8.27982Y37.89414
G01 X8.26734Y37.88178
G01 X8.25498Y37.8693
G01 X8.25339Y37.86798
G01 X8.25192Y37.86653
G01 X8.23829Y37.85545
G01 X8.22476Y37.84424
G01 X8.22305Y37.84308
G01 X8.22145Y37.84178
G01 X8.20679Y37.8321
G01 X8.19224Y37.82226
G01 X8.19042Y37.82128
G01 X8.1887Y37.82014
G01 X8.17316Y37.81194
G01 X8.15772Y37.80358
G01 X8.15581Y37.80278
G01 X8.15398Y37.80182
G01 X5.50214Y36.56429
G01 X9.69911Y36.56429
G01 X9.73832Y36.56236
G01 X9.77715Y36.5566
G01 X9.81522Y36.54707
G01 X9.85218Y36.53384
G01 X9.88767Y36.51706
G01 X9.92134Y36.49688
G01 X9.95287Y36.47349
G01 X9.98195Y36.44713
G01 X10.00831Y36.41805
G01 X10.0317Y36.38652
G01 X10.05188Y36.35285
G01 X10.06866Y36.31736
G01 X10.08189Y36.2804
G01 X10.09142Y36.24233
G01 X10.09718Y36.2035
G01 X10.09911Y36.16429
G01 X10.09718Y36.12508
G01 X10.09142Y36.08625
G01 X10.08189Y36.04818
G01 X10.06866Y36.01122
G01 X10.05188Y35.97573
G01 X10.0317Y35.94206
G01 X10.00831Y35.91053
G01 X9.98195Y35.88145
G01 X9.95287Y35.85509
G01 X9.92134Y35.8317
G01 X9.88767Y35.81152
G01 X9.85218Y35.79474
G01 X9.81522Y35.78151
G01 X9.77715Y35.77198
G01 X9.73832Y35.76622
G01 X9.69911Y35.76429
G01 X3.69911Y35.76429
G01 X3.68827Y35.76482
G01 X3.67742Y35.76488
G01 X3.66868Y35.76578
G01 X3.6599Y35.76622
G01 X3.64917Y35.76781
G01 X3.63838Y35.76893
G01 X3.62977Y35.77069
G01 X3.62107Y35.77198
G01 X3.61055Y35.77461
G01 X3.59992Y35.77678
G01 X3.59152Y35.77938
G01 X3.583Y35.78151
G01 X3.57278Y35.78517
G01 X3.56241Y35.78837
G01 X3.55431Y35.79178
G01 X3.54604Y35.79474
G01 X3.53623Y35.79938
G01 X3.52622Y35.80358
G01 X3.5185Y35.80776
G01 X3.51055Y35.81152
G01 X3.50124Y35.8171
G01 X3.4917Y35.82226
G01 X3.48442Y35.82718
G01 X3.47688Y35.8317
G01 X3.46817Y35.83817
G01 X3.45918Y35.84424
G01 X3.45241Y35.84985
G01 X3.44535Y35.85509
G01 X3.43731Y35.86237
G01 X3.42896Y35.8693
G01 X3.42278Y35.87555
G01 X3.41627Y35.88145
G01 X3.40898Y35.88949
G01 X3.40135Y35.8972
G01 X3.39581Y35.90402
G01 X3.38991Y35.91053
G01 X3.38344Y35.91925
G01 X3.3766Y35.92767
G01 X3.37176Y35.935
G01 X3.36652Y35.94206
G01 X3.36094Y35.95137
G01 X3.35496Y35.96042
G01 X3.35086Y35.96819
G01 X3.34634Y35.97573
G01 X3.3417Y35.98554
G01 X3.33664Y35.99514
G01 X3.33332Y36.00327
G01 X3.32956Y36.01122
G01 X3.3259Y36.02143
G01 X3.3218Y36.03148
G01 X3.31929Y36.0399
G01 X3.31633Y36.04818
G01 X3.3137Y36.0587
G01 X3.3106Y36.0691
G01 X3.30893Y36.07773
G01 X3.3068Y36.08625
G01 X3.3052Y36.09699
G01 X3.30314Y36.10764
G01 X3.30233Y36.11639
G01 X3.30104Y36.12508
G01 X3.3005Y36.13592
G01 X3.2995Y36.14672
G01 X3.29954Y36.15551
G01 X3.29911Y36.16429
G01 X3.29964Y36.17513
G01 X3.2997Y36.18598
G01 X3.3006Y36.19472
G01 X3.30104Y36.2035
G01 X3.30263Y36.21423
G01 X3.30375Y36.22502
G01 X3.30551Y36.23363
G01 X3.3068Y36.24233
G01 X3.30943Y36.25285
G01 X3.3116Y36.26348
G01 X3.3142Y36.27188
G01 X3.31633Y36.2804
G01 X3.31999Y36.29062
G01 X3.32319Y36.30099
G01 X3.3266Y36.30909
G01 X3.32956Y36.31736
G01 X3.3342Y36.32717
G01 X3.3384Y36.33718
G01 X3.34258Y36.3449
G01 X3.34634Y36.35285
G01 X3.35192Y36.36216
G01 X3.35708Y36.3717
G01 X3.362Y36.37898
G01 X3.36652Y36.38652
G01 X3.37299Y36.39523
G01 X3.37906Y36.40422
G01 X3.38467Y36.41099
G01 X3.38991Y36.41805
G01 X3.39719Y36.42609
G01 X3.40412Y36.43444
G01 X3.41037Y36.44062
G01 X3.41627Y36.44713
G01 X3.42431Y36.45442
G01 X3.43202Y36.46205
G01 X3.43884Y36.46759
G01 X3.44535Y36.47349
G01 X3.45407Y36.47996
G01 X3.46249Y36.4868
G01 X3.46982Y36.49164
G01 X3.47688Y36.49688
G01 X3.48619Y36.50246
G01 X3.49524Y36.50844
G01 X3.50301Y36.51254
G01 X3.51055Y36.51706
G01 X3.52036Y36.5217
G01 X3.52996Y36.52676
G01 X7.03895Y38.16429
G01 X3.52996Y39.80182
G01 X3.52036Y39.80688
G01 X3.51055Y39.81152
G01 X3.50301Y39.81604
G01 X3.49524Y39.82014
G01 X3.48619Y39.82612
G01 X3.47688Y39.8317
G01 X3.46982Y39.83694
G01 X3.46249Y39.84178
G01 X3.45407Y39.84862
G01 X3.44535Y39.85509
G01 X3.43884Y39.86099
G01 X3.43202Y39.86653
G01 X3.42431Y39.87416
G01 X3.41627Y39.88145
G01 X3.41037Y39.88796
G01 X3.40412Y39.89414
G01 X3.39719Y39.90249
G01 X3.38991Y39.91053
G01 X3.38467Y39.91759
G01 X3.37906Y39.92436
G01 X3.37299Y39.93335
G01 X3.36652Y39.94206
G01 X3.362Y39.9496
G01 X3.35708Y39.95688
G01 X3.35192Y39.96642
G01 X3.34634Y39.97573
G01 X3.34258Y39.98368
G01 X3.3384Y39.9914
G01 X3.3342Y40.00141
G01 X3.32956Y40.01122
G01 X3.3266Y40.01949
G01 X3.32319Y40.02759
G01 X3.31999Y40.03796
G01 X3.31633Y40.04818
G01 X3.3142Y40.0567
G01 X3.3116Y40.0651
G01 X3.30943Y40.07573
G01 X3.3068Y40.08625
G01 X3.30551Y40.09495
G01 X3.30375Y40.10356
G01 X3.30263Y40.11435
G01 X3.30104Y40.12508
G01 X3.3006Y40.13386
G01 X3.2997Y40.1426
G01 X3.29964Y40.15345
G01 X3.29911Y40.16429
G01 X3.29954Y40.17307
G01 X3.2995Y40.18186
G01 X3.3005Y40.19266
G01 X3.30104Y40.2035
G01 X3.30233Y40.21219
G01 X3.30314Y40.22094
G01 X3.3052Y40.23159
G01 X3.3068Y40.24233
G01 X3.30893Y40.25085
G01 X3.3106Y40.25948
G01 X3.3137Y40.26988
G01 X3.31633Y40.2804
G01 X3.31929Y40.28868
G01 X3.3218Y40.2971
G01 X3.3259Y40.30715
G01 X3.32956Y40.31736
G01 X3.33332Y40.32531
G01 X3.33664Y40.33344
G01 X3.3417Y40.34304
G01 X3.34634Y40.35285
G01 X3.35086Y40.36039
G01 X3.35496Y40.36816
G01 X3.36094Y40.37721
G01 X3.36652Y40.38652
G01 X3.37176Y40.39358
G01 X3.3766Y40.40091
G01 X3.38344Y40.40933
G01 X3.38991Y40.41805
G01 X3.39581Y40.42456
G01 X3.40135Y40.43138
G01 X3.40898Y40.43909
G01 X3.41627Y40.44713
G01 X3.42278Y40.45303
G01 X3.42896Y40.45928
G01 X3.43731Y40.46621
G01 X3.44535Y40.47349
G01 X3.45241Y40.47873
G01 X3.45918Y40.48434
G01 X3.46817Y40.49041
G01 X3.47688Y40.49688
G01 X3.48442Y40.5014
G01 X3.4917Y40.50632
G01 X3.50124Y40.51148
G01 X3.51055Y40.51706
G01 X3.5185Y40.52082
G01 X3.52622Y40.525
G01 X3.53623Y40.5292
G01 X3.54604Y40.53384
G01 X3.55431Y40.5368
G01 X3.56241Y40.54021
G01 X3.57278Y40.54341
G01 X3.583Y40.54707
G01 X3.59152Y40.5492
G01 X3.59992Y40.5518
G01 X3.61055Y40.55397
G01 X3.62107Y40.5566
G01 X3.62977Y40.55789
G01 X3.63838Y40.55965
G01 X3.64917Y40.56077
G01 X3.6599Y40.56236
G01 X3.66868Y40.5628
G01 X3.67742Y40.5637
G01 X3.68827Y40.56376
G01 X3.69911Y40.56429
G01 X9.69911Y40.56429
G01 X9.73832Y40.56236
G01 X9.77715Y40.5566
G01 X9.81522Y40.54707
G01 X9.85218Y40.53384
G01 X9.88767Y40.51706
G01 X9.92134Y40.49688
G01 X9.95287Y40.47349
G01 X9.98195Y40.44713
G01 X10.00831Y40.41805
G01 X10.0317Y40.38652
G01 X10.05188Y40.35285
G01 X10.06866Y40.31736
G01 X10.08189Y40.2804
G01 X10.09142Y40.24233
G01 X10.09718Y40.2035
G01 X10.09911Y40.16429
G01 X10.09718Y40.12508
G01 X10.09142Y40.08625
G01 X10.08189Y40.04818
G01 X10.06866Y40.01122
G01 X10.05188Y39.97573
G01 X10.0317Y39.94206
G01 X10.00831Y39.91053
G01 X9.98195Y39.88145
G01 X9.95287Y39.85509
G01 X9.92134Y39.8317
G01 X9.88767Y39.81152
G01 X9.85218Y39.79474
G01 X9.81522Y39.78151
G01 X9.77715Y39.77198
G01 X9.73832Y39.76622
G01 X9.69911Y39.76429
G01 X5.50214Y39.76429
G01 X8.15398Y38.52676
G01 X8.15581Y38.5258
G01 X8.15772Y38.525
G01 X8.17316Y38.51664
G01 X8.1887Y38.50844
G01 X8.19042Y38.5073
G01 X8.19224Y38.50632
G01 X8.20679Y38.49648
G01 X8.22145Y38.4868
G01 X8.22305Y38.4855
G01 X8.22476Y38.48434
G01 X8.23829Y38.47313
G01 X8.25192Y38.46205
G01 X8.25339Y38.4606
G01 X8.25498Y38.45928
G01 X8.26734Y38.4468
G01 X8.27982Y38.43444
G01 X8.28114Y38.43285
G01 X8.28259Y38.43138
G01 X8.28259Y38.43138
M5
G01 X9.97415Y29.87385
M3
G01 X9.94436Y29.84829
G01 X9.9122Y29.82578
G01 X9.878Y29.80652
G01 X9.84207Y29.79071
G01 X9.80476Y29.77849
G01 X9.76644Y29.77
G01 X9.72747Y29.7653
G01 X9.68822Y29.76444
G01 X9.64908Y29.76743
G01 X9.61042Y29.77425
G01 X9.57262Y29.78482
G01 X3.57262Y31.78482
G01 X3.56447Y31.78799
G01 X3.55615Y31.79071
G01 X3.54618Y31.7951
G01 X3.53603Y31.79904
G01 X3.52823Y31.803
G01 X3.52022Y31.80652
G01 X3.51073Y31.81186
G01 X3.50102Y31.81679
G01 X3.49364Y31.82148
G01 X3.48602Y31.82578
G01 X3.4771Y31.83202
G01 X3.46791Y31.83788
G01 X3.46103Y31.84328
G01 X3.45386Y31.84829
G01 X3.4456Y31.85538
G01 X3.43703Y31.86211
G01 X3.43071Y31.86816
G01 X3.42407Y31.87385
G01 X3.41654Y31.88172
G01 X3.40867Y31.88925
G01 X3.40298Y31.89589
G01 X3.39693Y31.90221
G01 X3.3902Y31.91078
G01 X3.38311Y31.91904
G01 X3.3781Y31.92621
G01 X3.3727Y31.93309
G01 X3.36684Y31.94228
G01 X3.3606Y31.9512
G01 X3.3563Y31.95882
G01 X3.35161Y31.9662
G01 X3.34668Y31.97591
G01 X3.34134Y31.9854
G01 X3.33782Y31.99341
G01 X3.33386Y32.00121
G01 X3.32992Y32.01136
G01 X3.32553Y32.02133
G01 X3.32281Y32.02965
G01 X3.31964Y32.0378
G01 X3.3167Y32.04829
G01 X3.31331Y32.05864
G01 X3.31142Y32.06718
G01 X3.30907Y32.0756
G01 X3.30717Y32.08633
G01 X3.30482Y32.09696
G01 X3.30377Y32.10565
G01 X3.30225Y32.11426
G01 X3.30142Y32.12512
G01 X3.30012Y32.13593
G01 X3.29993Y32.14468
G01 X3.29926Y32.1534
G01 X3.2995Y32.16429
G01 X3.29926Y32.17518
G01 X3.29993Y32.1839
G01 X3.30012Y32.19265
G01 X3.30142Y32.20346
G01 X3.30225Y32.21432
G01 X3.30377Y32.22293
G01 X3.30482Y32.23162
G01 X3.30717Y32.24225
G01 X3.30907Y32.25298
G01 X3.31142Y32.2614
G01 X3.31331Y32.26994
G01 X3.3167Y32.28029
G01 X3.31964Y32.29078
G01 X3.32281Y32.29893
G01 X3.32553Y32.30725
G01 X3.32992Y32.31722
G01 X3.33386Y32.32737
G01 X3.33782Y32.33517
G01 X3.34134Y32.34318
G01 X3.34668Y32.35267
G01 X3.35161Y32.36238
G01 X3.3563Y32.36976
G01 X3.3606Y32.37738
G01 X3.36684Y32.3863
G01 X3.3727Y32.39549
G01 X3.3781Y32.40237
G01 X3.38311Y32.40954
G01 X3.3902Y32.4178
G01 X3.39693Y32.42637
G01 X3.40298Y32.43269
G01 X3.40867Y32.43933
G01 X3.41654Y32.44686
G01 X3.42407Y32.45473
G01 X3.43071Y32.46042
G01 X3.43703Y32.46647
G01 X3.4456Y32.4732
G01 X3.45386Y32.48029
G01 X3.46103Y32.4853
G01 X3.46791Y32.4907
G01 X3.4771Y32.49656
G01 X3.48602Y32.5028
G01 X3.49364Y32.5071
G01 X3.50102Y32.51179
G01 X3.51073Y32.51672
G01 X3.52022Y32.52206
G01 X3.52823Y32.52558
G01 X3.53603Y32.52954
G01 X3.54618Y32.53348
G01 X3.55615Y32.53787
G01 X3.56447Y32.54059
G01 X3.57262Y32.54376
G01 X9.57262Y34.54376
G01 X9.61042Y34.55433
G01 X9.64908Y34.56115
G01 X9.68822Y34.56414
G01 X9.72747Y34.56328
G01 X9.76644Y34.55858
G01 X9.80476Y34.55009
G01 X9.84207Y34.53787
G01 X9.878Y34.52206
G01 X9.9122Y34.5028
G01 X9.94436Y34.48029
G01 X9.97415Y34.45473
G01 X10.00129Y34.42637
G01 X10.02552Y34.39549
G01 X10.04661Y34.36238
G01 X10.06436Y34.32737
G01 X10.07858Y34.29078
G01 X10.08915Y34.25298
G01 X10.09597Y34.21432
G01 X10.09896Y34.17518
G01 X10.0981Y34.13593
G01 X10.0934Y34.09696
G01 X10.08491Y34.05864
G01 X10.07269Y34.02133
G01 X10.05688Y33.9854
G01 X10.03762Y33.9512
G01 X10.01511Y33.91904
G01 X9.98955Y33.88925
G01 X9.96119Y33.86211
G01 X9.93031Y33.83788
G01 X9.8972Y33.81679
G01 X9.86219Y33.79904
G01 X9.8256Y33.78482
G01 X8.38483Y33.30456
G01 X8.38483Y31.02402
G01 X9.8256Y30.54376
G01 X9.86219Y30.52954
G01 X9.8972Y30.51179
G01 X9.93031Y30.4907
G01 X9.96119Y30.46647
G01 X9.98955Y30.43933
G01 X10.01511Y30.40954
G01 X10.03762Y30.37738
G01 X10.05688Y30.34318
G01 X10.07269Y30.30725
G01 X10.08491Y30.26994
G01 X10.0934Y30.23162
G01 X10.0981Y30.19265
G01 X10.09896Y30.1534
G01 X10.09597Y30.11426
G01 X10.08915Y30.0756
G01 X10.07858Y30.0378
G01 X10.06436Y30.00121
G01 X10.04661Y29.9662
G01 X10.02552Y29.93309
G01 X10.00129Y29.90221
G01 X9.97415Y29.87385
G01 X9.97415Y29.87385
M5
G01 X3.65224Y27.52937
M3
G01 X3.65549Y27.53375
G01 X3.65842Y27.53834
G01 X3.66717Y27.5495
G01 X3.67563Y27.5609
G01 X3.67929Y27.56494
G01 X3.68265Y27.56922
G01 X3.69246Y27.57947
G01 X3.70199Y27.58998
G01 X4.27342Y28.16141
G01 X4.27745Y28.16507
G01 X4.28122Y28.169
G01 X4.29199Y28.17824
G01 X4.3025Y28.18777
G01 X4.30688Y28.19102
G01 X4.31101Y28.19456
G01 X4.32263Y28.2027
G01 X4.33403Y28.21116
G01 X4.3387Y28.21396
G01 X4.34316Y28.21708
G01 X4.35553Y28.22404
G01 X4.3677Y28.23134
G01 X4.37262Y28.23367
G01 X4.37737Y28.23634
G01 X4.94879Y28.52206
G01 X4.95288Y28.52386
G01 X4.95683Y28.52596
G01 X4.97084Y28.53176
G01 X4.98472Y28.53787
G01 X4.98897Y28.53926
G01 X4.9931Y28.54097
G01 X5.00761Y28.54537
G01 X5.02202Y28.55008
G01 X5.02639Y28.55105
G01 X5.03067Y28.55235
G01 X6.17353Y28.83806
G01 X6.18307Y28.83995
G01 X6.1925Y28.84231
G01 X6.20231Y28.84377
G01 X6.21203Y28.8457
G01 X6.22171Y28.84665
G01 X6.23133Y28.84807
G01 X6.24123Y28.84856
G01 X6.2511Y28.84953
G01 X6.26082Y28.84952
G01 X6.27054Y28.85
G01 X7.12768Y28.85
G01 X7.1374Y28.84952
G01 X7.14712Y28.84953
G01 X7.15699Y28.84856
G01 X7.16689Y28.84807
G01 X7.17651Y28.84665
G01 X7.18619Y28.8457
G01 X7.19591Y28.84377
G01 X7.20572Y28.84231
G01 X7.21515Y28.83995
G01 X7.22469Y28.83806
G01 X8.36755Y28.55235
G01 X8.37183Y28.55105
G01 X8.37619Y28.55008
G01 X8.39061Y28.54537
G01 X8.40512Y28.54097
G01 X8.40925Y28.53926
G01 X8.4135Y28.53787
G01 X8.42738Y28.53176
G01 X8.44139Y28.52596
G01 X8.44534Y28.52386
G01 X8.44943Y28.52206
G01 X9.02086Y28.23634
G01 X9.0256Y28.23367
G01 X9.03053Y28.23134
G01 X9.0427Y28.22404
G01 X9.05506Y28.21708
G01 X9.05953Y28.21396
G01 X9.0642Y28.21116
G01 X9.0756Y28.20271
G01 X9.08722Y28.19457
G01 X9.09135Y28.19102
G01 X9.09573Y28.18777
G01 X9.10624Y28.17825
G01 X9.11701Y28.16901
G01 X9.12078Y28.16507
G01 X9.12481Y28.16141
G01 X9.69624Y27.58998
G01 X9.70577Y27.57947
G01 X9.71558Y27.56922
G01 X9.71895Y27.56493
G01 X9.7226Y27.5609
G01 X9.73106Y27.5495
G01 X9.73982Y27.53834
G01 X9.74274Y27.53374
G01 X9.74599Y27.52937
G01 X9.75328Y27.5172
G01 X9.76091Y27.50523
G01 X9.76337Y27.50037
G01 X9.76617Y27.4957
G01 X9.77223Y27.48287
G01 X9.77865Y27.47022
G01 X9.78062Y27.46514
G01 X9.78295Y27.46021
G01 X9.78773Y27.44685
G01 X9.79287Y27.43363
G01 X10.07858Y26.57649
G01 X10.08005Y26.57124
G01 X10.08189Y26.56611
G01 X10.08533Y26.55235
G01 X10.08915Y26.53869
G01 X10.0901Y26.53332
G01 X10.09142Y26.52804
G01 X10.09351Y26.514
G01 X10.09597Y26.50003
G01 X10.09638Y26.4946
G01 X10.09718Y26.48921
G01 X10.09788Y26.47504
G01 X10.09896Y26.46089
G01 X10.09884Y26.45544
G01 X10.09911Y26.45
G01 X10.09911Y25.87857
G01 X10.09884Y25.87313
G01 X10.09896Y25.86768
G01 X10.09788Y25.85353
G01 X10.09718Y25.83936
G01 X10.09638Y25.83397
G01 X10.09597Y25.82854
G01 X10.09351Y25.81457
G01 X10.09142Y25.80053
G01 X10.0901Y25.79525
G01 X10.08915Y25.78988
G01 X10.08533Y25.77622
G01 X10.08189Y25.76246
G01 X10.08005Y25.75733
G01 X10.07858Y25.75208
G01 X9.79287Y24.89494
G01 X9.78773Y24.88171
G01 X9.78295Y24.86835
G01 X9.78062Y24.86343
G01 X9.77865Y24.85835
G01 X9.77223Y24.84569
G01 X9.76617Y24.83287
G01 X9.76337Y24.8282
G01 X9.76091Y24.82334
G01 X9.75328Y24.81137
G01 X9.74598Y24.7992
G01 X9.74274Y24.79482
G01 X9.73982Y24.79023
G01 X9.73105Y24.77907
G01 X9.7226Y24.76767
G01 X9.71894Y24.76363
G01 X9.71558Y24.75935
G01 X9.70577Y24.7491
G01 X9.69624Y24.73858
G01 X9.41052Y24.45287
G01 X9.38143Y24.42651
G01 X9.3499Y24.40313
G01 X9.31623Y24.38295
G01 X9.28075Y24.36617
G01 X9.24379Y24.35294
G01 X9.20571Y24.3434
G01 X9.16688Y24.33765
G01 X9.12767Y24.33572
G01 X9.08847Y24.33765
G01 X9.04964Y24.34341
G01 X9.01156Y24.35295
G01 X8.9746Y24.36617
G01 X8.93912Y24.38295
G01 X8.90545Y24.40314
G01 X8.87392Y24.42652
G01 X8.84483Y24.45288
G01 X8.81847Y24.48197
G01 X8.79509Y24.5135
G01 X8.77491Y24.54717
G01 X8.75813Y24.58265
G01 X8.7449Y24.61961
G01 X8.73536Y24.65769
G01 X8.72961Y24.69652
G01 X8.72768Y24.73573
G01 X8.72961Y24.77493
G01 X8.73537Y24.81376
G01 X8.74491Y24.85184
G01 X8.75813Y24.8888
G01 X8.77491Y24.92428
G01 X8.7951Y24.95795
G01 X8.81848Y24.98948
G01 X8.84484Y25.01857
G01 X9.06379Y25.23751
G01 X9.29911Y25.94348
G01 X9.29911Y26.38509
G01 X9.06379Y27.09107
G01 X8.60503Y27.54983
G01 X8.13093Y27.78688
G01 X7.07844Y28.05
G01 X6.31978Y28.05
G01 X5.26729Y27.78688
G01 X4.79321Y27.54983
G01 X4.33444Y27.09107
G01 X4.09911Y26.38509
G01 X4.09911Y25.94348
G01 X4.33444Y25.2375
G01 X4.55338Y25.01856
G01 X4.57974Y24.98948
G01 X4.60313Y24.95795
G01 X4.62331Y24.92428
G01 X4.64009Y24.88879
G01 X4.65332Y24.85183
G01 X4.66285Y24.81376
G01 X4.66861Y24.77493
G01 X4.67054Y24.73572
G01 X4.66861Y24.69651
G01 X4.66285Y24.65768
G01 X4.65332Y24.61961
G01 X4.64009Y24.58265
G01 X4.62331Y24.54716
G01 X4.60313Y24.51349
G01 X4.57974Y24.48196
G01 X4.55338Y24.45288
G01 X4.5243Y24.42652
G01 X4.49277Y24.40313
G01 X4.4591Y24.38295
G01 X4.42361Y24.36617
G01 X4.38665Y24.35294
G01 X4.34858Y24.34341
G01 X4.30975Y24.33765
G01 X4.27054Y24.33572
G01 X4.23133Y24.33765
G01 X4.1925Y24.34341
G01 X4.15443Y24.35294
G01 X4.11747Y24.36617
G01 X4.08198Y24.38295
G01 X4.04831Y24.40313
G01 X4.01678Y24.42652
G01 X3.9877Y24.45288
G01 X3.70199Y24.73859
G01 X3.69246Y24.7491
G01 X3.68265Y24.75935
G01 X3.67929Y24.76363
G01 X3.67563Y24.76767
G01 X3.66717Y24.77907
G01 X3.65842Y24.79023
G01 X3.65549Y24.79482
G01 X3.65224Y24.7992
G01 X3.64495Y24.81137
G01 X3.63733Y24.82334
G01 X3.63486Y24.8282
G01 X3.63206Y24.83287
G01 X3.626Y24.8457
G01 X3.61958Y24.85835
G01 X3.61761Y24.86343
G01 X3.61528Y24.86836
G01 X3.6105Y24.88171
G01 X3.60536Y24.89494
G01 X3.31964Y25.75208
G01 X3.31817Y25.75732
G01 X3.31633Y25.76246
G01 X3.31289Y25.77622
G01 X3.30907Y25.78988
G01 X3.30812Y25.79525
G01 X3.3068Y25.80053
G01 X3.30471Y25.81457
G01 X3.30225Y25.82854
G01 X3.30184Y25.83397
G01 X3.30104Y25.83936
G01 X3.30034Y25.85353
G01 X3.29926Y25.86768
G01 X3.29938Y25.87313
G01 X3.29911Y25.87857
G01 X3.29911Y26.45
G01 X3.29938Y26.45544
G01 X3.29926Y26.46089
G01 X3.30034Y26.47504
G01 X3.30104Y26.48921
G01 X3.30184Y26.4946
G01 X3.30225Y26.50003
G01 X3.30471Y26.514
G01 X3.3068Y26.52804
G01 X3.30812Y26.53332
G01 X3.30907Y26.53869
G01 X3.31289Y26.55235
G01 X3.31633Y26.56611
G01 X3.31817Y26.57125
G01 X3.31964Y26.57649
G01 X3.60536Y27.43363
G01 X3.6105Y27.44686
G01 X3.61528Y27.46021
G01 X3.61761Y27.46514
G01 X3.61958Y27.47022
G01 X3.626Y27.48287
G01 X3.63206Y27.4957
G01 X3.63486Y27.50037
G01 X3.63733Y27.50523
G01 X3.64495Y27.5172
G01 X3.65224Y27.52937
G01 X3.65224Y27.52937
M5
G01 X9.98955Y19.29647
M3
G01 X10.01511Y19.26668
G01 X10.03762Y19.23452
G01 X10.05688Y19.20032
G01 X10.07269Y19.16439
G01 X10.08491Y19.12708
G01 X10.0934Y19.08876
G01 X10.0981Y19.04979
G01 X10.09896Y19.01054
G01 X10.09597Y18.9714
G01 X10.08915Y18.93274
G01 X10.07858Y18.89494
G01 X10.06436Y18.85835
G01 X10.04661Y18.82334
G01 X10.02552Y18.79023
G01 X10.00129Y18.75935
G01 X9.97415Y18.73099
G01 X9.94436Y18.70543
G01 X9.9122Y18.68292
G01 X9.878Y18.66366
G01 X9.84207Y18.64785
G01 X9.80476Y18.63563
G01 X9.76644Y18.62714
G01 X9.72747Y18.62244
G01 X9.68822Y18.62158
G01 X9.64908Y18.62457
G01 X9.61042Y18.63139
G01 X9.57262Y18.64196
G01 X3.57262Y20.64196
G01 X3.56447Y20.64513
G01 X3.55615Y20.64785
G01 X3.54618Y20.65224
G01 X3.53603Y20.65618
G01 X3.52823Y20.66014
G01 X3.52022Y20.66366
G01 X3.51073Y20.669
G01 X3.50102Y20.67393
G01 X3.49364Y20.67862
G01 X3.48602Y20.68292
G01 X3.4771Y20.68916
G01 X3.46791Y20.69502
G01 X3.46103Y20.70042
G01 X3.45386Y20.70543
G01 X3.4456Y20.71252
G01 X3.43703Y20.71925
G01 X3.43071Y20.7253
G01 X3.42407Y20.73099
G01 X3.41654Y20.73886
G01 X3.40867Y20.74639
G01 X3.40298Y20.75303
G01 X3.39693Y20.75935
G01 X3.3902Y20.76792
G01 X3.38311Y20.77618
G01 X3.3781Y20.78335
G01 X3.3727Y20.79023
G01 X3.36684Y20.79942
G01 X3.3606Y20.80834
G01 X3.3563Y20.81596
G01 X3.35161Y20.82334
G01 X3.34668Y20.83305
G01 X3.34134Y20.84254
G01 X3.33782Y20.85055
G01 X3.33386Y20.85835
G01 X3.32992Y20.8685
G01 X3.32553Y20.87847
G01 X3.32281Y20.88679
G01 X3.31964Y20.89494
G01 X3.3167Y20.90543
G01 X3.31331Y20.91578
G01 X3.31142Y20.92432
G01 X3.30907Y20.93274
G01 X3.30717Y20.94347
G01 X3.30482Y20.9541
G01 X3.30377Y20.96279
G01 X3.30225Y20.9714
G01 X3.30142Y20.98226
G01 X3.30012Y20.99307
G01 X3.29993Y21.00182
G01 X3.29926Y21.01054
G01 X3.2995Y21.02143
G01 X3.29926Y21.03232
G01 X3.29993Y21.04104
G01 X3.30012Y21.04979
G01 X3.30142Y21.0606
G01 X3.30225Y21.07146
G01 X3.30377Y21.08007
G01 X3.30482Y21.08876
G01 X3.30717Y21.09939
G01 X3.30907Y21.11012
G01 X3.31142Y21.11854
G01 X3.31331Y21.12708
G01 X3.3167Y21.13743
G01 X3.31964Y21.14792
G01 X3.32281Y21.15607
G01 X3.32553Y21.16439
G01 X3.32992Y21.17436
G01 X3.33386Y21.18451
G01 X3.33782Y21.19231
G01 X3.34134Y21.20032
G01 X3.34668Y21.20981
G01 X3.35161Y21.21952
G01 X3.3563Y21.2269
G01 X3.3606Y21.23452
G01 X3.36684Y21.24344
G01 X3.3727Y21.25263
G01 X3.3781Y21.25951
G01 X3.38311Y21.26668
G01 X3.3902Y21.27494
G01 X3.39693Y21.28351
G01 X3.40298Y21.28983
G01 X3.40867Y21.29647
G01 X3.41654Y21.304
G01 X3.42407Y21.31187
G01 X3.43071Y21.31756
G01 X3.43703Y21.32361
G01 X3.4456Y21.33034
G01 X3.45386Y21.33743
G01 X3.46103Y21.34244
G01 X3.46791Y21.34784
G01 X3.4771Y21.3537
G01 X3.48602Y21.35994
G01 X3.49364Y21.36424
G01 X3.50102Y21.36893
G01 X3.51073Y21.37386
G01 X3.52022Y21.3792
G01 X3.52823Y21.38272
G01 X3.53603Y21.38668
G01 X3.54618Y21.39062
G01 X3.55615Y21.39501
G01 X3.56447Y21.39773
G01 X3.57262Y21.4009
G01 X9.57262Y23.4009
G01 X9.61042Y23.41147
G01 X9.64908Y23.41829
G01 X9.68822Y23.42128
G01 X9.72747Y23.42042
G01 X9.76644Y23.41572
G01 X9.80476Y23.40723
G01 X9.84207Y23.39501
G01 X9.878Y23.3792
G01 X9.9122Y23.35994
G01 X9.94436Y23.33743
G01 X9.97415Y23.31187
G01 X10.00129Y23.28351
G01 X10.02552Y23.25263
G01 X10.04661Y23.21952
G01 X10.06436Y23.18451
G01 X10.07858Y23.14792
G01 X10.08915Y23.11012
G01 X10.09597Y23.07146
G01 X10.09896Y23.03232
G01 X10.0981Y22.99307
G01 X10.0934Y22.9541
G01 X10.08491Y22.91578
G01 X10.07269Y22.87847
G01 X10.05688Y22.84254
G01 X10.03762Y22.80834
G01 X10.01511Y22.77618
G01 X9.98955Y22.74639
G01 X9.96119Y22.71925
G01 X9.93031Y22.69502
G01 X9.8972Y22.67393
G01 X9.86219Y22.65618
G01 X9.8256Y22.64196
G01 X8.38483Y22.1617
G01 X8.38483Y19.88116
G01 X9.8256Y19.4009
G01 X9.86219Y19.38668
G01 X9.8972Y19.36893
G01 X9.93031Y19.34784
G01 X9.96119Y19.32361
G01 X9.98955Y19.29647
G01 X9.98955Y19.29647
M5
G01 X6.45521Y14.92014
M3
G01 X6.45391Y14.92442
G01 X6.17885Y16.02468
G01 X5.9418Y16.49878
G01 X5.74789Y16.69269
G01 X5.31897Y16.90714
G01 X4.9364Y16.90714
G01 X4.50748Y16.69269
G01 X4.31357Y16.49878
G01 X4.09911Y16.06986
G01 X4.09911Y14.80063
G01 X4.3643Y14.00506
G01 X4.37487Y13.96726
G01 X4.38169Y13.9286
G01 X4.38468Y13.88946
G01 X4.38382Y13.85022
G01 X4.37912Y13.81124
G01 X4.37063Y13.77292
G01 X4.35841Y13.73561
G01 X4.3426Y13.69969
G01 X4.32335Y13.66548
G01 X4.30083Y13.63333
G01 X4.27527Y13.60353
G01 X4.24691Y13.57639
G01 X4.21603Y13.55216
G01 X4.18292Y13.53107
G01 X4.14791Y13.51332
G01 X4.11132Y13.4991
G01 X4.07352Y13.48853
G01 X4.03486Y13.48171
G01 X3.99572Y13.47872
G01 X3.95648Y13.47958
G01 X3.9175Y13.48428
G01 X3.87918Y13.49277
G01 X3.84187Y13.50499
G01 X3.80595Y13.5208
G01 X3.77174Y13.54005
G01 X3.73959Y13.56257
G01 X3.70979Y13.58813
G01 X3.68265Y13.61649
G01 X3.65842Y13.64737
G01 X3.63733Y13.68048
G01 X3.61958Y13.71549
G01 X3.60536Y13.75208
G01 X3.31964Y14.60923
G01 X3.31817Y14.61448
G01 X3.31633Y14.61961
G01 X3.31289Y14.63337
G01 X3.30907Y14.64703
G01 X3.30812Y14.6524
G01 X3.3068Y14.65768
G01 X3.30471Y14.67172
G01 X3.30225Y14.68569
G01 X3.30184Y14.69112
G01 X3.30104Y14.69651
G01 X3.30034Y14.71068
G01 X3.29926Y14.72483
G01 X3.29938Y14.73028
G01 X3.29911Y14.73572
G01 X3.29911Y16.16429
G01 X3.29981Y16.17846
G01 X3.30012Y16.19265
G01 X3.30077Y16.19806
G01 X3.30104Y16.2035
G01 X3.30312Y16.21753
G01 X3.30482Y16.23162
G01 X3.306Y16.23694
G01 X3.3068Y16.24233
G01 X3.31024Y16.25609
G01 X3.31332Y16.26994
G01 X3.31501Y16.27512
G01 X3.31633Y16.2804
G01 X3.32111Y16.29376
G01 X3.32553Y16.30725
G01 X3.32772Y16.31223
G01 X3.32956Y16.31736
G01 X3.33562Y16.33019
G01 X3.34134Y16.34318
G01 X3.62706Y16.91461
G01 X3.62973Y16.91935
G01 X3.63206Y16.92428
G01 X3.63936Y16.93645
G01 X3.64632Y16.94881
G01 X3.64944Y16.95328
G01 X3.65224Y16.95795
G01 X3.66069Y16.96935
G01 X3.66883Y16.98097
G01 X3.67238Y16.9851
G01 X3.67563Y16.98948
G01 X3.68515Y16.99999
G01 X3.69439Y17.01076
G01 X3.69833Y17.01453
G01 X3.70199Y17.01856
G01 X3.9877Y17.30427
G01 X3.99174Y17.30793
G01 X3.9955Y17.31187
G01 X4.00627Y17.32111
G01 X4.01678Y17.33063
G01 X4.02116Y17.33388
G01 X4.0253Y17.33743
G01 X4.03692Y17.34557
G01 X4.04831Y17.35402
G01 X4.05299Y17.35682
G01 X4.05745Y17.35995
G01 X4.06981Y17.36691
G01 X4.08198Y17.3742
G01 X4.08691Y17.37653
G01 X4.09166Y17.3792
G01 X4.66309Y17.66491
G01 X4.67607Y17.67063
G01 X4.6889Y17.67669
G01 X4.69403Y17.67853
G01 X4.69902Y17.68072
G01 X4.7125Y17.68514
G01 X4.72586Y17.68992
G01 X4.73114Y17.69124
G01 X4.73632Y17.69294
G01 X4.75017Y17.69601
G01 X4.76393Y17.69945
G01 X4.76932Y17.70025
G01 X4.77465Y17.70143
G01 X4.78873Y17.70313
G01 X4.80276Y17.70521
G01 X4.80821Y17.70548
G01 X4.81362Y17.70613
G01 X4.8278Y17.70644
G01 X4.84197Y17.70714
G01 X5.4134Y17.70714
G01 X5.42757Y17.70644
G01 X5.44175Y17.70613
G01 X5.44716Y17.70548
G01 X5.45261Y17.70521
G01 X5.46664Y17.70313
G01 X5.48072Y17.70143
G01 X5.48605Y17.70025
G01 X5.49144Y17.69945
G01 X5.5052Y17.69601
G01 X5.51905Y17.69294
G01 X5.52423Y17.69124
G01 X5.52951Y17.68992
G01 X5.54287Y17.68514
G01 X5.55635Y17.68072
G01 X5.56134Y17.67853
G01 X5.56647Y17.67669
G01 X5.5793Y17.67063
G01 X5.59228Y17.66491
G01 X6.16371Y17.3792
G01 X6.16846Y17.37653
G01 X6.17339Y17.3742
G01 X6.18556Y17.36691
G01 X6.19792Y17.35995
G01 X6.20238Y17.35682
G01 X6.20706Y17.35402
G01 X6.21845Y17.34557
G01 X6.23007Y17.33743
G01 X6.23421Y17.33388
G01 X6.23859Y17.33063
G01 X6.2491Y17.32111
G01 X6.25987Y17.31187
G01 X6.26363Y17.30793
G01 X6.26767Y17.30427
G01 X6.55338Y17.01856
G01 X6.55704Y17.01453
G01 X6.56098Y17.01076
G01 X6.57022Y16.99999
G01 X6.57974Y16.98948
G01 X6.58299Y16.9851
G01 X6.58654Y16.98097
G01 X6.59468Y16.96935
G01 X6.60313Y16.95795
G01 X6.60593Y16.95328
G01 X6.60905Y16.94881
G01 X6.61601Y16.93645
G01 X6.62331Y16.92428
G01 X6.62564Y16.91935
G01 X6.62831Y16.91461
G01 X6.91403Y16.34318
G01 X6.91583Y16.33909
G01 X6.91793Y16.33514
G01 X6.92373Y16.32113
G01 X6.92984Y16.30725
G01 X6.93123Y16.303
G01 X6.93294Y16.29887
G01 X6.93734Y16.28436
G01 X6.94205Y16.26994
G01 X6.94302Y16.26558
G01 X6.94432Y16.2613
G01 X7.21938Y15.16104
G01 X7.45642Y14.68695
G01 X7.65034Y14.49303
G01 X8.07926Y14.27857
G01 X8.46183Y14.27857
G01 X8.89074Y14.49303
G01 X9.08466Y14.68695
G01 X9.29911Y15.11586
G01 X9.29911Y16.38509
G01 X9.03393Y17.18065
G01 X9.02336Y17.21845
G01 X9.01654Y17.25711
G01 X9.01355Y17.29625
G01 X9.01441Y17.3355
G01 X9.01911Y17.37447
G01 X9.02761Y17.41279
G01 X9.03982Y17.4501
G01 X9.05563Y17.48603
G01 X9.07489Y17.52023
G01 X9.0974Y17.55239
G01 X9.12296Y17.58218
G01 X9.15132Y17.60932
G01 X9.1822Y17.63356
G01 X9.21531Y17.65465
G01 X9.25032Y17.67239
G01 X9.28691Y17.68661
G01 X9.32471Y17.69718
G01 X9.36337Y17.704
G01 X9.40251Y17.70699
G01 X9.44176Y17.70613
G01 X9.48073Y17.70143
G01 X9.51905Y17.69293
G01 X9.55636Y17.68072
G01 X9.59229Y17.66491
G01 X9.62649Y17.64565
G01 X9.65865Y17.62314
G01 X9.68844Y17.59758
G01 X9.71558Y17.56922
G01 X9.73982Y17.53834
G01 X9.76091Y17.50523
G01 X9.77865Y17.47022
G01 X9.79287Y17.43363
G01 X10.07858Y16.57649
G01 X10.08005Y16.57124
G01 X10.08189Y16.56611
G01 X10.08533Y16.55235
G01 X10.08915Y16.53869
G01 X10.0901Y16.53332
G01 X10.09142Y16.52804
G01 X10.09351Y16.514
G01 X10.09597Y16.50003
G01 X10.09638Y16.4946
G01 X10.09718Y16.48921
G01 X10.09788Y16.47504
G01 X10.09896Y16.46089
G01 X10.09884Y16.45544
G01 X10.09911Y16.45
G01 X10.09911Y15.02143
G01 X10.09841Y15.00726
G01 X10.0981Y14.99308
G01 X10.09745Y14.98767
G01 X10.09718Y14.98222
G01 X10.0951Y14.96819
G01 X10.0934Y14.95411
G01 X10.09222Y14.94878
G01 X10.09142Y14.94339
G01 X10.08798Y14.92963
G01 X10.08491Y14.91578
G01 X10.08321Y14.9106
G01 X10.08189Y14.90532
G01 X10.07711Y14.89196
G01 X10.07269Y14.87848
G01 X10.0705Y14.87349
G01 X10.06866Y14.86836
G01 X10.0626Y14.85553
G01 X10.05688Y14.84255
G01 X9.77117Y14.27112
G01 X9.7685Y14.26636
G01 X9.76617Y14.26144
G01 X9.75887Y14.24927
G01 X9.75192Y14.23691
G01 X9.74879Y14.23244
G01 X9.74598Y14.22777
G01 X9.73753Y14.21637
G01 X9.7294Y14.20476
G01 X9.72585Y14.20062
G01 X9.7226Y14.19624
G01 X9.71307Y14.18573
G01 X9.70384Y14.17496
G01 X9.6999Y14.17119
G01 X9.69624Y14.16715
G01 X9.41052Y13.88144
G01 X9.40649Y13.87779
G01 X9.40272Y13.87386
G01 X9.39195Y13.86461
G01 X9.38143Y13.85508
G01 X9.37706Y13.85184
G01 X9.37293Y13.8483
G01 X9.3613Y13.84015
G01 X9.3499Y13.8317
G01 X9.34523Y13.8289
G01 X9.34078Y13.82578
G01 X9.32841Y13.81882
G01 X9.31623Y13.81152
G01 X9.31131Y13.80919
G01 X9.30657Y13.80652
G01 X8.73515Y13.5208
G01 X8.72216Y13.51509
G01 X8.70933Y13.50902
G01 X8.70421Y13.50718
G01 X8.69922Y13.50499
G01 X8.68574Y13.50057
G01 X8.67237Y13.49579
G01 X8.66709Y13.49447
G01 X8.66192Y13.49278
G01 X8.64806Y13.4897
G01 X8.6343Y13.48626
G01 X8.62891Y13.48546
G01 X8.62359Y13.48428
G01 X8.6095Y13.48258
G01 X8.59547Y13.4805
G01 X8.59003Y13.48023
G01 X8.58462Y13.47958
G01 X8.57043Y13.47927
G01 X8.55626Y13.47857
G01 X7.98483Y13.47857
G01 X7.97066Y13.47927
G01 X7.95647Y13.47958
G01 X7.95106Y13.48023
G01 X7.94562Y13.4805
G01 X7.93159Y13.48258
G01 X7.9175Y13.48428
G01 X7.91218Y13.48546
G01 X7.90679Y13.48626
G01 X7.89303Y13.4897
G01 X7.87918Y13.49278
G01 X7.874Y13.49447
G01 X7.86872Y13.49579
G01 X7.85536Y13.50057
G01 X7.84187Y13.50499
G01 X7.83689Y13.50718
G01 X7.83176Y13.50902
G01 X7.81893Y13.51508
G01 X7.80594Y13.5208
G01 X7.23451Y13.80652
G01 X7.22977Y13.80919
G01 X7.22485Y13.81152
G01 X7.21267Y13.81881
G01 X7.20031Y13.82578
G01 X7.19585Y13.8289
G01 X7.19118Y13.8317
G01 X7.17978Y13.84015
G01 X7.16815Y13.84829
G01 X7.16402Y13.85184
G01 X7.15965Y13.85508
G01 X7.14913Y13.86461
G01 X7.13836Y13.87385
G01 X7.1346Y13.87779
G01 X7.13056Y13.88144
G01 X6.84484Y14.16715
G01 X6.84118Y14.17119
G01 X6.83724Y14.17496
G01 X6.82801Y14.18573
G01 X6.81848Y14.19624
G01 X6.81523Y14.20062
G01 X6.81168Y14.20476
G01 X6.80355Y14.21637
G01 X6.7951Y14.22777
G01 X6.79229Y14.23244
G01 X6.78916Y14.23691
G01 X6.78221Y14.24927
G01 X6.77491Y14.26144
G01 X6.77258Y14.26636
G01 X6.76991Y14.27112
G01 X6.4842Y14.84255
G01 X6.4824Y14.84664
G01 X6.4803Y14.85058
G01 X6.4745Y14.86459
G01 X6.46839Y14.87848
G01 X6.467Y14.88272
G01 X6.46529Y14.88685
G01 X6.46089Y14.90137
G01 X6.45617Y14.91578
G01 X6.45521Y14.92014
G01 X6.45521Y14.92014
M5
G01 X51.05554Y52.45212
M3
G01 X51.0891Y52.38115
G01 X51.11555Y52.30723
G01 X51.13463Y52.23107
G01 X51.14615Y52.15341
G01 X51.15Y52.075
G01 X51.14615Y51.99659
G01 X51.13463Y51.91893
G01 X51.11555Y51.84277
G01 X51.0891Y51.76885
G01 X51.05554Y51.69788
G01 X51.01518Y51.63054
G01 X50.96841Y51.56749
G01 X50.91569Y51.50931
G01 X50.85751Y51.45659
G01 X50.79446Y51.40982
G01 X50.72712Y51.36946
G01 X50.65615Y51.3359
G01 X50.58223Y51.30945
G01 X50.50607Y51.29037
G01 X50.42841Y51.27885
G01 X50.35Y51.275
G01 X50.27159Y51.27885
G01 X50.19393Y51.29037
G01 X50.11777Y51.30945
G01 X50.04385Y51.3359
G01 X49.97288Y51.36946
G01 X49.90554Y51.40982
G01 X49.84249Y51.45659
G01 X49.78431Y51.50931
G01 X49.73159Y51.56749
G01 X49.68482Y51.63054
G01 X49.64446Y51.69788
G01 X49.6109Y51.76885
G01 X49.58445Y51.84277
G01 X49.56537Y51.91893
G01 X49.55385Y51.99659
G01 X49.55Y52.075
G01 X49.55385Y52.15341
G01 X49.56537Y52.23107
G01 X49.58445Y52.30723
G01 X49.6109Y52.38115
G01 X49.64446Y52.45212
G01 X49.68482Y52.51946
G01 X49.73159Y52.58251
G01 X49.78431Y52.64069
G01 X49.84249Y52.69341
G01 X49.90554Y52.74018
G01 X49.97288Y52.78054
G01 X50.04385Y52.8141
G01 X50.11777Y52.84055
G01 X50.19393Y52.85963
G01 X50.27159Y52.87115
G01 X50.35Y52.875
G01 X50.42841Y52.87115
G01 X50.50607Y52.85963
G01 X50.58223Y52.84055
G01 X50.65615Y52.8141
G01 X50.72712Y52.78054
G01 X50.79446Y52.74018
G01 X50.85751Y52.69341
G01 X50.91569Y52.64069
G01 X50.96841Y52.58251
G01 X51.01518Y52.51946
G01 X51.05554Y52.45212
G01 X51.05554Y52.45212
M5
G01 X48.55554Y52.45212
M3
G01 X48.5891Y52.38115
G01 X48.61555Y52.30723
G01 X48.63463Y52.23107
G01 X48.64615Y52.15341
G01 X48.65Y52.075
G01 X48.64615Y51.99659
G01 X48.63463Y51.91893
G01 X48.61555Y51.84277
G01 X48.5891Y51.76885
G01 X48.55554Y51.69788
G01 X48.51518Y51.63054
G01 X48.46841Y51.56749
G01 X48.41569Y51.50931
G01 X48.35751Y51.45659
G01 X48.29446Y51.40982
G01 X48.22712Y51.36946
G01 X48.15615Y51.3359
G01 X48.08223Y51.30945
G01 X48.00607Y51.29037
G01 X47.92841Y51.27885
G01 X47.85Y51.275
G01 X47.77159Y51.27885
G01 X47.69393Y51.29037
G01 X47.61777Y51.30945
G01 X47.54385Y51.3359
G01 X47.47288Y51.36946
G01 X47.40554Y51.40982
G01 X47.34249Y51.45659
G01 X47.28431Y51.50931
G01 X47.23159Y51.56749
G01 X47.18482Y51.63054
G01 X47.14446Y51.69788
G01 X47.1109Y51.76885
G01 X47.08445Y51.84277
G01 X47.06537Y51.91893
G01 X47.05385Y51.99659
G01 X47.05Y52.075
G01 X47.05385Y52.15341
G01 X47.06537Y52.23107
G01 X47.08445Y52.30723
G01 X47.1109Y52.38115
G01 X47.14446Y52.45212
G01 X47.18482Y52.51946
G01 X47.23159Y52.58251
G01 X47.28431Y52.64069
G01 X47.34249Y52.69341
G01 X47.40554Y52.74018
G01 X47.47288Y52.78054
G01 X47.54385Y52.8141
G01 X47.61777Y52.84055
G01 X47.69393Y52.85963
G01 X47.77159Y52.87115
G01 X47.85Y52.875
G01 X47.92841Y52.87115
G01 X48.00607Y52.85963
G01 X48.08223Y52.84055
G01 X48.15615Y52.8141
G01 X48.22712Y52.78054
G01 X48.29446Y52.74018
G01 X48.35751Y52.69341
G01 X48.41569Y52.64069
G01 X48.46841Y52.58251
G01 X48.51518Y52.51946
G01 X48.55554Y52.45212
G01 X48.55554Y52.45212
M5
G01 X47.525Y48.55
M3
G01 X49.125Y48.55
G01 X49.125Y46.95
G01 X47.525Y46.95
G01 X47.525Y48.55
G01 X47.525Y48.55
M5
G01 X50.94341Y48.25751
M3
G01 X50.99018Y48.19446
G01 X51.03054Y48.12712
G01 X51.0641Y48.05615
G01 X51.09055Y47.98223
G01 X51.10963Y47.90607
G01 X51.12115Y47.82841
G01 X51.125Y47.75
G01 X51.12115Y47.67159
G01 X51.10963Y47.59393
G01 X51.09055Y47.51777
G01 X51.0641Y47.44385
G01 X51.03054Y47.37288
G01 X50.99018Y47.30554
G01 X50.94341Y47.24249
G01 X50.89069Y47.18431
G01 X50.83251Y47.13159
G01 X50.76946Y47.08482
G01 X50.70212Y47.04446
G01 X50.63115Y47.0109
G01 X50.55723Y46.98445
G01 X50.48107Y46.96537
G01 X50.40341Y46.95385
G01 X50.325Y46.95
G01 X50.24659Y46.95385
G01 X50.16893Y46.96537
G01 X50.09277Y46.98445
G01 X50.01885Y47.0109
G01 X49.94788Y47.04446
G01 X49.88054Y47.08482
G01 X49.81749Y47.13159
G01 X49.75931Y47.18431
G01 X49.70659Y47.24249
G01 X49.65982Y47.30554
G01 X49.61946Y47.37288
G01 X49.5859Y47.44385
G01 X49.55945Y47.51777
G01 X49.54037Y47.59393
G01 X49.52885Y47.67159
G01 X49.525Y47.75
G01 X49.52885Y47.82841
G01 X49.54037Y47.90607
G01 X49.55945Y47.98223
G01 X49.5859Y48.05615
G01 X49.61946Y48.12712
G01 X49.65982Y48.19446
G01 X49.70659Y48.25751
G01 X49.75931Y48.31569
G01 X49.81749Y48.36841
G01 X49.88054Y48.41518
G01 X49.94788Y48.45554
G01 X50.01885Y48.4891
G01 X50.09277Y48.51555
G01 X50.16893Y48.53463
G01 X50.24659Y48.54615
G01 X50.325Y48.55
G01 X50.40341Y48.54615
G01 X50.48107Y48.53463
G01 X50.55723Y48.51555
G01 X50.63115Y48.4891
G01 X50.70212Y48.45554
G01 X50.76946Y48.41518
G01 X50.83251Y48.36841
G01 X50.89069Y48.31569
G01 X50.94341Y48.25751
G01 X50.94341Y48.25751
M5
G01 X62.24779Y7.59779
M3
G01 X62.36642Y7.46691
G01 X62.47165Y7.32503
G01 X62.56246Y7.17351
G01 X62.63798Y7.01383
G01 X62.69749Y6.84751
G01 X62.74041Y6.67616
G01 X62.76633Y6.50143
G01 X62.775Y6.325
G01 X62.76633Y6.14857
G01 X62.74041Y5.97384
G01 X62.69749Y5.80249
G01 X62.63798Y5.63617
G01 X62.56246Y5.47649
G01 X62.47165Y5.32497
G01 X62.36642Y5.18309
G01 X62.24779Y5.05221
G01 X62.11691Y4.93358
G01 X61.97503Y4.82835
G01 X61.82351Y4.73754
G01 X61.66383Y4.66202
G01 X61.49751Y4.60251
G01 X61.32616Y4.55959
G01 X61.15143Y4.53367
G01 X60.975Y4.525
G01 X60.79857Y4.53367
G01 X60.62384Y4.55959
G01 X60.45249Y4.60251
G01 X60.28617Y4.66202
G01 X60.12649Y4.73754
G01 X59.97497Y4.82835
G01 X59.83309Y4.93358
G01 X59.70221Y5.05221
G01 X59.58358Y5.18309
G01 X59.47835Y5.32497
G01 X59.38754Y5.47649
G01 X59.31202Y5.63617
G01 X59.25251Y5.80249
G01 X59.20959Y5.97384
G01 X59.18367Y6.14857
G01 X59.175Y6.325
G01 X59.18367Y6.50143
G01 X59.20959Y6.67616
G01 X59.25251Y6.84751
G01 X59.31202Y7.01383
G01 X59.38754Y7.17351
G01 X59.47835Y7.32503
G01 X59.58358Y7.46691
G01 X59.70221Y7.59779
G01 X59.83309Y7.71642
G01 X59.97497Y7.82165
G01 X60.12649Y7.91246
G01 X60.28617Y7.98798
G01 X60.45249Y8.04749
G01 X60.62384Y8.09041
G01 X60.79857Y8.11633
G01 X60.975Y8.125
G01 X61.15143Y8.11633
G01 X61.32616Y8.09041
G01 X61.49751Y8.04749
G01 X61.66383Y7.98798
G01 X61.82351Y7.91246
G01 X61.97503Y7.82165
G01 X62.11691Y7.71642
G01 X62.24779Y7.59779
G01 X62.24779Y7.59779
M5
G01 X8.49779Y7.47279
M3
G01 X8.61642Y7.34191
G01 X8.72165Y7.20003
G01 X8.81246Y7.04851
G01 X8.88798Y6.88883
G01 X8.94749Y6.72251
G01 X8.99041Y6.55116
G01 X9.01633Y6.37643
G01 X9.025Y6.2
G01 X9.01633Y6.02357
G01 X8.99041Y5.84884
G01 X8.94749Y5.67749
G01 X8.88798Y5.51117
G01 X8.81246Y5.35149
G01 X8.72165Y5.19997
G01 X8.61642Y5.05809
G01 X8.49779Y4.92721
G01 X8.36691Y4.80858
G01 X8.22503Y4.70335
G01 X8.07351Y4.61254
G01 X7.91383Y4.53702
G01 X7.74751Y4.47751
G01 X7.57616Y4.43459
G01 X7.40143Y4.40867
G01 X7.225Y4.4
G01 X7.04857Y4.40867
G01 X6.87384Y4.43459
G01 X6.70249Y4.47751
G01 X6.53617Y4.53702
G01 X6.37649Y4.61254
G01 X6.22497Y4.70335
G01 X6.08309Y4.80858
G01 X5.95221Y4.92721
G01 X5.83358Y5.05809
G01 X5.72835Y5.19997
G01 X5.63754Y5.35149
G01 X5.56202Y5.51117
G01 X5.50251Y5.67749
G01 X5.45959Y5.84884
G01 X5.43367Y6.02357
G01 X5.425Y6.2
G01 X5.43367Y6.37643
G01 X5.45959Y6.55116
G01 X5.50251Y6.72251
G01 X5.56202Y6.88883
G01 X5.63754Y7.04851
G01 X5.72835Y7.20003
G01 X5.83358Y7.34191
G01 X5.95221Y7.47279
G01 X6.08309Y7.59142
G01 X6.22497Y7.69665
G01 X6.37649Y7.78746
G01 X6.53617Y7.86298
G01 X6.70249Y7.92249
G01 X6.87384Y7.96541
G01 X7.04857Y7.99133
G01 X7.225Y8.0
G01 X7.40143Y7.99133
G01 X7.57616Y7.96541
G01 X7.74751Y7.92249
G01 X7.91383Y7.86298
G01 X8.07351Y7.78746
G01 X8.22503Y7.69665
G01 X8.36691Y7.59142
G01 X8.49779Y7.47279
G01 X8.49779Y7.47279
M5
G01 X50.8Y32.925
M3
G01 X50.8Y31.225
G01 X49.1Y31.225
G01 X49.1Y32.925
G01 X50.8Y32.925
G01 X50.8Y32.925
M5
G01 X49.24325Y30.00723
M3
G01 X49.29294Y30.07423
G01 X49.34896Y30.13604
G01 X49.41077Y30.19206
G01 X49.47777Y30.24175
G01 X49.54931Y30.28463
G01 X49.62472Y30.3203
G01 X49.70326Y30.3484
G01 X49.78417Y30.36867
G01 X49.86669Y30.38091
G01 X49.95Y30.385
G01 X50.03331Y30.38091
G01 X50.11583Y30.36867
G01 X50.19674Y30.3484
G01 X50.27528Y30.3203
G01 X50.35069Y30.28463
G01 X50.42223Y30.24175
G01 X50.48923Y30.19206
G01 X50.55104Y30.13604
G01 X50.60706Y30.07423
G01 X50.65675Y30.00723
G01 X50.69963Y29.93569
G01 X50.7353Y29.86028
G01 X50.7634Y29.78174
G01 X50.78367Y29.70083
G01 X50.79591Y29.61831
G01 X50.8Y29.535
G01 X50.79591Y29.45169
G01 X50.78367Y29.36917
G01 X50.7634Y29.28826
G01 X50.7353Y29.20972
G01 X50.69963Y29.13431
G01 X50.65675Y29.06277
G01 X50.60706Y28.99577
G01 X50.55104Y28.93396
G01 X50.48923Y28.87794
G01 X50.42223Y28.82825
G01 X50.35069Y28.78537
G01 X50.27528Y28.7497
G01 X50.19674Y28.7216
G01 X50.11583Y28.70133
G01 X50.03331Y28.68909
G01 X49.95Y28.685
G01 X49.86669Y28.68909
G01 X49.78417Y28.70133
G01 X49.70326Y28.7216
G01 X49.62472Y28.7497
G01 X49.54931Y28.78537
G01 X49.47777Y28.82825
G01 X49.41077Y28.87794
G01 X49.34896Y28.93396
G01 X49.29294Y28.99577
G01 X49.24325Y29.06277
G01 X49.20037Y29.13431
G01 X49.1647Y29.20972
G01 X49.1366Y29.28826
G01 X49.11633Y29.36917
G01 X49.10409Y29.45169
G01 X49.1Y29.535
G01 X49.10409Y29.61831
G01 X49.11633Y29.70083
G01 X49.1366Y29.78174
G01 X49.1647Y29.86028
G01 X49.20037Y29.93569
G01 X49.24325Y30.00723
G01 X49.24325Y30.00723
M5
G01 X49.20037Y27.39569
M3
G01 X49.24325Y27.46723
G01 X49.29294Y27.53423
G01 X49.34896Y27.59604
G01 X49.41077Y27.65206
G01 X49.47777Y27.70175
G01 X49.54931Y27.74463
G01 X49.62472Y27.7803
G01 X49.70326Y27.8084
G01 X49.78417Y27.82867
G01 X49.86669Y27.84091
G01 X49.95Y27.845
G01 X50.03331Y27.84091
G01 X50.11583Y27.82867
G01 X50.19674Y27.8084
G01 X50.27528Y27.7803
G01 X50.35069Y27.74463
G01 X50.42223Y27.70175
G01 X50.48923Y27.65206
G01 X50.55104Y27.59604
G01 X50.60706Y27.53423
G01 X50.65675Y27.46723
G01 X50.69963Y27.39569
G01 X50.7353Y27.32028
G01 X50.7634Y27.24174
G01 X50.78367Y27.16083
G01 X50.79591Y27.07831
G01 X50.8Y26.995
G01 X50.79591Y26.91169
G01 X50.78367Y26.82917
G01 X50.7634Y26.74826
G01 X50.7353Y26.66972
G01 X50.69963Y26.59431
G01 X50.65675Y26.52277
G01 X50.60706Y26.45577
G01 X50.55104Y26.39396
G01 X50.48923Y26.33794
G01 X50.42223Y26.28825
G01 X50.35069Y26.24537
G01 X50.27528Y26.2097
G01 X50.19674Y26.1816
G01 X50.11583Y26.16133
G01 X50.03331Y26.14909
G01 X49.95Y26.145
G01 X49.86669Y26.14909
G01 X49.78417Y26.16133
G01 X49.70326Y26.1816
G01 X49.62472Y26.2097
G01 X49.54931Y26.24537
G01 X49.47777Y26.28825
G01 X49.41077Y26.33794
G01 X49.34896Y26.39396
G01 X49.29294Y26.45577
G01 X49.24325Y26.52277
G01 X49.20037Y26.59431
G01 X49.1647Y26.66972
G01 X49.1366Y26.74826
G01 X49.11633Y26.82917
G01 X49.10409Y26.91169
G01 X49.1Y26.995
G01 X49.10409Y27.07831
G01 X49.11633Y27.16083
G01 X49.1366Y27.24174
G01 X49.1647Y27.32028
G01 X49.20037Y27.39569
G01 X49.20037Y27.39569
M5
G01 X54.45Y8.1
M3
G01 X52.85Y8.1
G01 X52.85Y9.7
G01 X54.45Y9.7
G01 X54.45Y8.1
G01 X54.45Y8.1
M5
G01 X50.34445Y9.13223
M3
G01 X50.3709Y9.20615
G01 X50.40446Y9.27712
G01 X50.44482Y9.34446
G01 X50.49159Y9.40751
G01 X50.54431Y9.46569
G01 X50.60249Y9.51841
G01 X50.66554Y9.56518
G01 X50.73288Y9.60554
G01 X50.80385Y9.6391
G01 X50.87777Y9.66555
G01 X50.95393Y9.68463
G01 X51.03159Y9.69615
G01 X51.11Y9.7
G01 X51.18841Y9.69615
G01 X51.26607Y9.68463
G01 X51.34223Y9.66555
G01 X51.41615Y9.6391
G01 X51.48712Y9.60554
G01 X51.55446Y9.56518
G01 X51.61751Y9.51841
G01 X51.67569Y9.46569
G01 X51.72841Y9.40751
G01 X51.77518Y9.34446
G01 X51.81554Y9.27712
G01 X51.8491Y9.20615
G01 X51.87555Y9.13223
G01 X51.89463Y9.05607
G01 X51.90615Y8.97841
G01 X51.91Y8.9
G01 X51.90615Y8.82159
G01 X51.89463Y8.74393
G01 X51.87555Y8.66777
G01 X51.8491Y8.59385
G01 X51.81554Y8.52288
G01 X51.77518Y8.45554
G01 X51.72841Y8.39249
G01 X51.67569Y8.33431
G01 X51.61751Y8.28159
G01 X51.55446Y8.23482
G01 X51.48712Y8.19446
G01 X51.41615Y8.1609
G01 X51.34223Y8.13445
G01 X51.26607Y8.11537
G01 X51.18841Y8.10385
G01 X51.11Y8.1
G01 X51.03159Y8.10385
G01 X50.95393Y8.11537
G01 X50.87777Y8.13445
G01 X50.80385Y8.1609
G01 X50.73288Y8.19446
G01 X50.66554Y8.23482
G01 X50.60249Y8.28159
G01 X50.54431Y8.33431
G01 X50.49159Y8.39249
G01 X50.44482Y8.45554
G01 X50.40446Y8.52288
G01 X50.3709Y8.59385
G01 X50.34445Y8.66777
G01 X50.32537Y8.74393
G01 X50.31385Y8.82159
G01 X50.31Y8.9
G01 X50.31385Y8.97841
G01 X50.32537Y9.05607
G01 X50.34445Y9.13223
G01 X50.34445Y9.13223
M5
G01 X47.78537Y9.05607
M3
G01 X47.80445Y9.13223
G01 X47.8309Y9.20615
G01 X47.86446Y9.27712
G01 X47.90482Y9.34446
G01 X47.95159Y9.40751
G01 X48.00431Y9.46569
G01 X48.06249Y9.51841
G01 X48.12554Y9.56518
G01 X48.19288Y9.60554
G01 X48.26385Y9.6391
G01 X48.33777Y9.66555
G01 X48.41393Y9.68463
G01 X48.49159Y9.69615
G01 X48.57Y9.7
G01 X48.64841Y9.69615
G01 X48.72607Y9.68463
G01 X48.80223Y9.66555
G01 X48.87615Y9.6391
G01 X48.94712Y9.60554
G01 X49.01446Y9.56518
G01 X49.07751Y9.51841
G01 X49.13569Y9.46569
G01 X49.18841Y9.40751
G01 X49.23518Y9.34446
G01 X49.27554Y9.27712
G01 X49.3091Y9.20615
G01 X49.33555Y9.13223
G01 X49.35463Y9.05607
G01 X49.36615Y8.97841
G01 X49.37Y8.9
G01 X49.36615Y8.82159
G01 X49.35463Y8.74393
G01 X49.33555Y8.66777
G01 X49.3091Y8.59385
G01 X49.27554Y8.52288
G01 X49.23518Y8.45554
G01 X49.18841Y8.39249
G01 X49.13569Y8.33431
G01 X49.07751Y8.28159
G01 X49.01446Y8.23482
G01 X48.94712Y8.19446
G01 X48.87615Y8.1609
G01 X48.80223Y8.13445
G01 X48.72607Y8.11537
G01 X48.64841Y8.10385
G01 X48.57Y8.1
G01 X48.49159Y8.10385
G01 X48.41393Y8.11537
G01 X48.33777Y8.13445
G01 X48.26385Y8.1609
G01 X48.19288Y8.19446
G01 X48.12554Y8.23482
G01 X48.06249Y8.28159
G01 X48.00431Y8.33431
G01 X47.95159Y8.39249
G01 X47.90482Y8.45554
G01 X47.86446Y8.52288
G01 X47.8309Y8.59385
G01 X47.80445Y8.66777
G01 X47.78537Y8.74393
G01 X47.77385Y8.82159
G01 X47.77Y8.9
G01 X47.77385Y8.97841
G01 X47.78537Y9.05607
G01 X47.78537Y9.05607
M5
G01 X45.23385Y8.97841
M3
G01 X45.24537Y9.05607
G01 X45.26445Y9.13223
G01 X45.2909Y9.20615
G01 X45.32446Y9.27712
G01 X45.36482Y9.34446
G01 X45.41159Y9.40751
G01 X45.46431Y9.46569
G01 X45.52249Y9.51841
G01 X45.58554Y9.56518
G01 X45.65288Y9.60554
G01 X45.72385Y9.6391
G01 X45.79777Y9.66555
G01 X45.87393Y9.68463
G01 X45.95159Y9.69615
G01 X46.03Y9.7
G01 X46.10841Y9.69615
G01 X46.18607Y9.68463
G01 X46.26223Y9.66555
G01 X46.33615Y9.6391
G01 X46.40712Y9.60554
G01 X46.47446Y9.56518
G01 X46.53751Y9.51841
G01 X46.59569Y9.46569
G01 X46.64841Y9.40751
G01 X46.69518Y9.34446
G01 X46.73554Y9.27712
G01 X46.7691Y9.20615
G01 X46.79555Y9.13223
G01 X46.81463Y9.05607
G01 X46.82615Y8.97841
G01 X46.83Y8.9
G01 X46.82615Y8.82159
G01 X46.81463Y8.74393
G01 X46.79555Y8.66777
G01 X46.7691Y8.59385
G01 X46.73554Y8.52288
G01 X46.69518Y8.45554
G01 X46.64841Y8.39249
G01 X46.59569Y8.33431
G01 X46.53751Y8.28159
G01 X46.47446Y8.23482
G01 X46.40712Y8.19446
G01 X46.33615Y8.1609
G01 X46.26223Y8.13445
G01 X46.18607Y8.11537
G01 X46.10841Y8.10385
G01 X46.03Y8.1
G01 X45.95159Y8.10385
G01 X45.87393Y8.11537
G01 X45.79777Y8.13445
G01 X45.72385Y8.1609
G01 X45.65288Y8.19446
G01 X45.58554Y8.23482
G01 X45.52249Y8.28159
G01 X45.46431Y8.33431
G01 X45.41159Y8.39249
G01 X45.36482Y8.45554
G01 X45.32446Y8.52288
G01 X45.2909Y8.59385
G01 X45.26445Y8.66777
G01 X45.24537Y8.74393
G01 X45.23385Y8.82159
G01 X45.23Y8.9
G01 X45.23385Y8.97841
G01 X45.23385Y8.97841
M5
G01 X42.69Y8.9
M3
G01 X42.69385Y8.97841
G01 X42.70537Y9.05607
G01 X42.72445Y9.13223
G01 X42.7509Y9.20615
G01 X42.78446Y9.27712
G01 X42.82482Y9.34446
G01 X42.87159Y9.40751
G01 X42.92431Y9.46569
G01 X42.98249Y9.51841
G01 X43.04554Y9.56518
G01 X43.11288Y9.60554
G01 X43.18385Y9.6391
G01 X43.25777Y9.66555
G01 X43.33393Y9.68463
G01 X43.41159Y9.69615
G01 X43.49Y9.7
G01 X43.56841Y9.69615
G01 X43.64607Y9.68463
G01 X43.72223Y9.66555
G01 X43.79615Y9.6391
G01 X43.86712Y9.60554
G01 X43.93446Y9.56518
G01 X43.99751Y9.51841
G01 X44.05569Y9.46569
G01 X44.10841Y9.40751
G01 X44.15518Y9.34446
G01 X44.19554Y9.27712
G01 X44.2291Y9.20615
G01 X44.25555Y9.13223
G01 X44.27463Y9.05607
G01 X44.28615Y8.97841
G01 X44.29Y8.9
G01 X44.28615Y8.82159
G01 X44.27463Y8.74393
G01 X44.25555Y8.66777
G01 X44.2291Y8.59385
G01 X44.19554Y8.52288
G01 X44.15518Y8.45554
G01 X44.10841Y8.39249
G01 X44.05569Y8.33431
G01 X43.99751Y8.28159
G01 X43.93446Y8.23482
G01 X43.86712Y8.19446
G01 X43.79615Y8.1609
G01 X43.72223Y8.13445
G01 X43.64607Y8.11537
G01 X43.56841Y8.10385
G01 X43.49Y8.1
G01 X43.41159Y8.10385
G01 X43.33393Y8.11537
G01 X43.25777Y8.13445
G01 X43.18385Y8.1609
G01 X43.11288Y8.19446
G01 X43.04554Y8.23482
G01 X42.98249Y8.28159
G01 X42.92431Y8.33431
G01 X42.87159Y8.39249
G01 X42.82482Y8.45554
G01 X42.78446Y8.52288
G01 X42.7509Y8.59385
G01 X42.72445Y8.66777
G01 X42.70537Y8.74393
G01 X42.69385Y8.82159
G01 X42.69Y8.9
G01 X42.69Y8.9
M5
G01 X40.15385Y8.82159
M3
G01 X40.15Y8.9
G01 X40.15385Y8.97841
G01 X40.16537Y9.05607
G01 X40.18445Y9.13223
G01 X40.2109Y9.20615
G01 X40.24446Y9.27712
G01 X40.28482Y9.34446
G01 X40.33159Y9.40751
G01 X40.38431Y9.46569
G01 X40.44249Y9.51841
G01 X40.50554Y9.56518
G01 X40.57288Y9.60554
G01 X40.64385Y9.6391
G01 X40.71777Y9.66555
G01 X40.79393Y9.68463
G01 X40.87159Y9.69615
G01 X40.95Y9.7
G01 X41.02841Y9.69615
G01 X41.10607Y9.68463
G01 X41.18223Y9.66555
G01 X41.25615Y9.6391
G01 X41.32712Y9.60554
G01 X41.39446Y9.56518
G01 X41.45751Y9.51841
G01 X41.51569Y9.46569
G01 X41.56841Y9.40751
G01 X41.61518Y9.34446
G01 X41.65554Y9.27712
G01 X41.6891Y9.20615
G01 X41.71555Y9.13223
G01 X41.73463Y9.05607
G01 X41.74615Y8.97841
G01 X41.75Y8.9
G01 X41.74615Y8.82159
G01 X41.73463Y8.74393
G01 X41.71555Y8.66777
G01 X41.6891Y8.59385
G01 X41.65554Y8.52288
G01 X41.61518Y8.45554
G01 X41.56841Y8.39249
G01 X41.51569Y8.33431
G01 X41.45751Y8.28159
G01 X41.39446Y8.23482
G01 X41.32712Y8.19446
G01 X41.25615Y8.1609
G01 X41.18223Y8.13445
G01 X41.10607Y8.11537
G01 X41.02841Y8.10385
G01 X40.95Y8.1
G01 X40.87159Y8.10385
G01 X40.79393Y8.11537
G01 X40.71777Y8.13445
G01 X40.64385Y8.1609
G01 X40.57288Y8.19446
G01 X40.50554Y8.23482
G01 X40.44249Y8.28159
G01 X40.38431Y8.33431
G01 X40.33159Y8.39249
G01 X40.28482Y8.45554
G01 X40.24446Y8.52288
G01 X40.2109Y8.59385
G01 X40.18445Y8.66777
G01 X40.16537Y8.74393
G01 X40.15385Y8.82159
G01 X40.15385Y8.82159
M5
G01 X37.62537Y8.74393
M3
G01 X37.61385Y8.82159
G01 X37.61Y8.9
G01 X37.61385Y8.97841
G01 X37.62537Y9.05607
G01 X37.64445Y9.13223
G01 X37.6709Y9.20615
G01 X37.70446Y9.27712
G01 X37.74482Y9.34446
G01 X37.79159Y9.40751
G01 X37.84431Y9.46569
G01 X37.90249Y9.51841
G01 X37.96554Y9.56518
G01 X38.03288Y9.60554
G01 X38.10385Y9.6391
G01 X38.17777Y9.66555
G01 X38.25393Y9.68463
G01 X38.33159Y9.69615
G01 X38.41Y9.7
G01 X38.48841Y9.69615
G01 X38.56607Y9.68463
G01 X38.64223Y9.66555
G01 X38.71615Y9.6391
G01 X38.78712Y9.60554
G01 X38.85446Y9.56518
G01 X38.91751Y9.51841
G01 X38.97569Y9.46569
G01 X39.02841Y9.40751
G01 X39.07518Y9.34446
G01 X39.11554Y9.27712
G01 X39.1491Y9.20615
G01 X39.17555Y9.13223
G01 X39.19463Y9.05607
G01 X39.20615Y8.97841
G01 X39.21Y8.9
G01 X39.20615Y8.82159
G01 X39.19463Y8.74393
G01 X39.17555Y8.66777
G01 X39.1491Y8.59385
G01 X39.11554Y8.52288
G01 X39.07518Y8.45554
G01 X39.02841Y8.39249
G01 X38.97569Y8.33431
G01 X38.91751Y8.28159
G01 X38.85446Y8.23482
G01 X38.78712Y8.19446
G01 X38.71615Y8.1609
G01 X38.64223Y8.13445
G01 X38.56607Y8.11537
G01 X38.48841Y8.10385
G01 X38.41Y8.1
G01 X38.33159Y8.10385
G01 X38.25393Y8.11537
G01 X38.17777Y8.13445
G01 X38.10385Y8.1609
G01 X38.03288Y8.19446
G01 X37.96554Y8.23482
G01 X37.90249Y8.28159
G01 X37.84431Y8.33431
G01 X37.79159Y8.39249
G01 X37.74482Y8.45554
G01 X37.70446Y8.52288
G01 X37.6709Y8.59385
G01 X37.64445Y8.66777
G01 X37.62537Y8.74393
G01 X37.62537Y8.74393
M5
G01 X35.10445Y8.66777
M3
G01 X35.08537Y8.74393
G01 X35.07385Y8.82159
G01 X35.07Y8.9
G01 X35.07385Y8.97841
G01 X35.08537Y9.05607
G01 X35.10445Y9.13223
G01 X35.1309Y9.20615
G01 X35.16446Y9.27712
G01 X35.20482Y9.34446
G01 X35.25159Y9.40751
G01 X35.30431Y9.46569
G01 X35.36249Y9.51841
G01 X35.42554Y9.56518
G01 X35.49288Y9.60554
G01 X35.56385Y9.6391
G01 X35.63777Y9.66555
G01 X35.71393Y9.68463
G01 X35.79159Y9.69615
G01 X35.87Y9.7
G01 X35.94841Y9.69615
G01 X36.02607Y9.68463
G01 X36.10223Y9.66555
G01 X36.17615Y9.6391
G01 X36.24712Y9.60554
G01 X36.31446Y9.56518
G01 X36.37751Y9.51841
G01 X36.43569Y9.46569
G01 X36.48841Y9.40751
G01 X36.53518Y9.34446
G01 X36.57554Y9.27712
G01 X36.6091Y9.20615
G01 X36.63555Y9.13223
G01 X36.65463Y9.05607
G01 X36.66615Y8.97841
G01 X36.67Y8.9
G01 X36.66615Y8.82159
G01 X36.65463Y8.74393
G01 X36.63555Y8.66777
G01 X36.6091Y8.59385
G01 X36.57554Y8.52288
G01 X36.53518Y8.45554
G01 X36.48841Y8.39249
G01 X36.43569Y8.33431
G01 X36.37751Y8.28159
G01 X36.31446Y8.23482
G01 X36.24712Y8.19446
G01 X36.17615Y8.1609
G01 X36.10223Y8.13445
G01 X36.02607Y8.11537
G01 X35.94841Y8.10385
G01 X35.87Y8.1
G01 X35.79159Y8.10385
G01 X35.71393Y8.11537
G01 X35.63777Y8.13445
G01 X35.56385Y8.1609
G01 X35.49288Y8.19446
G01 X35.42554Y8.23482
G01 X35.36249Y8.28159
G01 X35.30431Y8.33431
G01 X35.25159Y8.39249
G01 X35.20482Y8.45554
G01 X35.16446Y8.52288
G01 X35.1309Y8.59385
G01 X35.10445Y8.66777
G01 X35.10445Y8.66777
M5
G01 X35.1309Y21.29385
M3
G01 X35.10445Y21.36777
G01 X35.08537Y21.44393
G01 X35.07385Y21.52159
G01 X35.07Y21.6
G01 X35.07385Y21.67841
G01 X35.08537Y21.75607
G01 X35.10445Y21.83223
G01 X35.1309Y21.90615
G01 X35.16446Y21.97712
G01 X35.20482Y22.04446
G01 X35.25159Y22.10751
G01 X35.30431Y22.16569
G01 X35.36249Y22.21841
G01 X35.42554Y22.26518
G01 X35.49288Y22.30554
G01 X35.56385Y22.3391
G01 X35.63777Y22.36555
G01 X35.71393Y22.38463
G01 X35.79159Y22.39615
G01 X35.87Y22.4
G01 X35.94841Y22.39615
G01 X36.02607Y22.38463
G01 X36.10223Y22.36555
G01 X36.17615Y22.3391
G01 X36.24712Y22.30554
G01 X36.31446Y22.26518
G01 X36.37751Y22.21841
G01 X36.43569Y22.16569
G01 X36.48841Y22.10751
G01 X36.53518Y22.04446
G01 X36.57554Y21.97712
G01 X36.6091Y21.90615
G01 X36.63555Y21.83223
G01 X36.65463Y21.75607
G01 X36.66615Y21.67841
G01 X36.67Y21.6
G01 X36.66615Y21.52159
G01 X36.65463Y21.44393
G01 X36.63555Y21.36777
G01 X36.6091Y21.29385
G01 X36.57554Y21.22288
G01 X36.53518Y21.15554
G01 X36.48841Y21.09249
G01 X36.43569Y21.03431
G01 X36.37751Y20.98159
G01 X36.31446Y20.93482
G01 X36.24712Y20.89446
G01 X36.17615Y20.8609
G01 X36.10223Y20.83445
G01 X36.02607Y20.81537
G01 X35.94841Y20.80385
G01 X35.87Y20.8
G01 X35.79159Y20.80385
G01 X35.71393Y20.81537
G01 X35.63777Y20.83445
G01 X35.56385Y20.8609
G01 X35.49288Y20.89446
G01 X35.42554Y20.93482
G01 X35.36249Y20.98159
G01 X35.30431Y21.03431
G01 X35.25159Y21.09249
G01 X35.20482Y21.15554
G01 X35.16446Y21.22288
G01 X35.1309Y21.29385
G01 X35.1309Y21.29385
M5
G01 X37.70446Y21.22288
M3
G01 X37.6709Y21.29385
G01 X37.64445Y21.36777
G01 X37.62537Y21.44393
G01 X37.61385Y21.52159
G01 X37.61Y21.6
G01 X37.61385Y21.67841
G01 X37.62537Y21.75607
G01 X37.64445Y21.83223
G01 X37.6709Y21.90615
G01 X37.70446Y21.97712
G01 X37.74482Y22.04446
G01 X37.79159Y22.10751
G01 X37.84431Y22.16569
G01 X37.90249Y22.21841
G01 X37.96554Y22.26518
G01 X38.03288Y22.30554
G01 X38.10385Y22.3391
G01 X38.17777Y22.36555
G01 X38.25393Y22.38463
G01 X38.33159Y22.39615
G01 X38.41Y22.4
G01 X38.48841Y22.39615
G01 X38.56607Y22.38463
G01 X38.64223Y22.36555
G01 X38.71615Y22.3391
G01 X38.78712Y22.30554
G01 X38.85446Y22.26518
G01 X38.91751Y22.21841
G01 X38.97569Y22.16569
G01 X39.02841Y22.10751
G01 X39.07518Y22.04446
G01 X39.11554Y21.97712
G01 X39.1491Y21.90615
G01 X39.17555Y21.83223
G01 X39.19463Y21.75607
G01 X39.20615Y21.67841
G01 X39.21Y21.6
G01 X39.20615Y21.52159
G01 X39.19463Y21.44393
G01 X39.17555Y21.36777
G01 X39.1491Y21.29385
G01 X39.11554Y21.22288
G01 X39.07518Y21.15554
G01 X39.02841Y21.09249
G01 X38.97569Y21.03431
G01 X38.91751Y20.98159
G01 X38.85446Y20.93482
G01 X38.78712Y20.89446
G01 X38.71615Y20.8609
G01 X38.64223Y20.83445
G01 X38.56607Y20.81537
G01 X38.48841Y20.80385
G01 X38.41Y20.8
G01 X38.33159Y20.80385
G01 X38.25393Y20.81537
G01 X38.17777Y20.83445
G01 X38.10385Y20.8609
G01 X38.03288Y20.89446
G01 X37.96554Y20.93482
G01 X37.90249Y20.98159
G01 X37.84431Y21.03431
G01 X37.79159Y21.09249
G01 X37.74482Y21.15554
G01 X37.70446Y21.22288
G01 X37.70446Y21.22288
M5
G01 X40.28482Y21.15554
M3
G01 X40.24446Y21.22288
G01 X40.2109Y21.29385
G01 X40.18445Y21.36777
G01 X40.16537Y21.44393
G01 X40.15385Y21.52159
G01 X40.15Y21.6
G01 X40.15385Y21.67841
G01 X40.16537Y21.75607
G01 X40.18445Y21.83223
G01 X40.2109Y21.90615
G01 X40.24446Y21.97712
G01 X40.28482Y22.04446
G01 X40.33159Y22.10751
G01 X40.38431Y22.16569
G01 X40.44249Y22.21841
G01 X40.50554Y22.26518
G01 X40.57288Y22.30554
G01 X40.64385Y22.3391
G01 X40.71777Y22.36555
G01 X40.79393Y22.38463
G01 X40.87159Y22.39615
G01 X40.95Y22.4
G01 X41.02841Y22.39615
G01 X41.10607Y22.38463
G01 X41.18223Y22.36555
G01 X41.25615Y22.3391
G01 X41.32712Y22.30554
G01 X41.39446Y22.26518
G01 X41.45751Y22.21841
G01 X41.51569Y22.16569
G01 X41.56841Y22.10751
G01 X41.61518Y22.04446
G01 X41.65554Y21.97712
G01 X41.6891Y21.90615
G01 X41.71555Y21.83223
G01 X41.73463Y21.75607
G01 X41.74615Y21.67841
G01 X41.75Y21.6
G01 X41.74615Y21.52159
G01 X41.73463Y21.44393
G01 X41.71555Y21.36777
G01 X41.6891Y21.29385
G01 X41.65554Y21.22288
G01 X41.61518Y21.15554
G01 X41.56841Y21.09249
G01 X41.51569Y21.03431
G01 X41.45751Y20.98159
G01 X41.39446Y20.93482
G01 X41.32712Y20.89446
G01 X41.25615Y20.8609
G01 X41.18223Y20.83445
G01 X41.10607Y20.81537
G01 X41.02841Y20.80385
G01 X40.95Y20.8
G01 X40.87159Y20.80385
G01 X40.79393Y20.81537
G01 X40.71777Y20.83445
G01 X40.64385Y20.8609
G01 X40.57288Y20.89446
G01 X40.50554Y20.93482
G01 X40.44249Y20.98159
G01 X40.38431Y21.03431
G01 X40.33159Y21.09249
G01 X40.28482Y21.15554
G01 X40.28482Y21.15554
M5
G01 X42.87159Y21.09249
M3
G01 X42.82482Y21.15554
G01 X42.78446Y21.22288
G01 X42.7509Y21.29385
G01 X42.72445Y21.36777
G01 X42.70537Y21.44393
G01 X42.69385Y21.52159
G01 X42.69Y21.6
G01 X42.69385Y21.67841
G01 X42.70537Y21.75607
G01 X42.72445Y21.83223
G01 X42.7509Y21.90615
G01 X42.78446Y21.97712
G01 X42.82482Y22.04446
G01 X42.87159Y22.10751
G01 X42.92431Y22.16569
G01 X42.98249Y22.21841
G01 X43.04554Y22.26518
G01 X43.11288Y22.30554
G01 X43.18385Y22.3391
G01 X43.25777Y22.36555
G01 X43.33393Y22.38463
G01 X43.41159Y22.39615
G01 X43.49Y22.4
G01 X43.56841Y22.39615
G01 X43.64607Y22.38463
G01 X43.72223Y22.36555
G01 X43.79615Y22.3391
G01 X43.86712Y22.30554
G01 X43.93446Y22.26518
G01 X43.99751Y22.21841
G01 X44.05569Y22.16569
G01 X44.10841Y22.10751
G01 X44.15518Y22.04446
G01 X44.19554Y21.97712
G01 X44.2291Y21.90615
G01 X44.25555Y21.83223
G01 X44.27463Y21.75607
G01 X44.28615Y21.67841
G01 X44.29Y21.6
G01 X44.28615Y21.52159
G01 X44.27463Y21.44393
G01 X44.25555Y21.36777
G01 X44.2291Y21.29385
G01 X44.19554Y21.22288
G01 X44.15518Y21.15554
G01 X44.10841Y21.09249
G01 X44.05569Y21.03431
G01 X43.99751Y20.98159
G01 X43.93446Y20.93482
G01 X43.86712Y20.89446
G01 X43.79615Y20.8609
G01 X43.72223Y20.83445
G01 X43.64607Y20.81537
G01 X43.56841Y20.80385
G01 X43.49Y20.8
G01 X43.41159Y20.80385
G01 X43.33393Y20.81537
G01 X43.25777Y20.83445
G01 X43.18385Y20.8609
G01 X43.11288Y20.89446
G01 X43.04554Y20.93482
G01 X42.98249Y20.98159
G01 X42.92431Y21.03431
G01 X42.87159Y21.09249
G01 X42.87159Y21.09249
M5
G01 X45.46431Y21.03431
M3
G01 X45.41159Y21.09249
G01 X45.36482Y21.15554
G01 X45.32446Y21.22288
G01 X45.2909Y21.29385
G01 X45.26445Y21.36777
G01 X45.24537Y21.44393
G01 X45.23385Y21.52159
G01 X45.23Y21.6
G01 X45.23385Y21.67841
G01 X45.24537Y21.75607
G01 X45.26445Y21.83223
G01 X45.2909Y21.90615
G01 X45.32446Y21.97712
G01 X45.36482Y22.04446
G01 X45.41159Y22.10751
G01 X45.46431Y22.16569
G01 X45.52249Y22.21841
G01 X45.58554Y22.26518
G01 X45.65288Y22.30554
G01 X45.72385Y22.3391
G01 X45.79777Y22.36555
G01 X45.87393Y22.38463
G01 X45.95159Y22.39615
G01 X46.03Y22.4
G01 X46.10841Y22.39615
G01 X46.18607Y22.38463
G01 X46.26223Y22.36555
G01 X46.33615Y22.3391
G01 X46.40712Y22.30554
G01 X46.47446Y22.26518
G01 X46.53751Y22.21841
G01 X46.59569Y22.16569
G01 X46.64841Y22.10751
G01 X46.69518Y22.04446
G01 X46.73554Y21.97712
G01 X46.7691Y21.90615
G01 X46.79555Y21.83223
G01 X46.81463Y21.75607
G01 X46.82615Y21.67841
G01 X46.83Y21.6
G01 X46.82615Y21.52159
G01 X46.81463Y21.44393
G01 X46.79555Y21.36777
G01 X46.7691Y21.29385
G01 X46.73554Y21.22288
G01 X46.69518Y21.15554
G01 X46.64841Y21.09249
G01 X46.59569Y21.03431
G01 X46.53751Y20.98159
G01 X46.47446Y20.93482
G01 X46.40712Y20.89446
G01 X46.33615Y20.8609
G01 X46.26223Y20.83445
G01 X46.18607Y20.81537
G01 X46.10841Y20.80385
G01 X46.03Y20.8
G01 X45.95159Y20.80385
G01 X45.87393Y20.81537
G01 X45.79777Y20.83445
G01 X45.72385Y20.8609
G01 X45.65288Y20.89446
G01 X45.58554Y20.93482
G01 X45.52249Y20.98159
G01 X45.46431Y21.03431
G01 X45.46431Y21.03431
M5
G01 X48.06249Y20.98159
M3
G01 X48.00431Y21.03431
G01 X47.95159Y21.09249
G01 X47.90482Y21.15554
G01 X47.86446Y21.22288
G01 X47.8309Y21.29385
G01 X47.80445Y21.36777
G01 X47.78537Y21.44393
G01 X47.77385Y21.52159
G01 X47.77Y21.6
G01 X47.77385Y21.67841
G01 X47.78537Y21.75607
G01 X47.80445Y21.83223
G01 X47.8309Y21.90615
G01 X47.86446Y21.97712
G01 X47.90482Y22.04446
G01 X47.95159Y22.10751
G01 X48.00431Y22.16569
G01 X48.06249Y22.21841
G01 X48.12554Y22.26518
G01 X48.19288Y22.30554
G01 X48.26385Y22.3391
G01 X48.33777Y22.36555
G01 X48.41393Y22.38463
G01 X48.49159Y22.39615
G01 X48.57Y22.4
G01 X48.64841Y22.39615
G01 X48.72607Y22.38463
G01 X48.80223Y22.36555
G01 X48.87615Y22.3391
G01 X48.94712Y22.30554
G01 X49.01446Y22.26518
G01 X49.07751Y22.21841
G01 X49.13569Y22.16569
G01 X49.18841Y22.10751
G01 X49.23518Y22.04446
G01 X49.27554Y21.97712
G01 X49.3091Y21.90615
G01 X49.33555Y21.83223
G01 X49.35463Y21.75607
G01 X49.36615Y21.67841
G01 X49.37Y21.6
G01 X49.36615Y21.52159
G01 X49.35463Y21.44393
G01 X49.33555Y21.36777
G01 X49.3091Y21.29385
G01 X49.27554Y21.22288
G01 X49.23518Y21.15554
G01 X49.18841Y21.09249
G01 X49.13569Y21.03431
G01 X49.07751Y20.98159
G01 X49.01446Y20.93482
G01 X48.94712Y20.89446
G01 X48.87615Y20.8609
G01 X48.80223Y20.83445
G01 X48.72607Y20.81537
G01 X48.64841Y20.80385
G01 X48.57Y20.8
G01 X48.49159Y20.80385
G01 X48.41393Y20.81537
G01 X48.33777Y20.83445
G01 X48.26385Y20.8609
G01 X48.19288Y20.89446
G01 X48.12554Y20.93482
G01 X48.06249Y20.98159
G01 X48.06249Y20.98159
M5
G01 X50.66554Y20.93482
M3
G01 X50.60249Y20.98159
G01 X50.54431Y21.03431
G01 X50.49159Y21.09249
G01 X50.44482Y21.15554
G01 X50.40446Y21.22288
G01 X50.3709Y21.29385
G01 X50.34445Y21.36777
G01 X50.32537Y21.44393
G01 X50.31385Y21.52159
G01 X50.31Y21.6
G01 X50.31385Y21.67841
G01 X50.32537Y21.75607
G01 X50.34445Y21.83223
G01 X50.3709Y21.90615
G01 X50.40446Y21.97712
G01 X50.44482Y22.04446
G01 X50.49159Y22.10751
G01 X50.54431Y22.16569
G01 X50.60249Y22.21841
G01 X50.66554Y22.26518
G01 X50.73288Y22.30554
G01 X50.80385Y22.3391
G01 X50.87777Y22.36555
G01 X50.95393Y22.38463
G01 X51.03159Y22.39615
G01 X51.11Y22.4
G01 X51.18841Y22.39615
G01 X51.26607Y22.38463
G01 X51.34223Y22.36555
G01 X51.41615Y22.3391
G01 X51.48712Y22.30554
G01 X51.55446Y22.26518
G01 X51.61751Y22.21841
G01 X51.67569Y22.16569
G01 X51.72841Y22.10751
G01 X51.77518Y22.04446
G01 X51.81554Y21.97712
G01 X51.8491Y21.90615
G01 X51.87555Y21.83223
G01 X51.89463Y21.75607
G01 X51.90615Y21.67841
G01 X51.91Y21.6
G01 X51.90615Y21.52159
G01 X51.89463Y21.44393
G01 X51.87555Y21.36777
G01 X51.8491Y21.29385
G01 X51.81554Y21.22288
G01 X51.77518Y21.15554
G01 X51.72841Y21.09249
G01 X51.67569Y21.03431
G01 X51.61751Y20.98159
G01 X51.55446Y20.93482
G01 X51.48712Y20.89446
G01 X51.41615Y20.8609
G01 X51.34223Y20.83445
G01 X51.26607Y20.81537
G01 X51.18841Y20.80385
G01 X51.11Y20.8
G01 X51.03159Y20.80385
G01 X50.95393Y20.81537
G01 X50.87777Y20.83445
G01 X50.80385Y20.8609
G01 X50.73288Y20.89446
G01 X50.66554Y20.93482
G01 X50.66554Y20.93482
M5
G01 X53.27288Y20.89446
M3
G01 X53.20554Y20.93482
G01 X53.14249Y20.98159
G01 X53.08431Y21.03431
G01 X53.03159Y21.09249
G01 X52.98482Y21.15554
G01 X52.94446Y21.22288
G01 X52.9109Y21.29385
G01 X52.88445Y21.36777
G01 X52.86537Y21.44393
G01 X52.85385Y21.52159
G01 X52.85Y21.6
G01 X52.85385Y21.67841
G01 X52.86537Y21.75607
G01 X52.88445Y21.83223
G01 X52.9109Y21.90615
G01 X52.94446Y21.97712
G01 X52.98482Y22.04446
G01 X53.03159Y22.10751
G01 X53.08431Y22.16569
G01 X53.14249Y22.21841
G01 X53.20554Y22.26518
G01 X53.27288Y22.30554
G01 X53.34385Y22.3391
G01 X53.41777Y22.36555
G01 X53.49393Y22.38463
G01 X53.57159Y22.39615
G01 X53.65Y22.4
G01 X53.72841Y22.39615
G01 X53.80607Y22.38463
G01 X53.88223Y22.36555
G01 X53.95615Y22.3391
G01 X54.02712Y22.30554
G01 X54.09446Y22.26518
G01 X54.15751Y22.21841
G01 X54.21569Y22.16569
G01 X54.26841Y22.10751
G01 X54.31518Y22.04446
G01 X54.35554Y21.97712
G01 X54.3891Y21.90615
G01 X54.41555Y21.83223
G01 X54.43463Y21.75607
G01 X54.44615Y21.67841
G01 X54.45Y21.6
G01 X54.44615Y21.52159
G01 X54.43463Y21.44393
G01 X54.41555Y21.36777
G01 X54.3891Y21.29385
G01 X54.35554Y21.22288
G01 X54.31518Y21.15554
G01 X54.26841Y21.09249
G01 X54.21569Y21.03431
G01 X54.15751Y20.98159
G01 X54.09446Y20.93482
G01 X54.02712Y20.89446
G01 X53.95615Y20.8609
G01 X53.88223Y20.83445
G01 X53.80607Y20.81537
G01 X53.72841Y20.80385
G01 X53.65Y20.8
G01 X53.57159Y20.80385
G01 X53.49393Y20.81537
G01 X53.41777Y20.83445
G01 X53.34385Y20.8609
G01 X53.27288Y20.89446
G01 X53.27288Y20.89446
M5
G01 X58.2025Y33.475
M3
G01 X56.2975Y33.475
G01 X56.2975Y35.475
G01 X58.2025Y35.475
G01 X58.2025Y33.475
G01 X58.2025Y33.475
M5
G01 X59.5135Y33.51601
M3
G01 X59.42549Y33.5475
G01 X59.34099Y33.58747
G01 X59.26082Y33.63553
G01 X59.18574Y33.69121
G01 X59.11648Y33.75398
G01 X59.05371Y33.82324
G01 X58.99803Y33.89832
G01 X58.94997Y33.97849
G01 X58.91Y34.06299
G01 X58.87851Y34.151
G01 X58.8558Y34.24168
G01 X58.84209Y34.33414
G01 X58.8375Y34.5225
G01 X58.84209Y34.61586
G01 X58.8558Y34.70832
G01 X58.87851Y34.799
G01 X58.91Y34.88701
G01 X58.94997Y34.97151
G01 X58.99803Y35.05168
G01 X59.05371Y35.12676
G01 X59.11648Y35.19602
G01 X59.18574Y35.25879
G01 X59.26082Y35.31447
G01 X59.34099Y35.36253
G01 X59.42549Y35.4025
G01 X59.5135Y35.43399
G01 X59.60418Y35.4567
G01 X59.69664Y35.47041
G01 X59.79Y35.475
G01 X59.88336Y35.47041
G01 X59.97582Y35.4567
G01 X60.0665Y35.43399
G01 X60.15451Y35.4025
G01 X60.23901Y35.36253
G01 X60.31918Y35.31447
G01 X60.39426Y35.25879
G01 X60.46352Y35.19602
G01 X60.52629Y35.12676
G01 X60.58197Y35.05168
G01 X60.63003Y34.97151
G01 X60.67Y34.88701
G01 X60.70149Y34.799
G01 X60.7242Y34.70832
G01 X60.73791Y34.61586
G01 X60.7425Y34.4275
G01 X60.73791Y34.33414
G01 X60.7242Y34.24168
G01 X60.70149Y34.151
G01 X60.67Y34.06299
G01 X60.63003Y33.97849
G01 X60.58197Y33.89832
G01 X60.52629Y33.82324
G01 X60.46352Y33.75398
G01 X60.39426Y33.69121
G01 X60.31918Y33.63553
G01 X60.23901Y33.58747
G01 X60.15451Y33.5475
G01 X60.0665Y33.51601
G01 X59.97582Y33.4933
G01 X59.88336Y33.47959
G01 X59.79Y33.475
G01 X59.69664Y33.47959
G01 X59.60418Y33.4933
G01 X59.5135Y33.51601
G01 X59.5135Y33.51601
M5
G01 X62.14418Y33.4933
M3
G01 X62.0535Y33.51601
G01 X61.96549Y33.5475
G01 X61.88099Y33.58747
G01 X61.80082Y33.63553
G01 X61.72574Y33.69121
G01 X61.65648Y33.75398
G01 X61.59371Y33.82324
G01 X61.53803Y33.89832
G01 X61.48997Y33.97849
G01 X61.45Y34.06299
G01 X61.41851Y34.151
G01 X61.3958Y34.24168
G01 X61.38209Y34.33414
G01 X61.3775Y34.5225
G01 X61.38209Y34.61586
G01 X61.3958Y34.70832
G01 X61.41851Y34.799
G01 X61.45Y34.88701
G01 X61.48997Y34.97151
G01 X61.53803Y35.05168
G01 X61.59371Y35.12676
G01 X61.65648Y35.19602
G01 X61.72574Y35.25879
G01 X61.80082Y35.31447
G01 X61.88099Y35.36253
G01 X61.96549Y35.4025
G01 X62.0535Y35.43399
G01 X62.14418Y35.4567
G01 X62.23664Y35.47041
G01 X62.33Y35.475
G01 X62.42336Y35.47041
G01 X62.51582Y35.4567
G01 X62.6065Y35.43399
G01 X62.69451Y35.4025
G01 X62.77901Y35.36253
G01 X62.85918Y35.31447
G01 X62.93426Y35.25879
G01 X63.00352Y35.19602
G01 X63.06629Y35.12676
G01 X63.12197Y35.05168
G01 X63.17003Y34.97151
G01 X63.21Y34.88701
G01 X63.24149Y34.799
G01 X63.2642Y34.70832
G01 X63.27791Y34.61586
G01 X63.2825Y34.4275
G01 X63.27791Y34.33414
G01 X63.2642Y34.24168
G01 X63.24149Y34.151
G01 X63.21Y34.06299
G01 X63.17003Y33.97849
G01 X63.12197Y33.89832
G01 X63.06629Y33.82324
G01 X63.00352Y33.75398
G01 X62.93426Y33.69121
G01 X62.85918Y33.63553
G01 X62.77901Y33.58747
G01 X62.69451Y33.5475
G01 X62.6065Y33.51601
G01 X62.51582Y33.4933
G01 X62.42336Y33.47959
G01 X62.33Y33.475
G01 X62.23664Y33.47959
G01 X62.14418Y33.4933
G01 X62.14418Y33.4933
M5
G01 X59.18367Y56.25143
M3
G01 X59.20959Y56.42616
G01 X59.25251Y56.59751
G01 X59.31202Y56.76383
G01 X59.38754Y56.92351
G01 X59.47835Y57.07503
G01 X59.58358Y57.21691
G01 X59.70221Y57.34779
G01 X59.83309Y57.46642
G01 X59.97497Y57.57165
G01 X60.12649Y57.66246
G01 X60.28617Y57.73798
G01 X60.45249Y57.79749
G01 X60.62384Y57.84041
G01 X60.79857Y57.86633
G01 X60.975Y57.875
G01 X61.15143Y57.86633
G01 X61.32616Y57.84041
G01 X61.49751Y57.79749
G01 X61.66383Y57.73798
G01 X61.82351Y57.66246
G01 X61.97503Y57.57165
G01 X62.11691Y57.46642
G01 X62.24779Y57.34779
G01 X62.36642Y57.21691
G01 X62.47165Y57.07503
G01 X62.56246Y56.92351
G01 X62.63798Y56.76383
G01 X62.69749Y56.59751
G01 X62.74041Y56.42616
G01 X62.76633Y56.25143
G01 X62.775Y56.075
G01 X62.76633Y55.89857
G01 X62.74041Y55.72384
G01 X62.69749Y55.55249
G01 X62.63798Y55.38617
G01 X62.56246Y55.22649
G01 X62.47165Y55.07497
G01 X62.36642Y54.93309
G01 X62.24779Y54.80221
G01 X62.11691Y54.68358
G01 X61.97503Y54.57835
G01 X61.82351Y54.48754
G01 X61.66383Y54.41202
G01 X61.49751Y54.35251
G01 X61.32616Y54.30959
G01 X61.15143Y54.28367
G01 X60.975Y54.275
G01 X60.79857Y54.28367
G01 X60.62384Y54.30959
G01 X60.45249Y54.35251
G01 X60.28617Y54.41202
G01 X60.12649Y54.48754
G01 X59.97497Y54.57835
G01 X59.83309Y54.68358
G01 X59.70221Y54.80221
G01 X59.58358Y54.93309
G01 X59.47835Y55.07497
G01 X59.38754Y55.22649
G01 X59.31202Y55.38617
G01 X59.25251Y55.55249
G01 X59.20959Y55.72384
G01 X59.18367Y55.89857
G01 X59.175Y56.075
G01 X59.18367Y56.25143
G01 X59.18367Y56.25143
M5
G01 X20.55Y24.905
M3
G01 X20.55Y25.955
G01 X22.05Y25.955
G01 X22.05Y24.905
G01 X20.55Y24.905
G01 X20.55Y24.905
M5
G01 X21.075Y26.175
M3
G01 X21.02354Y26.17753
G01 X20.97258Y26.18509
G01 X20.9226Y26.19761
G01 X20.87409Y26.21496
G01 X20.82752Y26.23699
G01 X20.78333Y26.26348
G01 X20.74194Y26.29417
G01 X20.70377Y26.32877
G01 X20.66917Y26.36694
G01 X20.63848Y26.40833
G01 X20.61199Y26.45252
G01 X20.58996Y26.49909
G01 X20.57261Y26.5476
G01 X20.56009Y26.59758
G01 X20.55253Y26.64854
G01 X20.55Y26.7
G01 X20.55253Y26.75146
G01 X20.56009Y26.80242
G01 X20.57261Y26.8524
G01 X20.58996Y26.90091
G01 X20.61199Y26.94748
G01 X20.63848Y26.99167
G01 X20.66917Y27.03306
G01 X20.70377Y27.07123
G01 X20.74194Y27.10583
G01 X20.78333Y27.13652
G01 X20.82752Y27.16301
G01 X20.87409Y27.18504
G01 X20.9226Y27.20239
G01 X20.97258Y27.21491
G01 X21.02354Y27.22247
G01 X21.525Y27.225
G01 X21.57646Y27.22247
G01 X21.62742Y27.21491
G01 X21.6774Y27.20239
G01 X21.72591Y27.18504
G01 X21.77248Y27.16301
G01 X21.81667Y27.13652
G01 X21.85806Y27.10583
G01 X21.89623Y27.07123
G01 X21.93083Y27.03306
G01 X21.96152Y26.99167
G01 X21.98801Y26.94748
G01 X22.01004Y26.90091
G01 X22.02739Y26.8524
G01 X22.03991Y26.80242
G01 X22.04747Y26.75146
G01 X22.05Y26.7
G01 X22.04747Y26.64854
G01 X22.03991Y26.59758
G01 X22.02739Y26.5476
G01 X22.01004Y26.49909
G01 X21.98801Y26.45252
G01 X21.96152Y26.40833
G01 X21.93083Y26.36694
G01 X21.89623Y26.32877
G01 X21.85806Y26.29417
G01 X21.81667Y26.26348
G01 X21.77248Y26.23699
G01 X21.72591Y26.21496
G01 X21.6774Y26.19761
G01 X21.62742Y26.18509
G01 X21.57646Y26.17753
G01 X21.075Y26.175
G01 X21.075Y26.175
M5
G01 X21.57646Y27.44753
M3
G01 X21.075Y27.445
G01 X21.02354Y27.44753
G01 X20.97258Y27.45509
G01 X20.9226Y27.46761
G01 X20.87409Y27.48496
G01 X20.82752Y27.50699
G01 X20.78333Y27.53348
G01 X20.74194Y27.56417
G01 X20.70377Y27.59877
G01 X20.66917Y27.63694
G01 X20.63848Y27.67833
G01 X20.61199Y27.72252
G01 X20.58996Y27.76909
G01 X20.57261Y27.8176
G01 X20.56009Y27.86758
G01 X20.55253Y27.91854
G01 X20.55Y27.97
G01 X20.55253Y28.02146
G01 X20.56009Y28.07242
G01 X20.57261Y28.1224
G01 X20.58996Y28.17091
G01 X20.61199Y28.21748
G01 X20.63848Y28.26167
G01 X20.66917Y28.30306
G01 X20.70377Y28.34123
G01 X20.74194Y28.37583
G01 X20.78333Y28.40652
G01 X20.82752Y28.43301
G01 X20.87409Y28.45504
G01 X20.9226Y28.47239
G01 X20.97258Y28.48491
G01 X21.02354Y28.49247
G01 X21.525Y28.495
G01 X21.57646Y28.49247
G01 X21.62742Y28.48491
G01 X21.6774Y28.47239
G01 X21.72591Y28.45504
G01 X21.77248Y28.43301
G01 X21.81667Y28.40652
G01 X21.85806Y28.37583
G01 X21.89623Y28.34123
G01 X21.93083Y28.30306
G01 X21.96152Y28.26167
G01 X21.98801Y28.21748
G01 X22.01004Y28.17091
G01 X22.02739Y28.1224
G01 X22.03991Y28.07242
G01 X22.04747Y28.02146
G01 X22.05Y27.97
G01 X22.04747Y27.91854
G01 X22.03991Y27.86758
G01 X22.02739Y27.8176
G01 X22.01004Y27.76909
G01 X21.98801Y27.72252
G01 X21.96152Y27.67833
G01 X21.93083Y27.63694
G01 X21.89623Y27.59877
G01 X21.85806Y27.56417
G01 X21.81667Y27.53348
G01 X21.77248Y27.50699
G01 X21.72591Y27.48496
G01 X21.6774Y27.46761
G01 X21.62742Y27.45509
G01 X21.57646Y27.44753
G01 X21.57646Y27.44753
M5
G01 X49.4107Y6.16651
M3
G01 X49.44151Y6.1357
G01 X49.46651Y6.1
G01 X49.48492Y6.06051
G01 X49.4962Y6.01841
G01 X49.5Y5.975
G01 X49.5Y4.525
G01 X49.4962Y4.48159
G01 X49.48492Y4.43949
G01 X49.46651Y4.4
G01 X49.44151Y4.3643
G01 X49.4107Y4.33349
G01 X49.375Y4.30849
G01 X49.33551Y4.29008
G01 X49.29341Y4.2788
G01 X49.25Y4.275
G01 X48.05Y4.275
G01 X48.00659Y4.2788
G01 X47.96449Y4.29008
G01 X47.925Y4.30849
G01 X47.8893Y4.33349
G01 X47.85849Y4.3643
G01 X47.83349Y4.4
G01 X47.81508Y4.43949
G01 X47.8038Y4.48159
G01 X47.8Y4.525
G01 X47.8Y5.975
G01 X47.8038Y6.01841
G01 X47.81508Y6.06051
G01 X47.83349Y6.1
G01 X47.85849Y6.1357
G01 X47.8893Y6.16651
G01 X47.925Y6.19151
G01 X47.96449Y6.20992
G01 X48.00659Y6.2212
G01 X48.05Y6.225
G01 X49.25Y6.225
G01 X49.29341Y6.2212
G01 X49.33551Y6.20992
G01 X49.375Y6.19151
G01 X49.4107Y6.16651
G01 X49.4107Y6.16651
M5
G01 X46.39674Y4.3116
M3
G01 X46.31583Y4.29133
G01 X46.23331Y4.27909
G01 X46.15Y4.275
G01 X46.06669Y4.27909
G01 X45.98417Y4.29133
G01 X45.90326Y4.3116
G01 X45.82472Y4.3397
G01 X45.74931Y4.37537
G01 X45.67777Y4.41825
G01 X45.61077Y4.46794
G01 X45.54896Y4.52396
G01 X45.49294Y4.58577
G01 X45.44325Y4.65277
G01 X45.40037Y4.72431
G01 X45.3647Y4.79972
G01 X45.3366Y4.87826
G01 X45.31633Y4.95917
G01 X45.30409Y5.04169
G01 X45.3Y5.375
G01 X45.30409Y5.45831
G01 X45.31633Y5.54083
G01 X45.3366Y5.62174
G01 X45.3647Y5.70028
G01 X45.40037Y5.77569
G01 X45.44325Y5.84723
G01 X45.49294Y5.91423
G01 X45.54896Y5.97604
G01 X45.61077Y6.03206
G01 X45.67777Y6.08175
G01 X45.74931Y6.12463
G01 X45.82472Y6.1603
G01 X45.90326Y6.1884
G01 X45.98417Y6.20867
G01 X46.06669Y6.22091
G01 X46.15Y6.225
G01 X46.23331Y6.22091
G01 X46.31583Y6.20867
G01 X46.39674Y6.1884
G01 X46.47528Y6.1603
G01 X46.55069Y6.12463
G01 X46.62223Y6.08175
G01 X46.68923Y6.03206
G01 X46.75104Y5.97604
G01 X46.80706Y5.91423
G01 X46.85675Y5.84723
G01 X46.89963Y5.77569
G01 X46.9353Y5.70028
G01 X46.9634Y5.62174
G01 X46.98367Y5.54083
G01 X46.99591Y5.45831
G01 X47.0Y5.125
G01 X46.99591Y5.04169
G01 X46.98367Y4.95917
G01 X46.9634Y4.87826
G01 X46.9353Y4.79972
G01 X46.89963Y4.72431
G01 X46.85675Y4.65277
G01 X46.80706Y4.58577
G01 X46.75104Y4.52396
G01 X46.68923Y4.46794
G01 X46.62223Y4.41825
G01 X46.55069Y4.37537
G01 X46.47528Y4.3397
G01 X46.39674Y4.3116
G01 X46.39674Y4.3116
M5
G01 X43.97528Y4.3397
M3
G01 X43.89674Y4.3116
G01 X43.81583Y4.29133
G01 X43.73331Y4.27909
G01 X43.65Y4.275
G01 X43.56669Y4.27909
G01 X43.48417Y4.29133
G01 X43.40326Y4.3116
G01 X43.32472Y4.3397
G01 X43.24931Y4.37537
G01 X43.17777Y4.41825
G01 X43.11077Y4.46794
G01 X43.04896Y4.52396
G01 X42.99294Y4.58577
G01 X42.94325Y4.65277
G01 X42.90037Y4.72431
G01 X42.8647Y4.79972
G01 X42.8366Y4.87826
G01 X42.81633Y4.95917
G01 X42.80409Y5.04169
G01 X42.8Y5.375
G01 X42.80409Y5.45831
G01 X42.81633Y5.54083
G01 X42.8366Y5.62174
G01 X42.8647Y5.70028
G01 X42.90037Y5.77569
G01 X42.94325Y5.84723
G01 X42.99294Y5.91423
G01 X43.04896Y5.97604
G01 X43.11077Y6.03206
G01 X43.17777Y6.08175
G01 X43.24931Y6.12463
G01 X43.32472Y6.1603
G01 X43.40326Y6.1884
G01 X43.48417Y6.20867
G01 X43.56669Y6.22091
G01 X43.65Y6.225
G01 X43.73331Y6.22091
G01 X43.81583Y6.20867
G01 X43.89674Y6.1884
G01 X43.97528Y6.1603
G01 X44.05069Y6.12463
G01 X44.12223Y6.08175
G01 X44.18923Y6.03206
G01 X44.25104Y5.97604
G01 X44.30706Y5.91423
G01 X44.35675Y5.84723
G01 X44.39963Y5.77569
G01 X44.4353Y5.70028
G01 X44.4634Y5.62174
G01 X44.48367Y5.54083
G01 X44.49591Y5.45831
G01 X44.5Y5.125
G01 X44.49591Y5.04169
G01 X44.48367Y4.95917
G01 X44.4634Y4.87826
G01 X44.4353Y4.79972
G01 X44.39963Y4.72431
G01 X44.35675Y4.65277
G01 X44.30706Y4.58577
G01 X44.25104Y4.52396
G01 X44.18923Y4.46794
G01 X44.12223Y4.41825
G01 X44.05069Y4.37537
G01 X43.97528Y4.3397
G01 X43.97528Y4.3397
M5
G01 X41.55069Y4.37537
M3
G01 X41.47528Y4.3397
G01 X41.39674Y4.3116
G01 X41.31583Y4.29133
G01 X41.23331Y4.27909
G01 X41.15Y4.275
G01 X41.06669Y4.27909
G01 X40.98417Y4.29133
G01 X40.90326Y4.3116
G01 X40.82472Y4.3397
G01 X40.74931Y4.37537
G01 X40.67777Y4.41825
G01 X40.61077Y4.46794
G01 X40.54896Y4.52396
G01 X40.49294Y4.58577
G01 X40.44325Y4.65277
G01 X40.40037Y4.72431
G01 X40.3647Y4.79972
G01 X40.3366Y4.87826
G01 X40.31633Y4.95917
G01 X40.30409Y5.04169
G01 X40.3Y5.375
G01 X40.30409Y5.45831
G01 X40.31633Y5.54083
G01 X40.3366Y5.62174
G01 X40.3647Y5.70028
G01 X40.40037Y5.77569
G01 X40.44325Y5.84723
G01 X40.49294Y5.91423
G01 X40.54896Y5.97604
G01 X40.61077Y6.03206
G01 X40.67777Y6.08175
G01 X40.74931Y6.12463
G01 X40.82472Y6.1603
G01 X40.90326Y6.1884
G01 X40.98417Y6.20867
G01 X41.06669Y6.22091
G01 X41.15Y6.225
G01 X41.23331Y6.22091
G01 X41.31583Y6.20867
G01 X41.39674Y6.1884
G01 X41.47528Y6.1603
G01 X41.55069Y6.12463
G01 X41.62223Y6.08175
G01 X41.68923Y6.03206
G01 X41.75104Y5.97604
G01 X41.80706Y5.91423
G01 X41.85675Y5.84723
G01 X41.89963Y5.77569
G01 X41.9353Y5.70028
G01 X41.9634Y5.62174
G01 X41.98367Y5.54083
G01 X41.99591Y5.45831
G01 X42.0Y5.125
G01 X41.99591Y5.04169
G01 X41.98367Y4.95917
G01 X41.9634Y4.87826
G01 X41.9353Y4.79972
G01 X41.89963Y4.72431
G01 X41.85675Y4.65277
G01 X41.80706Y4.58577
G01 X41.75104Y4.52396
G01 X41.68923Y4.46794
G01 X41.62223Y4.41825
G01 X41.55069Y4.37537
G01 X41.55069Y4.37537
M5
G01 X56.525Y42.7
M3
G01 X58.125Y42.7
G01 X58.125Y41.1
G01 X56.525Y41.1
G01 X56.525Y42.7
G01 X56.525Y42.7
M5
G01 X59.20659Y41.39249
M3
G01 X59.15982Y41.45554
G01 X59.11946Y41.52288
G01 X59.0859Y41.59385
G01 X59.05945Y41.66777
G01 X59.04037Y41.74393
G01 X59.02885Y41.82159
G01 X59.025Y41.9
G01 X59.02885Y41.97841
G01 X59.04037Y42.05607
G01 X59.05945Y42.13223
G01 X59.0859Y42.20615
G01 X59.11946Y42.27712
G01 X59.15982Y42.34446
G01 X59.20659Y42.40751
G01 X59.25931Y42.46569
G01 X59.31749Y42.51841
G01 X59.38054Y42.56518
G01 X59.44788Y42.60554
G01 X59.51885Y42.6391
G01 X59.59277Y42.66555
G01 X59.66893Y42.68463
G01 X59.74659Y42.69615
G01 X59.825Y42.7
G01 X59.90341Y42.69615
G01 X59.98107Y42.68463
G01 X60.05723Y42.66555
G01 X60.13115Y42.6391
G01 X60.20212Y42.60554
G01 X60.26946Y42.56518
G01 X60.33251Y42.51841
G01 X60.39069Y42.46569
G01 X60.44341Y42.40751
G01 X60.49018Y42.34446
G01 X60.53054Y42.27712
G01 X60.5641Y42.20615
G01 X60.59055Y42.13223
G01 X60.60963Y42.05607
G01 X60.62115Y41.97841
G01 X60.625Y41.9
G01 X60.62115Y41.82159
G01 X60.60963Y41.74393
G01 X60.59055Y41.66777
G01 X60.5641Y41.59385
G01 X60.53054Y41.52288
G01 X60.49018Y41.45554
G01 X60.44341Y41.39249
G01 X60.39069Y41.33431
G01 X60.33251Y41.28159
G01 X60.26946Y41.23482
G01 X60.20212Y41.19446
G01 X60.13115Y41.1609
G01 X60.05723Y41.13445
G01 X59.98107Y41.11537
G01 X59.90341Y41.10385
G01 X59.825Y41.1
G01 X59.74659Y41.10385
G01 X59.66893Y41.11537
G01 X59.59277Y41.13445
G01 X59.51885Y41.1609
G01 X59.44788Y41.19446
G01 X59.38054Y41.23482
G01 X59.31749Y41.28159
G01 X59.25931Y41.33431
G01 X59.20659Y41.39249
G01 X59.20659Y41.39249
M5
G01 X31.98431Y45.03431
M3
G01 X31.93159Y45.09249
G01 X31.88482Y45.15554
G01 X31.84446Y45.22288
G01 X31.8109Y45.29385
G01 X31.78445Y45.36777
G01 X31.76537Y45.44393
G01 X31.75385Y45.52159
G01 X31.75Y45.6
G01 X31.75385Y45.67841
G01 X31.76537Y45.75607
G01 X31.78445Y45.83223
G01 X31.8109Y45.90615
G01 X31.84446Y45.97712
G01 X31.88482Y46.04446
G01 X31.93159Y46.10751
G01 X31.98431Y46.16569
G01 X32.04249Y46.21841
G01 X32.10554Y46.26518
G01 X32.17288Y46.30554
G01 X32.24385Y46.3391
G01 X32.31777Y46.36555
G01 X32.39393Y46.38463
G01 X32.47159Y46.39615
G01 X32.55Y46.4
G01 X32.62841Y46.39615
G01 X32.70607Y46.38463
G01 X32.78223Y46.36555
G01 X32.85615Y46.3391
G01 X32.92712Y46.30554
G01 X32.99446Y46.26518
G01 X33.05751Y46.21841
G01 X33.11569Y46.16569
G01 X33.16841Y46.10751
G01 X33.21518Y46.04446
G01 X33.25554Y45.97712
G01 X33.2891Y45.90615
G01 X33.31555Y45.83223
G01 X33.33463Y45.75607
G01 X33.34615Y45.67841
G01 X33.35Y45.6
G01 X33.34615Y45.52159
G01 X33.33463Y45.44393
G01 X33.31555Y45.36777
G01 X33.2891Y45.29385
G01 X33.25554Y45.22288
G01 X33.21518Y45.15554
G01 X33.16841Y45.09249
G01 X33.11569Y45.03431
G01 X33.05751Y44.98159
G01 X32.99446Y44.93482
G01 X32.92712Y44.89446
G01 X32.85615Y44.8609
G01 X32.78223Y44.83445
G01 X32.70607Y44.81537
G01 X32.62841Y44.80385
G01 X32.55Y44.8
G01 X32.47159Y44.80385
G01 X32.39393Y44.81537
G01 X32.31777Y44.83445
G01 X32.24385Y44.8609
G01 X32.17288Y44.89446
G01 X32.10554Y44.93482
G01 X32.04249Y44.98159
G01 X31.98431Y45.03431
G01 X31.98431Y45.03431
M5
G01 X40.78841Y45.09249
M3
G01 X40.73569Y45.03431
G01 X40.67751Y44.98159
G01 X40.61446Y44.93482
G01 X40.54712Y44.89446
G01 X40.47615Y44.8609
G01 X40.40223Y44.83445
G01 X40.32607Y44.81537
G01 X40.24841Y44.80385
G01 X40.17Y44.8
G01 X40.09159Y44.80385
G01 X40.01393Y44.81537
G01 X39.93777Y44.83445
G01 X39.86385Y44.8609
G01 X39.79288Y44.89446
G01 X39.72554Y44.93482
G01 X39.66249Y44.98159
G01 X39.60431Y45.03431
G01 X39.55159Y45.09249
G01 X39.50482Y45.15554
G01 X39.46446Y45.22288
G01 X39.4309Y45.29385
G01 X39.40445Y45.36777
G01 X39.38537Y45.44393
G01 X39.37385Y45.52159
G01 X39.37Y45.6
G01 X39.37385Y45.67841
G01 X39.38537Y45.75607
G01 X39.40445Y45.83223
G01 X39.4309Y45.90615
G01 X39.46446Y45.97712
G01 X39.50482Y46.04446
G01 X39.55159Y46.10751
G01 X39.60431Y46.16569
G01 X39.66249Y46.21841
G01 X39.72554Y46.26518
G01 X39.79288Y46.30554
G01 X39.86385Y46.3391
G01 X39.93777Y46.36555
G01 X40.01393Y46.38463
G01 X40.09159Y46.39615
G01 X40.17Y46.4
G01 X40.24841Y46.39615
G01 X40.32607Y46.38463
G01 X40.40223Y46.36555
G01 X40.47615Y46.3391
G01 X40.54712Y46.30554
G01 X40.61446Y46.26518
G01 X40.67751Y46.21841
G01 X40.73569Y46.16569
G01 X40.78841Y46.10751
G01 X40.83518Y46.04446
G01 X40.87554Y45.97712
G01 X40.9091Y45.90615
G01 X40.93555Y45.83223
G01 X40.95463Y45.75607
G01 X40.96615Y45.67841
G01 X40.97Y45.6
G01 X40.96615Y45.52159
G01 X40.95463Y45.44393
G01 X40.93555Y45.36777
G01 X40.9091Y45.29385
G01 X40.87554Y45.22288
G01 X40.83518Y45.15554
G01 X40.78841Y45.09249
G01 X40.78841Y45.09249
M5
G01 X13.6Y49.825
M3
G01 X15.4Y49.825
G01 X15.4Y48.025
G01 X13.6Y48.025
G01 X13.6Y49.825
G01 X13.6Y49.825
M5
G01 X11.53574Y48.13127
M3
G01 X11.45999Y48.17668
G01 X11.38905Y48.22929
G01 X11.3236Y48.2886
G01 X11.26429Y48.35405
G01 X11.21168Y48.42499
G01 X11.16627Y48.50074
G01 X11.12851Y48.58058
G01 X11.09875Y48.66374
G01 X11.07729Y48.74942
G01 X11.06433Y48.83678
G01 X11.06Y48.925
G01 X11.06433Y49.01322
G01 X11.07729Y49.10058
G01 X11.09875Y49.18626
G01 X11.12851Y49.26942
G01 X11.16627Y49.34926
G01 X11.21168Y49.42501
G01 X11.26429Y49.49595
G01 X11.3236Y49.5614
G01 X11.38905Y49.62071
G01 X11.45999Y49.67332
G01 X11.53574Y49.71873
G01 X11.61558Y49.75649
G01 X11.69874Y49.78625
G01 X11.78442Y49.80771
G01 X11.87178Y49.82067
G01 X11.96Y49.825
G01 X12.04822Y49.82067
G01 X12.13558Y49.80771
G01 X12.22126Y49.78625
G01 X12.30442Y49.75649
G01 X12.38426Y49.71873
G01 X12.46001Y49.67332
G01 X12.53095Y49.62071
G01 X12.5964Y49.5614
G01 X12.65571Y49.49595
G01 X12.70832Y49.42501
G01 X12.75373Y49.34926
G01 X12.79149Y49.26942
G01 X12.82125Y49.18626
G01 X12.84271Y49.10058
G01 X12.85567Y49.01322
G01 X12.86Y48.925
G01 X12.85567Y48.83678
G01 X12.84271Y48.74942
G01 X12.82125Y48.66374
G01 X12.79149Y48.58058
G01 X12.75373Y48.50074
G01 X12.70832Y48.42499
G01 X12.65571Y48.35405
G01 X12.5964Y48.2886
G01 X12.53095Y48.22929
G01 X12.46001Y48.17668
G01 X12.38426Y48.13127
G01 X12.30442Y48.09351
G01 X12.22126Y48.06375
G01 X12.13558Y48.04229
G01 X12.04822Y48.02933
G01 X11.96Y48.025
G01 X11.87178Y48.02933
G01 X11.78442Y48.04229
G01 X11.69874Y48.06375
G01 X11.61558Y48.09351
G01 X11.53574Y48.13127
G01 X11.53574Y48.13127
M5
G01 X18.0Y41.795
M3
G01 X16.4Y41.795
G01 X16.4Y44.195
G01 X18.0Y44.195
G01 X18.0Y41.795
G01 X18.0Y41.795
M5
G01 X20.50555Y42.36277
M3
G01 X20.4791Y42.28885
G01 X20.44554Y42.21788
G01 X20.40518Y42.15054
G01 X20.35841Y42.08749
G01 X20.30569Y42.02931
G01 X20.24751Y41.97659
G01 X20.18446Y41.92982
G01 X20.11712Y41.88946
G01 X20.04615Y41.8559
G01 X19.97223Y41.82945
G01 X19.89607Y41.81037
G01 X19.81841Y41.79885
G01 X19.74Y41.795
G01 X19.66159Y41.79885
G01 X19.58393Y41.81037
G01 X19.50777Y41.82945
G01 X19.43385Y41.8559
G01 X19.36288Y41.88946
G01 X19.29554Y41.92982
G01 X19.23249Y41.97659
G01 X19.17431Y42.02931
G01 X19.12159Y42.08749
G01 X19.07482Y42.15054
G01 X19.03446Y42.21788
G01 X19.0009Y42.28885
G01 X18.97445Y42.36277
G01 X18.95537Y42.43893
G01 X18.94385Y42.51659
G01 X18.94Y43.395
G01 X18.94385Y43.47341
G01 X18.95537Y43.55107
G01 X18.97445Y43.62723
G01 X19.0009Y43.70115
G01 X19.03446Y43.77212
G01 X19.07482Y43.83946
G01 X19.12159Y43.90251
G01 X19.17431Y43.96069
G01 X19.23249Y44.01341
G01 X19.29554Y44.06018
G01 X19.36288Y44.10054
G01 X19.43385Y44.1341
G01 X19.50777Y44.16055
G01 X19.58393Y44.17963
G01 X19.66159Y44.19115
G01 X19.74Y44.195
G01 X19.81841Y44.19115
G01 X19.89607Y44.17963
G01 X19.97223Y44.16055
G01 X20.04615Y44.1341
G01 X20.11712Y44.10054
G01 X20.18446Y44.06018
G01 X20.24751Y44.01341
G01 X20.30569Y43.96069
G01 X20.35841Y43.90251
G01 X20.40518Y43.83946
G01 X20.44554Y43.77212
G01 X20.4791Y43.70115
G01 X20.50555Y43.62723
G01 X20.52463Y43.55107
G01 X20.53615Y43.47341
G01 X20.54Y42.595
G01 X20.53615Y42.51659
G01 X20.52463Y42.43893
G01 X20.50555Y42.36277
G01 X20.50555Y42.36277
M5
G01 X23.06463Y42.43893
M3
G01 X23.04555Y42.36277
G01 X23.0191Y42.28885
G01 X22.98554Y42.21788
G01 X22.94518Y42.15054
G01 X22.89841Y42.08749
G01 X22.84569Y42.02931
G01 X22.78751Y41.97659
G01 X22.72446Y41.92982
G01 X22.65712Y41.88946
G01 X22.58615Y41.8559
G01 X22.51223Y41.82945
G01 X22.43607Y41.81037
G01 X22.35841Y41.79885
G01 X22.28Y41.795
G01 X22.20159Y41.79885
G01 X22.12393Y41.81037
G01 X22.04777Y41.82945
G01 X21.97385Y41.8559
G01 X21.90288Y41.88946
G01 X21.83554Y41.92982
G01 X21.77249Y41.97659
G01 X21.71431Y42.02931
G01 X21.66159Y42.08749
G01 X21.61482Y42.15054
G01 X21.57446Y42.21788
G01 X21.5409Y42.28885
G01 X21.51445Y42.36277
G01 X21.49537Y42.43893
G01 X21.48385Y42.51659
G01 X21.48Y43.395
G01 X21.48385Y43.47341
G01 X21.49537Y43.55107
G01 X21.51445Y43.62723
G01 X21.5409Y43.70115
G01 X21.57446Y43.77212
G01 X21.61482Y43.83946
G01 X21.66159Y43.90251
G01 X21.71431Y43.96069
G01 X21.77249Y44.01341
G01 X21.83554Y44.06018
G01 X21.90288Y44.10054
G01 X21.97385Y44.1341
G01 X22.04777Y44.16055
G01 X22.12393Y44.17963
G01 X22.20159Y44.19115
G01 X22.28Y44.195
G01 X22.35841Y44.19115
G01 X22.43607Y44.17963
G01 X22.51223Y44.16055
G01 X22.58615Y44.1341
G01 X22.65712Y44.10054
G01 X22.72446Y44.06018
G01 X22.78751Y44.01341
G01 X22.84569Y43.96069
G01 X22.89841Y43.90251
G01 X22.94518Y43.83946
G01 X22.98554Y43.77212
G01 X23.0191Y43.70115
G01 X23.04555Y43.62723
G01 X23.06463Y43.55107
G01 X23.07615Y43.47341
G01 X23.08Y42.595
G01 X23.07615Y42.51659
G01 X23.06463Y42.43893
G01 X23.06463Y42.43893
M5
G01 X25.61615Y42.51659
M3
G01 X25.60463Y42.43893
G01 X25.58555Y42.36277
G01 X25.5591Y42.28885
G01 X25.52554Y42.21788
G01 X25.48518Y42.15054
G01 X25.43841Y42.08749
G01 X25.38569Y42.02931
G01 X25.32751Y41.97659
G01 X25.26446Y41.92982
G01 X25.19712Y41.88946
G01 X25.12615Y41.8559
G01 X25.05223Y41.82945
G01 X24.97607Y41.81037
G01 X24.89841Y41.79885
G01 X24.82Y41.795
G01 X24.74159Y41.79885
G01 X24.66393Y41.81037
G01 X24.58777Y41.82945
G01 X24.51385Y41.8559
G01 X24.44288Y41.88946
G01 X24.37554Y41.92982
G01 X24.31249Y41.97659
G01 X24.25431Y42.02931
G01 X24.20159Y42.08749
G01 X24.15482Y42.15054
G01 X24.11446Y42.21788
G01 X24.0809Y42.28885
G01 X24.05445Y42.36277
G01 X24.03537Y42.43893
G01 X24.02385Y42.51659
G01 X24.02Y43.395
G01 X24.02385Y43.47341
G01 X24.03537Y43.55107
G01 X24.05445Y43.62723
G01 X24.0809Y43.70115
G01 X24.11446Y43.77212
G01 X24.15482Y43.83946
G01 X24.20159Y43.90251
G01 X24.25431Y43.96069
G01 X24.31249Y44.01341
G01 X24.37554Y44.06018
G01 X24.44288Y44.10054
G01 X24.51385Y44.1341
G01 X24.58777Y44.16055
G01 X24.66393Y44.17963
G01 X24.74159Y44.19115
G01 X24.82Y44.195
G01 X24.89841Y44.19115
G01 X24.97607Y44.17963
G01 X25.05223Y44.16055
G01 X25.12615Y44.1341
G01 X25.19712Y44.10054
G01 X25.26446Y44.06018
G01 X25.32751Y44.01341
G01 X25.38569Y43.96069
G01 X25.43841Y43.90251
G01 X25.48518Y43.83946
G01 X25.52554Y43.77212
G01 X25.5591Y43.70115
G01 X25.58555Y43.62723
G01 X25.60463Y43.55107
G01 X25.61615Y43.47341
G01 X25.62Y42.595
G01 X25.61615Y42.51659
G01 X25.61615Y42.51659
M5
G01 X28.16Y42.595
M3
G01 X28.15615Y42.51659
G01 X28.14463Y42.43893
G01 X28.12555Y42.36277
G01 X28.0991Y42.28885
G01 X28.06554Y42.21788
G01 X28.02518Y42.15054
G01 X27.97841Y42.08749
G01 X27.92569Y42.02931
G01 X27.86751Y41.97659
G01 X27.80446Y41.92982
G01 X27.73712Y41.88946
G01 X27.66615Y41.8559
G01 X27.59223Y41.82945
G01 X27.51607Y41.81037
G01 X27.43841Y41.79885
G01 X27.36Y41.795
G01 X27.28159Y41.79885
G01 X27.20393Y41.81037
G01 X27.12777Y41.82945
G01 X27.05385Y41.8559
G01 X26.98288Y41.88946
G01 X26.91554Y41.92982
G01 X26.85249Y41.97659
G01 X26.79431Y42.02931
G01 X26.74159Y42.08749
G01 X26.69482Y42.15054
G01 X26.65446Y42.21788
G01 X26.6209Y42.28885
G01 X26.59445Y42.36277
G01 X26.57537Y42.43893
G01 X26.56385Y42.51659
G01 X26.56Y43.395
G01 X26.56385Y43.47341
G01 X26.57537Y43.55107
G01 X26.59445Y43.62723
G01 X26.6209Y43.70115
G01 X26.65446Y43.77212
G01 X26.69482Y43.83946
G01 X26.74159Y43.90251
G01 X26.79431Y43.96069
G01 X26.85249Y44.01341
G01 X26.91554Y44.06018
G01 X26.98288Y44.10054
G01 X27.05385Y44.1341
G01 X27.12777Y44.16055
G01 X27.20393Y44.17963
G01 X27.28159Y44.19115
G01 X27.36Y44.195
G01 X27.43841Y44.19115
G01 X27.51607Y44.17963
G01 X27.59223Y44.16055
G01 X27.66615Y44.1341
G01 X27.73712Y44.10054
G01 X27.80446Y44.06018
G01 X27.86751Y44.01341
G01 X27.92569Y43.96069
G01 X27.97841Y43.90251
G01 X28.02518Y43.83946
G01 X28.06554Y43.77212
G01 X28.0991Y43.70115
G01 X28.12555Y43.62723
G01 X28.14463Y43.55107
G01 X28.15615Y43.47341
G01 X28.16Y42.595
G01 X28.16Y42.595
M5
G01 X30.69615Y43.47341
M3
G01 X30.7Y42.595
G01 X30.69615Y42.51659
G01 X30.68463Y42.43893
G01 X30.66555Y42.36277
G01 X30.6391Y42.28885
G01 X30.60554Y42.21788
G01 X30.56518Y42.15054
G01 X30.51841Y42.08749
G01 X30.46569Y42.02931
G01 X30.40751Y41.97659
G01 X30.34446Y41.92982
G01 X30.27712Y41.88946
G01 X30.20615Y41.8559
G01 X30.13223Y41.82945
G01 X30.05607Y41.81037
G01 X29.97841Y41.79885
G01 X29.9Y41.795
G01 X29.82159Y41.79885
G01 X29.74393Y41.81037
G01 X29.66777Y41.82945
G01 X29.59385Y41.8559
G01 X29.52288Y41.88946
G01 X29.45554Y41.92982
G01 X29.39249Y41.97659
G01 X29.33431Y42.02931
G01 X29.28159Y42.08749
G01 X29.23482Y42.15054
G01 X29.19446Y42.21788
G01 X29.1609Y42.28885
G01 X29.13445Y42.36277
G01 X29.11537Y42.43893
G01 X29.10385Y42.51659
G01 X29.1Y43.395
G01 X29.10385Y43.47341
G01 X29.11537Y43.55107
G01 X29.13445Y43.62723
G01 X29.1609Y43.70115
G01 X29.19446Y43.77212
G01 X29.23482Y43.83946
G01 X29.28159Y43.90251
G01 X29.33431Y43.96069
G01 X29.39249Y44.01341
G01 X29.45554Y44.06018
G01 X29.52288Y44.10054
G01 X29.59385Y44.1341
G01 X29.66777Y44.16055
G01 X29.74393Y44.17963
G01 X29.82159Y44.19115
G01 X29.9Y44.195
G01 X29.97841Y44.19115
G01 X30.05607Y44.17963
G01 X30.13223Y44.16055
G01 X30.20615Y44.1341
