; This gcode is generated by my specialised python script for my PCB manufacturer project :))

; Machine Initialization Sequence...

G21 ; to set metric units
G90 ; to set absolute mode , G91 for incremental mode
G94 ; To set the active feed rate mode to units per minute mode

M5 ; disabling spindle PWM
C0 ; Choosing the empty tool slot in the multiplexer circuits

B1 ; Turn ON Machine

$H ; Homing :)
G10 P0 L20 X0.0Y0.0Z0.0 ; Force Reset current coordinates after homing


; The following gcode is the PCB trace laser marking gcode

M5 ; Being extra sure it won't light up before activation

; Getting and Activating Tool-1, The Tool.Laser
G00X165.0Y0.0Z10.5 ; Go to Tool-1 Home Pos
G00X188 ; Enter Female Kinematic Mount Home Pos
A1 ; Latch on Kinematic Mount
G4 P5 ; Wait for Kinematic Mount to fully attach
G00X92 ; Exit Female Kinematic Mount Home Pos
#TODO X0.0Y0.0Z0.0 ;  ;Add tool offset coordinate
C1 ; Choosing tool 1 in the choose demultiplexer circuits

F400 ; setting default feedrate

G00Z16 ; Moving to correct focal length Z position

S200 ; Setting Laser Power

; Number of passes: 1

; Pass number: 1
G01 X49.11633Y26.82917
M3
G01 X49.10409Y26.91169
G01 X49.1Y26.995
G01 X49.10409Y27.07831
G01 X49.11633Y27.16083
G01 X49.1366Y27.24174
G01 X49.13686Y27.24246
G01 X45.83324Y30.54607
G01 X45.80706Y30.51077
G01 X45.75104Y30.44896
G01 X45.68923Y30.39294
G01 X45.62223Y30.34325
G01 X45.55069Y30.30037
G01 X45.47528Y30.2647
G01 X45.39674Y30.2366
G01 X45.31583Y30.21633
G01 X45.23331Y30.20409
G01 X45.15Y30.2
G01 X45.06669Y30.20409
G01 X44.98417Y30.21633
G01 X44.90326Y30.2366
G01 X44.82472Y30.2647
G01 X44.74931Y30.30037
G01 X44.67777Y30.34325
G01 X44.61077Y30.39294
G01 X44.54896Y30.44896
G01 X44.49294Y30.51077
G01 X44.44325Y30.57777
G01 X44.40037Y30.64931
G01 X44.3647Y30.72472
G01 X44.3366Y30.80326
G01 X44.31633Y30.88417
G01 X44.30409Y30.96669
G01 X44.3Y31.3
G01 X44.30409Y31.38331
G01 X44.31633Y31.46583
G01 X44.3366Y31.54674
G01 X44.3647Y31.62528
G01 X44.40037Y31.70069
G01 X44.44325Y31.77223
G01 X44.49294Y31.83923
G01 X44.54896Y31.90104
G01 X44.61077Y31.95706
G01 X44.67777Y32.00675
G01 X44.74931Y32.04963
G01 X44.82472Y32.0853
G01 X44.90326Y32.1134
G01 X44.98417Y32.13367
G01 X45.06669Y32.14591
G01 X45.15Y32.15
G01 X45.23331Y32.14591
G01 X45.31583Y32.13367
G01 X45.39674Y32.1134
G01 X45.47528Y32.0853
G01 X45.55069Y32.04963
G01 X45.62223Y32.00675
G01 X45.68923Y31.95706
G01 X45.75104Y31.90104
G01 X45.80706Y31.83923
G01 X45.85675Y31.77223
G01 X45.89963Y31.70069
G01 X45.9353Y31.62528
G01 X45.9634Y31.54674
G01 X45.96985Y31.521
G01 X45.99223Y31.50759
G01 X46.02376Y31.4842
G01 X46.05284Y31.45784
G01 X49.70254Y27.80814
G01 X49.70326Y27.8084
G01 X49.78417Y27.82867
G01 X49.86669Y27.84091
G01 X49.95Y27.845
G01 X50.03331Y27.84091
G01 X50.11583Y27.82867
G01 X50.19674Y27.8084
G01 X50.19746Y27.80814
G01 X52.445Y30.05569
G01 X52.445Y36.83318
G01 X52.40054Y36.85982
G01 X52.33749Y36.90659
G01 X52.27931Y36.95931
G01 X52.22659Y37.01749
G01 X52.17982Y37.08054
G01 X52.13946Y37.14788
G01 X52.1059Y37.21885
G01 X52.07945Y37.29277
G01 X52.06037Y37.36893
G01 X52.04885Y37.44659
G01 X52.045Y37.525
G01 X52.04885Y37.60341
G01 X52.06037Y37.68107
G01 X52.07297Y37.73135
G01 X51.40431Y38.4
G01 X18.4179Y38.4
G01 X16.2Y36.1821
G01 X16.2Y33.91069
G01 X17.17254Y32.93814
G01 X17.17326Y32.9384
G01 X17.25417Y32.95867
G01 X17.33669Y32.97091
G01 X17.42Y32.975
G01 X17.50331Y32.97091
G01 X17.58583Y32.95867
G01 X17.66674Y32.9384
G01 X17.74528Y32.9103
G01 X17.82069Y32.87463
G01 X17.89223Y32.83175
G01 X17.95923Y32.78206
G01 X18.02104Y32.72604
G01 X18.07706Y32.66423
G01 X18.12675Y32.59723
G01 X18.16963Y32.52569
G01 X18.2053Y32.45028
G01 X18.2334Y32.37174
G01 X18.25367Y32.29083
G01 X18.26591Y32.20831
G01 X18.27Y32.125
G01 X18.26591Y32.04169
G01 X18.25367Y31.95917
G01 X18.2334Y31.87826
G01 X18.23314Y31.87754
G01 X19.03569Y31.075
G01 X29.23157Y31.075
G01 X29.27078Y31.07307
G01 X29.30961Y31.06731
G01 X29.34768Y31.05778
G01 X29.38464Y31.04455
G01 X29.42013Y31.02777
G01 X29.4538Y31.00759
G01 X29.48533Y30.9842
G01 X29.51441Y30.95784
G01 X33.97226Y26.5
G01 X35.27818Y26.5
G01 X35.30482Y26.54446
G01 X35.35159Y26.60751
G01 X35.40431Y26.66569
G01 X35.46249Y26.71841
G01 X35.52554Y26.76518
G01 X35.59288Y26.80554
G01 X35.66385Y26.8391
G01 X35.73777Y26.86555
G01 X35.81393Y26.88463
G01 X35.89159Y26.89615
G01 X35.97Y26.9
G01 X36.04841Y26.89615
G01 X36.12607Y26.88463
G01 X36.20223Y26.86555
G01 X36.27615Y26.8391
G01 X36.34712Y26.80554
G01 X36.41446Y26.76518
G01 X36.47751Y26.71841
G01 X36.53569Y26.66569
G01 X36.58841Y26.60751
G01 X36.63518Y26.54446
G01 X36.67554Y26.47712
G01 X36.7091Y26.40615
G01 X36.73555Y26.33223
G01 X36.75463Y26.25607
G01 X36.76615Y26.17841
G01 X36.77Y26.1
G01 X36.76615Y26.02159
G01 X36.75463Y25.94393
G01 X36.73555Y25.86777
G01 X36.7091Y25.79385
G01 X36.67554Y25.72288
G01 X36.63518Y25.65554
G01 X36.58841Y25.59249
G01 X36.53569Y25.53431
G01 X36.47751Y25.48159
G01 X36.41446Y25.43482
G01 X36.34712Y25.39446
G01 X36.27615Y25.3609
G01 X36.20223Y25.33445
G01 X36.12607Y25.31537
G01 X36.04841Y25.30385
G01 X35.97Y25.3
G01 X35.89159Y25.30385
G01 X35.81393Y25.31537
G01 X35.73777Y25.33445
G01 X35.66385Y25.3609
G01 X35.59288Y25.39446
G01 X35.52554Y25.43482
G01 X35.46249Y25.48159
G01 X35.40431Y25.53431
G01 X35.35159Y25.59249
G01 X35.30482Y25.65554
G01 X35.27818Y25.7
G01 X33.80657Y25.7
G01 X33.76736Y25.70193
G01 X33.72853Y25.70769
G01 X33.69046Y25.71722
G01 X33.6535Y25.73045
G01 X33.61801Y25.74723
G01 X33.58434Y25.76741
G01 X33.55281Y25.7908
G01 X33.52373Y25.81716
G01 X29.06588Y30.275
G01 X18.87Y30.275
G01 X18.83079Y30.27693
G01 X18.79196Y30.28269
G01 X18.75389Y30.29222
G01 X18.71693Y30.30545
G01 X18.68144Y30.32223
G01 X18.64777Y30.34241
G01 X18.61624Y30.3658
G01 X18.58716Y30.39216
G01 X17.66746Y31.31186
G01 X17.66674Y31.3116
G01 X17.58583Y31.29133
G01 X17.50331Y31.27909
G01 X17.42Y31.275
G01 X17.33669Y31.27909
G01 X17.25417Y31.29133
G01 X17.17326Y31.3116
G01 X17.09472Y31.3397
G01 X17.01931Y31.37537
G01 X16.94777Y31.41825
G01 X16.88077Y31.46794
G01 X16.81896Y31.52396
G01 X16.76294Y31.58577
G01 X16.71325Y31.65277
G01 X16.67037Y31.72431
G01 X16.6347Y31.79972
G01 X16.6066Y31.87826
G01 X16.58633Y31.95917
G01 X16.57409Y32.04169
G01 X16.57Y32.125
G01 X16.57409Y32.20831
G01 X16.58633Y32.29083
G01 X16.6066Y32.37174
G01 X16.60686Y32.37246
G01 X15.51716Y33.46216
G01 X15.4908Y33.49124
G01 X15.46741Y33.52277
G01 X15.44723Y33.55644
G01 X15.43045Y33.59193
G01 X15.41722Y33.62889
G01 X15.40769Y33.66696
G01 X15.40193Y33.70579
G01 X15.4Y33.745
G01 X15.4Y36.34779
G01 X15.40193Y36.387
G01 X15.40769Y36.42583
G01 X15.41722Y36.4639
G01 X15.43045Y36.50086
G01 X15.44723Y36.53635
G01 X15.46741Y36.57002
G01 X15.4908Y36.60155
G01 X15.51716Y36.63063
G01 X17.96937Y39.08284
G01 X17.99845Y39.1092
G01 X18.02998Y39.13259
G01 X18.06365Y39.15277
G01 X18.09914Y39.16955
G01 X18.1361Y39.18278
G01 X18.17417Y39.19231
G01 X18.213Y39.19807
G01 X18.25221Y39.2
G01 X51.57Y39.2
G01 X51.60921Y39.19807
G01 X51.64804Y39.19231
G01 X51.68611Y39.18278
G01 X51.72307Y39.16955
G01 X51.75856Y39.15277
G01 X51.79223Y39.13259
G01 X51.82376Y39.1092
G01 X51.85284Y39.08284
G01 X52.445Y38.49069
G01 X52.445Y40.20431
G01 X50.69605Y41.95326
G01 X50.66446Y41.92982
G01 X50.59712Y41.88946
G01 X50.52615Y41.8559
G01 X50.45223Y41.82945
G01 X50.37607Y41.81037
G01 X50.29841Y41.79885
G01 X50.22Y41.795
G01 X50.14159Y41.79885
G01 X50.06393Y41.81037
G01 X49.98777Y41.82945
G01 X49.91385Y41.8559
G01 X49.84288Y41.88946
G01 X49.77554Y41.92982
G01 X49.71249Y41.97659
G01 X49.65431Y42.02931
G01 X49.60159Y42.08749
G01 X49.55482Y42.15054
G01 X49.51446Y42.21788
G01 X49.4809Y42.28885
G01 X49.45445Y42.36277
G01 X49.43537Y42.43893
G01 X49.42385Y42.51659
G01 X49.42Y43.395
G01 X49.42385Y43.47341
G01 X49.43537Y43.55107
G01 X49.45445Y43.62723
G01 X49.4809Y43.70115
G01 X49.51446Y43.77212
G01 X49.55482Y43.83946
G01 X49.60159Y43.90251
G01 X49.65431Y43.96069
G01 X49.71249Y44.01341
G01 X49.77554Y44.06018
G01 X49.84288Y44.10054
G01 X49.91385Y44.1341
G01 X49.925Y44.13809
G01 X49.925Y47.05818
G01 X49.88054Y47.08482
G01 X49.81749Y47.13159
G01 X49.75931Y47.18431
G01 X49.70659Y47.24249
G01 X49.65982Y47.30554
G01 X49.61946Y47.37288
G01 X49.5859Y47.44385
G01 X49.55945Y47.51777
G01 X49.54037Y47.59393
G01 X49.52885Y47.67159
G01 X49.525Y47.75
G01 X49.52885Y47.82841
G01 X49.54037Y47.90607
G01 X49.55945Y47.98223
G01 X49.5859Y48.05615
G01 X49.61946Y48.12712
G01 X49.65982Y48.19446
G01 X49.70659Y48.25751
G01 X49.75931Y48.31569
G01 X49.81749Y48.36841
G01 X49.88054Y48.41518
G01 X49.94788Y48.45554
G01 X49.95Y48.45654
G01 X49.95Y51.38318
G01 X49.90554Y51.40982
G01 X49.84249Y51.45659
G01 X49.78431Y51.50931
G01 X49.73159Y51.56749
G01 X49.68482Y51.63054
G01 X49.64446Y51.69788
G01 X49.6109Y51.76885
G01 X49.58445Y51.84277
G01 X49.56537Y51.91893
G01 X49.55385Y51.99659
G01 X49.55Y52.075
G01 X49.55385Y52.15341
G01 X49.56537Y52.23107
G01 X49.57797Y52.28135
G01 X44.30931Y57.55
G01 X44.275Y57.55
G01 X44.275Y57.1
G01 X42.575Y57.1
G01 X42.575Y58.8
G01 X44.275Y58.8
G01 X44.275Y58.35
G01 X44.475Y58.35
G01 X44.51421Y58.34807
G01 X44.55304Y58.34231
G01 X44.59111Y58.33278
G01 X44.62807Y58.31955
G01 X44.66356Y58.30277
G01 X44.69723Y58.28259
G01 X44.72876Y58.2592
G01 X44.75784Y58.23284
G01 X50.14365Y52.84703
G01 X50.19393Y52.85963
G01 X50.27159Y52.87115
G01 X50.35Y52.875
G01 X50.42841Y52.87115
G01 X50.50607Y52.85963
G01 X50.58223Y52.84055
G01 X50.65615Y52.8141
G01 X50.72712Y52.78054
G01 X50.79446Y52.74018
G01 X50.85751Y52.69341
G01 X50.91569Y52.64069
G01 X50.96841Y52.58251
G01 X51.01518Y52.51946
G01 X51.05554Y52.45212
G01 X51.0891Y52.38115
G01 X51.11555Y52.30723
G01 X51.13463Y52.23107
G01 X51.14615Y52.15341
G01 X51.15Y52.075
G01 X51.14615Y51.99659
G01 X51.13463Y51.91893
G01 X51.11555Y51.84277
G01 X51.0891Y51.76885
G01 X51.05554Y51.69788
G01 X51.01518Y51.63054
G01 X50.96841Y51.56749
G01 X50.91569Y51.50931
G01 X50.85751Y51.45659
G01 X50.79446Y51.40982
G01 X50.75Y51.38318
G01 X50.75Y48.42684
G01 X50.76946Y48.41518
G01 X50.83251Y48.36841
G01 X50.89069Y48.31569
G01 X50.94341Y48.25751
G01 X50.99018Y48.19446
G01 X51.03054Y48.12712
G01 X51.0641Y48.05615
G01 X51.09055Y47.98223
G01 X51.10963Y47.90607
G01 X51.12115Y47.82841
G01 X51.125Y47.75
G01 X51.12115Y47.67159
G01 X51.10963Y47.59393
G01 X51.09055Y47.51777
G01 X51.0641Y47.44385
G01 X51.03054Y47.37288
G01 X50.99018Y47.30554
G01 X50.94341Y47.24249
G01 X50.89069Y47.18431
G01 X50.83251Y47.13159
G01 X50.76946Y47.08482
G01 X50.725Y47.05818
G01 X50.725Y44.01527
G01 X50.72751Y44.01341
G01 X50.78569Y43.96069
G01 X50.83841Y43.90251
G01 X50.88518Y43.83946
G01 X50.92554Y43.77212
G01 X50.9591Y43.70115
G01 X50.98555Y43.62723
G01 X51.00463Y43.55107
G01 X51.01615Y43.47341
G01 X51.01927Y42.76142
G01 X53.12784Y40.65284
G01 X53.1542Y40.62376
G01 X53.17759Y40.59223
G01 X53.19777Y40.55856
G01 X53.21455Y40.52307
G01 X53.22778Y40.48611
G01 X53.23731Y40.44804
G01 X53.24307Y40.40921
G01 X53.245Y40.37
G01 X53.245Y38.21682
G01 X53.28946Y38.19018
G01 X53.35251Y38.14341
G01 X53.41069Y38.09069
G01 X53.46341Y38.03251
G01 X53.51018Y37.96946
G01 X53.55054Y37.90212
G01 X53.5841Y37.83115
G01 X53.61055Y37.75723
G01 X53.62963Y37.68107
G01 X53.64115Y37.60341
G01 X53.645Y37.525
G01 X53.64115Y37.44659
G01 X53.62963Y37.36893
G01 X53.61055Y37.29277
G01 X53.5841Y37.21885
G01 X53.55054Y37.14788
G01 X53.51018Y37.08054
G01 X53.46341Y37.01749
G01 X53.41069Y36.95931
G01 X53.35251Y36.90659
G01 X53.28946Y36.85982
G01 X53.245Y36.83318
G01 X53.245Y29.89
G01 X53.24307Y29.85079
G01 X53.23731Y29.81196
G01 X53.22778Y29.77389
G01 X53.21455Y29.73693
G01 X53.19777Y29.70144
G01 X53.17759Y29.66777
G01 X53.1542Y29.63624
G01 X53.12784Y29.60716
G01 X50.76314Y27.24246
G01 X50.7634Y27.24174
G01 X50.78367Y27.16083
G01 X50.79591Y27.07831
G01 X50.8Y26.995
G01 X50.79591Y26.91169
G01 X50.78367Y26.82917
G01 X50.7634Y26.74826
G01 X50.7353Y26.66972
G01 X50.69963Y26.59431
G01 X50.65675Y26.52277
G01 X50.60706Y26.45577
G01 X50.55104Y26.39396
G01 X50.48923Y26.33794
G01 X50.42223Y26.28825
G01 X50.35069Y26.24537
G01 X50.27528Y26.2097
G01 X50.19674Y26.1816
G01 X50.11583Y26.16133
G01 X50.03331Y26.14909
G01 X49.95Y26.145
G01 X49.86669Y26.14909
G01 X49.78417Y26.16133
G01 X49.70326Y26.1816
G01 X49.62472Y26.2097
G01 X49.54931Y26.24537
G01 X49.47777Y26.28825
G01 X49.41077Y26.33794
G01 X49.34896Y26.39396
G01 X49.29294Y26.45577
G01 X49.24325Y26.52277
G01 X49.20037Y26.59431
G01 X49.1647Y26.66972
G01 X49.1366Y26.74826
G01 X49.11633Y26.82917
G01 X49.11633Y26.82917
M5
G01 X46.88385Y42.51659
M3
G01 X46.88Y43.395
G01 X46.88385Y43.47341
G01 X46.89537Y43.55107
G01 X46.91445Y43.62723
G01 X46.9409Y43.70115
G01 X46.97446Y43.77212
G01 X47.01482Y43.83946
G01 X47.06159Y43.90251
G01 X47.11431Y43.96069
G01 X47.17249Y44.01341
G01 X47.23554Y44.06018
G01 X47.28Y44.08682
G01 X47.28Y44.56931
G01 X45.93723Y43.22654
G01 X45.94Y42.595
G01 X45.93615Y42.51659
G01 X45.92463Y42.43893
G01 X45.90555Y42.36277
G01 X45.8791Y42.28885
G01 X45.84554Y42.21788
G01 X45.80518Y42.15054
G01 X45.75841Y42.08749
G01 X45.70569Y42.02931
G01 X45.64751Y41.97659
G01 X45.58446Y41.92982
G01 X45.51712Y41.88946
G01 X45.44615Y41.8559
G01 X45.37223Y41.82945
G01 X45.29607Y41.81037
G01 X45.21841Y41.79885
G01 X45.14Y41.795
G01 X45.06159Y41.79885
G01 X44.98393Y41.81037
G01 X44.90777Y41.82945
G01 X44.83385Y41.8559
G01 X44.76288Y41.88946
G01 X44.69554Y41.92982
G01 X44.66395Y41.95326
G01 X42.52784Y39.81716
G01 X42.49876Y39.7908
G01 X42.46723Y39.76741
G01 X42.43356Y39.74723
G01 X42.39807Y39.73045
G01 X42.36111Y39.71722
G01 X42.32304Y39.70769
G01 X42.28421Y39.70193
G01 X42.245Y39.7
G01 X17.41569Y39.7
G01 X14.5Y36.78431
G01 X14.5Y33.28682
G01 X14.54446Y33.26018
G01 X14.60751Y33.21341
G01 X14.66569Y33.16069
G01 X14.71841Y33.10251
G01 X14.76518Y33.03946
G01 X14.80554Y32.97212
G01 X14.8391Y32.90115
G01 X14.86555Y32.82723
G01 X14.88463Y32.75107
G01 X14.89615Y32.67341
G01 X14.9Y32.595
G01 X14.89615Y32.51659
G01 X14.88463Y32.43893
G01 X14.87203Y32.38865
G01 X17.18569Y30.075
G01 X26.74779Y30.075
G01 X26.787Y30.07307
G01 X26.82583Y30.06731
G01 X26.8639Y30.05778
G01 X26.90086Y30.04455
G01 X26.93635Y30.02777
G01 X26.97002Y30.00759
G01 X27.00155Y29.9842
G01 X27.03063Y29.95784
G01 X30.03284Y26.95563
G01 X30.0592Y26.92655
G01 X30.08259Y26.89502
G01 X30.10277Y26.86135
G01 X30.11955Y26.82586
G01 X30.13278Y26.7889
G01 X30.14231Y26.75083
G01 X30.14807Y26.712
G01 X30.15Y26.67279
G01 X30.15Y24.46
G01 X30.14807Y24.42079
G01 X30.14231Y24.38196
G01 X30.13278Y24.34389
G01 X30.11955Y24.30693
G01 X30.10277Y24.27144
G01 X30.08259Y24.23777
G01 X30.0592Y24.20624
G01 X30.03284Y24.17716
G01 X27.63703Y21.78135
G01 X27.64963Y21.73107
G01 X27.66115Y21.65341
G01 X27.665Y21.575
G01 X27.66115Y21.49659
G01 X27.64963Y21.41893
G01 X27.63055Y21.34277
G01 X27.6041Y21.26885
G01 X27.57054Y21.19788
G01 X27.53018Y21.13054
G01 X27.48341Y21.06749
G01 X27.43069Y21.00931
G01 X27.37251Y20.95659
G01 X27.30946Y20.90982
G01 X27.24212Y20.86946
G01 X27.17115Y20.8359
G01 X27.09723Y20.80945
G01 X27.02107Y20.79037
G01 X26.94341Y20.77885
G01 X26.865Y20.775
G01 X26.78659Y20.77885
G01 X26.70893Y20.79037
G01 X26.63277Y20.80945
G01 X26.55885Y20.8359
G01 X26.48788Y20.86946
G01 X26.42054Y20.90982
G01 X26.35749Y20.95659
G01 X26.29931Y21.00931
G01 X26.24659Y21.06749
G01 X26.19982Y21.13054
G01 X26.17318Y21.175
G01 X25.01682Y21.175
G01 X24.99018Y21.13054
G01 X24.94341Y21.06749
G01 X24.89069Y21.00931
G01 X24.83251Y20.95659
G01 X24.76946Y20.90982
G01 X24.70212Y20.86946
G01 X24.63115Y20.8359
G01 X24.55723Y20.80945
G01 X24.48107Y20.79037
G01 X24.40341Y20.77885
G01 X24.325Y20.775
G01 X24.24659Y20.77885
G01 X24.16893Y20.79037
G01 X24.09277Y20.80945
G01 X24.01885Y20.8359
G01 X23.94788Y20.86946
G01 X23.88054Y20.90982
G01 X23.81749Y20.95659
G01 X23.75931Y21.00931
G01 X23.70659Y21.06749
G01 X23.65982Y21.13054
G01 X23.61946Y21.19788
G01 X23.5859Y21.26885
G01 X23.55945Y21.34277
G01 X23.54037Y21.41893
G01 X23.52885Y21.49659
G01 X23.525Y21.575
G01 X23.52885Y21.65341
G01 X23.54037Y21.73107
G01 X23.55945Y21.80723
G01 X23.5859Y21.88115
G01 X23.61946Y21.95212
G01 X23.65982Y22.01946
G01 X23.70659Y22.08251
G01 X23.75931Y22.14069
G01 X23.81749Y22.19341
G01 X23.88054Y22.24018
G01 X23.94788Y22.28054
G01 X24.01885Y22.3141
G01 X24.09277Y22.34055
G01 X24.16893Y22.35963
G01 X24.24659Y22.37115
G01 X24.325Y22.375
G01 X24.40341Y22.37115
G01 X24.48107Y22.35963
G01 X24.55723Y22.34055
G01 X24.63115Y22.3141
G01 X24.70212Y22.28054
G01 X24.76946Y22.24018
G01 X24.83251Y22.19341
G01 X24.89069Y22.14069
G01 X24.94341Y22.08251
G01 X24.99018Y22.01946
G01 X25.01682Y21.975
G01 X26.17318Y21.975
G01 X26.19982Y22.01946
G01 X26.24659Y22.08251
G01 X26.29931Y22.14069
G01 X26.35749Y22.19341
G01 X26.42054Y22.24018
G01 X26.48788Y22.28054
G01 X26.55885Y22.3141
G01 X26.63277Y22.34055
G01 X26.70893Y22.35963
G01 X26.78659Y22.37115
G01 X26.865Y22.375
G01 X26.94341Y22.37115
G01 X27.02107Y22.35963
G01 X27.07135Y22.34703
G01 X29.35Y24.62569
G01 X29.35Y26.5071
G01 X26.5821Y29.275
G01 X17.02Y29.275
G01 X16.98079Y29.27693
G01 X16.94196Y29.28269
G01 X16.90389Y29.29222
G01 X16.86693Y29.30545
G01 X16.83144Y29.32223
G01 X16.79777Y29.34241
G01 X16.76624Y29.3658
G01 X16.73716Y29.39216
G01 X14.30635Y31.82297
G01 X14.25607Y31.81037
G01 X14.17841Y31.79885
G01 X14.1Y31.795
G01 X14.02159Y31.79885
G01 X13.94393Y31.81037
G01 X13.89365Y31.82297
G01 X13.1Y31.02931
G01 X13.1Y21.04069
G01 X15.76569Y18.375
G01 X42.23931Y18.375
G01 X45.25797Y21.39365
G01 X45.24537Y21.44393
G01 X45.23385Y21.52159
G01 X45.23Y21.6
G01 X45.23385Y21.67841
G01 X45.24537Y21.75607
G01 X45.26445Y21.83223
G01 X45.2909Y21.90615
G01 X45.32446Y21.97712
G01 X45.36482Y22.04446
G01 X45.41159Y22.10751
G01 X45.46431Y22.16569
G01 X45.52249Y22.21841
G01 X45.58554Y22.26518
G01 X45.65288Y22.30554
G01 X45.72385Y22.3391
G01 X45.79777Y22.36555
G01 X45.87393Y22.38463
G01 X45.95159Y22.39615
G01 X46.03Y22.4
G01 X46.10841Y22.39615
G01 X46.18607Y22.38463
G01 X46.26223Y22.36555
G01 X46.33615Y22.3391
G01 X46.40712Y22.30554
G01 X46.47446Y22.26518
G01 X46.53751Y22.21841
G01 X46.59569Y22.16569
G01 X46.64841Y22.10751
G01 X46.69518Y22.04446
G01 X46.72182Y22.0
G01 X47.87818Y22.0
G01 X47.90482Y22.04446
G01 X47.95159Y22.10751
G01 X48.00431Y22.16569
G01 X48.06249Y22.21841
G01 X48.12554Y22.26518
G01 X48.19288Y22.30554
G01 X48.26385Y22.3391
G01 X48.33777Y22.36555
G01 X48.41393Y22.38463
G01 X48.49159Y22.39615
G01 X48.57Y22.4
G01 X48.64841Y22.39615
G01 X48.72607Y22.38463
G01 X48.80223Y22.36555
G01 X48.87615Y22.3391
G01 X48.94712Y22.30554
G01 X49.01446Y22.26518
G01 X49.07751Y22.21841
G01 X49.13569Y22.16569
G01 X49.18841Y22.10751
G01 X49.23518Y22.04446
G01 X49.27554Y21.97712
G01 X49.3091Y21.90615
G01 X49.33555Y21.83223
G01 X49.35463Y21.75607
G01 X49.36615Y21.67841
G01 X49.37Y21.6
G01 X49.36615Y21.52159
G01 X49.35463Y21.44393
G01 X49.33555Y21.36777
G01 X49.3091Y21.29385
G01 X49.27554Y21.22288
G01 X49.23518Y21.15554
G01 X49.18841Y21.09249
G01 X49.13569Y21.03431
G01 X49.07751Y20.98159
G01 X49.01446Y20.93482
G01 X48.94712Y20.89446
G01 X48.87615Y20.8609
G01 X48.80223Y20.83445
G01 X48.72607Y20.81537
G01 X48.64841Y20.80385
G01 X48.57Y20.8
G01 X48.49159Y20.80385
G01 X48.41393Y20.81537
G01 X48.33777Y20.83445
G01 X48.26385Y20.8609
G01 X48.19288Y20.89446
G01 X48.12554Y20.93482
G01 X48.06249Y20.98159
G01 X48.00431Y21.03431
G01 X47.95159Y21.09249
G01 X47.90482Y21.15554
G01 X47.87818Y21.2
G01 X46.72182Y21.2
G01 X46.69518Y21.15554
G01 X46.64841Y21.09249
G01 X46.59569Y21.03431
G01 X46.53751Y20.98159
G01 X46.47446Y20.93482
G01 X46.40712Y20.89446
G01 X46.33615Y20.8609
G01 X46.26223Y20.83445
G01 X46.18607Y20.81537
G01 X46.10841Y20.80385
G01 X46.03Y20.8
G01 X45.95159Y20.80385
G01 X45.87393Y20.81537
G01 X45.82365Y20.82797
G01 X42.68784Y17.69216
G01 X42.65876Y17.6658
G01 X42.62723Y17.64241
G01 X42.59356Y17.62223
G01 X42.55807Y17.60545
G01 X42.52111Y17.59222
G01 X42.48304Y17.58269
G01 X42.44421Y17.57693
G01 X42.405Y17.575
G01 X15.6Y17.575
G01 X15.56079Y17.57693
G01 X15.52196Y17.58269
G01 X15.48389Y17.59222
G01 X15.44693Y17.60545
G01 X15.41823Y17.61902
G01 X15.41144Y17.62223
G01 X15.37777Y17.64241
G01 X15.34624Y17.6658
G01 X15.31716Y17.69216
G01 X12.41716Y20.59216
G01 X12.3908Y20.62124
G01 X12.36741Y20.65277
G01 X12.34723Y20.68644
G01 X12.33045Y20.72193
G01 X12.31722Y20.75889
G01 X12.30769Y20.79696
G01 X12.30193Y20.83579
G01 X12.3Y20.875
G01 X12.3Y31.195
G01 X12.30193Y31.23421
G01 X12.30769Y31.27304
G01 X12.31722Y31.31111
G01 X12.33045Y31.34807
G01 X12.34723Y31.38356
G01 X12.36741Y31.41723
G01 X12.3908Y31.44876
G01 X12.41716Y31.47784
G01 X13.32797Y32.38865
G01 X13.31537Y32.43893
G01 X13.30385Y32.51659
G01 X13.3Y32.595
G01 X13.30385Y32.67341
G01 X13.31537Y32.75107
G01 X13.33445Y32.82723
G01 X13.3609Y32.90115
G01 X13.39446Y32.97212
G01 X13.43482Y33.03946
G01 X13.48159Y33.10251
G01 X13.53431Y33.16069
G01 X13.59249Y33.21341
G01 X13.65554Y33.26018
G01 X13.7Y33.28682
G01 X13.7Y36.88078
G01 X11.67716Y38.90363
G01 X11.6508Y38.93271
G01 X11.62741Y38.96424
G01 X11.60723Y38.99791
G01 X11.59045Y39.0334
G01 X11.57722Y39.07036
G01 X11.56769Y39.10843
G01 X11.56193Y39.14726
G01 X11.56Y39.18647
G01 X11.56Y43.335
G01 X11.56Y48.1198
G01 X11.53574Y48.13127
G01 X11.45999Y48.17668
G01 X11.38905Y48.22929
G01 X11.3236Y48.2886
G01 X11.26429Y48.35405
G01 X11.21168Y48.42499
G01 X11.16627Y48.50074
G01 X11.12851Y48.58058
G01 X11.09875Y48.66374
G01 X11.07729Y48.74942
G01 X11.06433Y48.83678
G01 X11.06Y48.925
G01 X11.06433Y49.01322
G01 X11.07729Y49.10058
G01 X11.09875Y49.18626
G01 X11.12851Y49.26942
G01 X11.16627Y49.34926
G01 X11.21168Y49.42501
G01 X11.26429Y49.49595
G01 X11.3236Y49.5614
G01 X11.38905Y49.62071
G01 X11.45999Y49.67332
G01 X11.53574Y49.71873
G01 X11.61558Y49.75649
G01 X11.69874Y49.78625
G01 X11.78442Y49.80771
G01 X11.87178Y49.82067
G01 X11.96Y49.825
G01 X12.04822Y49.82067
G01 X12.13558Y49.80771
G01 X12.22126Y49.78625
G01 X12.30442Y49.75649
G01 X12.38426Y49.71873
G01 X12.46001Y49.67332
G01 X12.53095Y49.62071
G01 X12.5964Y49.5614
G01 X12.65571Y49.49595
G01 X12.70832Y49.42501
G01 X12.75373Y49.34926
G01 X12.79149Y49.26942
G01 X12.82125Y49.18626
G01 X12.84271Y49.10058
G01 X12.85567Y49.01322
G01 X12.86Y48.925
G01 X12.85567Y48.83678
G01 X12.84271Y48.74942
G01 X12.82125Y48.66374
G01 X12.79149Y48.58058
G01 X12.75373Y48.50074
G01 X12.70832Y48.42499
G01 X12.65571Y48.35405
G01 X12.5964Y48.2886
G01 X12.53095Y48.22929
G01 X12.46001Y48.17668
G01 X12.38426Y48.13127
G01 X12.36Y48.1198
G01 X12.36Y44.30069
G01 X26.29216Y58.23284
G01 X26.32124Y58.2592
G01 X26.35277Y58.28259
G01 X26.38644Y58.30277
G01 X26.42193Y58.31955
G01 X26.45889Y58.33278
G01 X26.49696Y58.34231
G01 X26.53579Y58.34807
G01 X26.575Y58.35
G01 X40.13504Y58.35
G01 X40.13537Y58.35069
G01 X40.17825Y58.42223
G01 X40.22794Y58.48923
G01 X40.28396Y58.55104
G01 X40.34577Y58.60706
G01 X40.41277Y58.65675
G01 X40.48431Y58.69963
G01 X40.485Y58.69996
G01 X40.485Y58.8
G01 X40.48693Y58.83921
G01 X40.49269Y58.87804
G01 X40.50222Y58.91611
G01 X40.51545Y58.95307
G01 X40.53223Y58.98856
G01 X40.55241Y59.02223
G01 X40.56584Y59.04033
G01 X40.5758Y59.05376
G01 X40.60216Y59.08284
G01 X41.27716Y59.75784
G01 X41.30624Y59.7842
G01 X41.33777Y59.80759
G01 X41.37144Y59.82777
G01 X41.40693Y59.84455
G01 X41.44389Y59.85778
G01 X41.48196Y59.86731
G01 X41.52079Y59.87307
G01 X41.56Y59.875
G01 X50.73921Y59.875
G01 X50.77842Y59.87307
G01 X50.81725Y59.86731
G01 X50.85532Y59.85778
G01 X50.89228Y59.84455
G01 X50.92777Y59.82777
G01 X50.96144Y59.80759
G01 X50.99297Y59.7842
G01 X51.02205Y59.75784
G01 X64.16534Y46.61455
G01 X64.1917Y46.58547
G01 X64.21509Y46.55394
G01 X64.23527Y46.52027
G01 X64.25205Y46.48478
G01 X64.26528Y46.44782
G01 X64.27481Y46.40975
G01 X64.28057Y46.37092
G01 X64.2825Y46.33171
G01 X64.2825Y31.1125
G01 X64.28057Y31.07329
G01 X64.27481Y31.03446
G01 X64.26528Y30.99639
G01 X64.25205Y30.95943
G01 X64.23527Y30.92394
G01 X64.21509Y30.89027
G01 X64.1917Y30.85874
G01 X64.16534Y30.82966
G01 X63.22574Y29.89005
G01 X63.23149Y29.874
G01 X63.2542Y29.78332
G01 X63.26791Y29.69086
G01 X63.2725Y29.5025
G01 X63.26791Y29.40914
G01 X63.2542Y29.31668
G01 X63.23149Y29.226
G01 X63.2Y29.13799
G01 X63.16003Y29.05349
G01 X63.11197Y28.97332
G01 X63.05629Y28.89824
G01 X62.99352Y28.82898
G01 X62.92426Y28.76621
G01 X62.84918Y28.71053
G01 X62.76901Y28.66247
G01 X62.68451Y28.6225
G01 X62.5965Y28.59101
G01 X62.50582Y28.5683
G01 X62.41336Y28.55459
G01 X62.32Y28.55
G01 X62.22664Y28.55459
G01 X62.13418Y28.5683
G01 X62.0435Y28.59101
G01 X61.95549Y28.6225
G01 X61.87099Y28.66247
G01 X61.79082Y28.71053
G01 X61.71574Y28.76621
G01 X61.64648Y28.82898
G01 X61.58371Y28.89824
G01 X61.52803Y28.97332
G01 X61.47997Y29.05349
G01 X61.44Y29.13799
G01 X61.40851Y29.226
G01 X61.3858Y29.31668
G01 X61.37209Y29.40914
G01 X61.3675Y29.5975
G01 X61.37209Y29.69086
G01 X61.3858Y29.78332
G01 X61.40851Y29.874
G01 X61.44Y29.96201
G01 X61.47997Y30.04651
G01 X61.52803Y30.12668
G01 X61.58371Y30.20176
G01 X61.64648Y30.27102
G01 X61.71574Y30.33379
G01 X61.79082Y30.38947
G01 X61.87099Y30.43753
G01 X61.95549Y30.4775
G01 X62.0435Y30.50899
G01 X62.13418Y30.5317
G01 X62.22664Y30.54541
G01 X62.32Y30.55
G01 X62.41336Y30.54541
G01 X62.50582Y30.5317
G01 X62.5965Y30.50899
G01 X62.68252Y30.47821
G01 X63.4825Y31.27819
G01 X63.4825Y46.16602
G01 X50.57352Y59.075
G01 X41.72569Y59.075
G01 X41.3261Y58.67541
G01 X41.35723Y58.65675
G01 X41.42423Y58.60706
G01 X41.48604Y58.55104
G01 X41.54206Y58.48923
G01 X41.59175Y58.42223
G01 X41.63463Y58.35069
G01 X41.6703Y58.27528
G01 X41.6984Y58.19674
G01 X41.71867Y58.11583
G01 X41.73091Y58.03331
G01 X41.735Y57.95
G01 X41.73091Y57.86669
G01 X41.71867Y57.78417
G01 X41.6984Y57.70326
G01 X41.6703Y57.62472
G01 X41.63463Y57.54931
G01 X41.59175Y57.47777
G01 X41.54206Y57.41077
G01 X41.48604Y57.34896
G01 X41.42423Y57.29294
G01 X41.35723Y57.24325
G01 X41.28569Y57.20037
G01 X41.21028Y57.1647
G01 X41.13174Y57.1366
G01 X41.05083Y57.11633
G01 X40.96831Y57.10409
G01 X40.885Y57.1
G01 X40.80169Y57.10409
G01 X40.71917Y57.11633
G01 X40.63826Y57.1366
G01 X40.55972Y57.1647
G01 X40.48431Y57.20037
G01 X40.41277Y57.24325
G01 X40.34577Y57.29294
G01 X40.28396Y57.34896
G01 X40.22794Y57.41077
G01 X40.17825Y57.47777
G01 X40.13537Y57.54931
G01 X40.13504Y57.55
G01 X26.74069Y57.55
G01 X12.36Y43.16931
G01 X12.36Y39.35216
G01 X14.14824Y37.56392
G01 X16.96716Y40.38284
G01 X16.99624Y40.4092
G01 X17.02777Y40.43259
G01 X17.06144Y40.45277
G01 X17.09693Y40.46955
G01 X17.13389Y40.48278
G01 X17.17196Y40.49231
G01 X17.21079Y40.49807
G01 X17.25Y40.5
G01 X42.07931Y40.5
G01 X44.34277Y42.76346
G01 X44.34Y43.395
G01 X44.34385Y43.47341
G01 X44.35537Y43.55107
G01 X44.37445Y43.62723
G01 X44.4009Y43.70115
G01 X44.43446Y43.77212
G01 X44.47482Y43.83946
G01 X44.52159Y43.90251
G01 X44.57431Y43.96069
G01 X44.63249Y44.01341
G01 X44.69554Y44.06018
G01 X44.76288Y44.10054
G01 X44.83385Y44.1341
G01 X44.90777Y44.16055
G01 X44.98393Y44.17963
G01 X45.06159Y44.19115
G01 X45.14Y44.195
G01 X45.21841Y44.19115
G01 X45.29607Y44.17963
G01 X45.37223Y44.16055
G01 X45.44615Y44.1341
G01 X45.51712Y44.10054
G01 X45.58446Y44.06018
G01 X45.61605Y44.03674
G01 X47.925Y46.34569
G01 X47.925Y46.95
G01 X47.525Y46.95
G01 X47.525Y48.55
G01 X47.925Y48.55
G01 X47.925Y51.27868
G01 X47.85Y51.275
G01 X47.77159Y51.27885
G01 X47.69393Y51.29037
G01 X47.61777Y51.30945
G01 X47.54385Y51.3359
G01 X47.47288Y51.36946
G01 X47.40554Y51.40982
G01 X47.34249Y51.45659
G01 X47.28431Y51.50931
G01 X47.23159Y51.56749
G01 X47.18482Y51.63054
G01 X47.14446Y51.69788
G01 X47.1109Y51.76885
G01 X47.08445Y51.84277
G01 X47.06537Y51.91893
G01 X47.05385Y51.99659
G01 X47.05Y52.075
G01 X47.05385Y52.15341
G01 X47.06537Y52.23107
G01 X47.08445Y52.30723
G01 X47.1109Y52.38115
G01 X47.14446Y52.45212
G01 X47.18482Y52.51946
G01 X47.23159Y52.58251
G01 X47.28431Y52.64069
G01 X47.34249Y52.69341
G01 X47.40554Y52.74018
G01 X47.47288Y52.78054
G01 X47.54385Y52.8141
G01 X47.61777Y52.84055
G01 X47.69393Y52.85963
G01 X47.77159Y52.87115
G01 X47.85Y52.875
G01 X47.92841Y52.87115
G01 X48.00607Y52.85963
G01 X48.08223Y52.84055
G01 X48.15615Y52.8141
G01 X48.22712Y52.78054
G01 X48.29446Y52.74018
G01 X48.35751Y52.69341
G01 X48.41569Y52.64069
G01 X48.46841Y52.58251
G01 X48.51518Y52.51946
G01 X48.55554Y52.45212
G01 X48.5891Y52.38115
G01 X48.61555Y52.30723
G01 X48.63463Y52.23107
G01 X48.64615Y52.15341
G01 X48.65Y52.075
G01 X48.64615Y51.99659
G01 X48.63463Y51.91893
G01 X48.62175Y51.8675
G01 X48.6342Y51.85376
G01 X48.64416Y51.84033
G01 X48.65759Y51.82223
G01 X48.67777Y51.78856
G01 X48.69455Y51.75307
G01 X48.70778Y51.71611
G01 X48.71731Y51.67804
G01 X48.72307Y51.63921
G01 X48.725Y51.6
G01 X48.725Y48.55
G01 X49.125Y48.55
G01 X49.125Y46.95
G01 X48.725Y46.95
G01 X48.725Y46.18
G01 X48.72307Y46.14079
G01 X48.71731Y46.10196
G01 X48.70778Y46.06389
G01 X48.69455Y46.02693
G01 X48.67777Y45.99144
G01 X48.65759Y45.95777
G01 X48.64416Y45.93967
G01 X48.6342Y45.92624
G01 X48.60784Y45.89716
G01 X48.08Y45.36931
G01 X48.08Y44.08682
G01 X48.12446Y44.06018
G01 X48.18751Y44.01341
G01 X48.24569Y43.96069
G01 X48.29841Y43.90251
G01 X48.34518Y43.83946
G01 X48.38554Y43.77212
G01 X48.4191Y43.70115
G01 X48.44555Y43.62723
G01 X48.46463Y43.55107
G01 X48.47615Y43.47341
G01 X48.48Y42.595
G01 X48.47615Y42.51659
G01 X48.46463Y42.43893
G01 X48.44555Y42.36277
G01 X48.4191Y42.28885
G01 X48.38554Y42.21788
G01 X48.34518Y42.15054
G01 X48.29841Y42.08749
G01 X48.24569Y42.02931
G01 X48.18751Y41.97659
G01 X48.12446Y41.92982
G01 X48.05712Y41.88946
G01 X47.98615Y41.8559
G01 X47.91223Y41.82945
G01 X47.83607Y41.81037
G01 X47.75841Y41.79885
G01 X47.68Y41.795
G01 X47.60159Y41.79885
G01 X47.52393Y41.81037
G01 X47.44777Y41.82945
G01 X47.37385Y41.8559
G01 X47.30288Y41.88946
G01 X47.23554Y41.92982
G01 X47.17249Y41.97659
G01 X47.11431Y42.02931
G01 X47.06159Y42.08749
G01 X47.01482Y42.15054
G01 X46.97446Y42.21788
G01 X46.9409Y42.28885
G01 X46.91445Y42.36277
G01 X46.89537Y42.43893
G01 X46.88385Y42.51659
G01 X46.88385Y42.51659
M5
G01 X64.15959Y6.63865
M3
G01 X64.175Y6.325
G01 X64.15959Y6.01135
G01 X64.11351Y5.70071
G01 X64.03721Y5.39609
G01 X63.93141Y5.10041
G01 X63.79715Y4.81653
G01 X63.6357Y4.54718
G01 X63.44863Y4.29494
G01 X63.23774Y4.06226
G01 X63.00506Y3.85137
G01 X62.75282Y3.6643
G01 X62.48347Y3.50285
G01 X62.19959Y3.36859
G01 X61.90391Y3.26279
G01 X61.59929Y3.18649
G01 X61.28865Y3.14041
G01 X60.975Y3.125
G01 X60.66135Y3.14041
G01 X60.35071Y3.18649
G01 X60.04609Y3.26279
G01 X59.75041Y3.36859
G01 X59.46653Y3.50285
G01 X59.19718Y3.6643
G01 X58.94494Y3.85137
G01 X58.71226Y4.06226
G01 X58.50137Y4.29494
G01 X58.3143Y4.54718
G01 X58.15285Y4.81653
G01 X58.01859Y5.10041
G01 X57.91279Y5.39609
G01 X57.83649Y5.70071
G01 X57.79041Y6.01135
G01 X57.775Y6.325
G01 X57.79041Y6.63865
G01 X57.83649Y6.94929
G01 X57.91279Y7.25391
G01 X58.01859Y7.54959
G01 X58.15285Y7.83347
G01 X58.3143Y8.10282
G01 X58.50137Y8.35506
G01 X58.71226Y8.58774
G01 X58.94494Y8.79863
G01 X59.19718Y8.9857
G01 X59.46653Y9.14715
G01 X59.75041Y9.28141
G01 X60.04609Y9.38721
G01 X60.35071Y9.46351
G01 X60.66135Y9.50959
G01 X60.975Y9.525
G01 X61.28865Y9.50959
G01 X61.59929Y9.46351
G01 X61.90391Y9.38721
G01 X62.19959Y9.28141
G01 X62.48347Y9.14715
G01 X62.75282Y8.9857
G01 X63.00506Y8.79863
G01 X63.23774Y8.58774
G01 X63.44863Y8.35506
G01 X63.6357Y8.10282
G01 X63.79715Y7.83347
G01 X63.93141Y7.54959
G01 X64.03721Y7.25391
G01 X64.11351Y6.94929
G01 X64.15959Y6.63865
G01 X64.15959Y6.63865
M5
G01 X10.36351Y6.82429
M3
G01 X10.40959Y6.51365
G01 X10.425Y6.2
G01 X10.40959Y5.88635
G01 X10.36351Y5.57571
G01 X10.28721Y5.27109
G01 X10.18141Y4.97541
G01 X10.04715Y4.69153
G01 X9.8857Y4.42218
G01 X9.69863Y4.16994
G01 X9.48774Y3.93726
G01 X9.25506Y3.72637
G01 X9.00282Y3.5393
G01 X8.73347Y3.37785
G01 X8.44959Y3.24359
G01 X8.15391Y3.13779
G01 X7.84929Y3.06149
G01 X7.53865Y3.01541
G01 X7.225Y3.0
G01 X6.91135Y3.01541
G01 X6.60071Y3.06149
G01 X6.29609Y3.13779
G01 X6.00041Y3.24359
G01 X5.71653Y3.37785
G01 X5.44718Y3.5393
G01 X5.19494Y3.72637
G01 X4.96226Y3.93726
G01 X4.75137Y4.16994
G01 X4.5643Y4.42218
G01 X4.40285Y4.69153
G01 X4.26859Y4.97541
G01 X4.16279Y5.27109
G01 X4.08649Y5.57571
G01 X4.04041Y5.88635
G01 X4.025Y6.2
G01 X4.04041Y6.51365
G01 X4.08649Y6.82429
G01 X4.16279Y7.12891
G01 X4.26859Y7.42459
G01 X4.40285Y7.70847
G01 X4.5643Y7.97782
G01 X4.75137Y8.23006
G01 X4.96226Y8.46274
G01 X5.19494Y8.67363
G01 X5.44718Y8.8607
G01 X5.71653Y9.02215
G01 X6.00041Y9.15641
G01 X6.29609Y9.26221
G01 X6.60071Y9.33851
G01 X6.91135Y9.38459
G01 X7.225Y9.4
G01 X7.53865Y9.38459
G01 X7.84929Y9.33851
G01 X8.15391Y9.26221
G01 X8.44959Y9.15641
G01 X8.73347Y9.02215
G01 X9.00282Y8.8607
G01 X9.25506Y8.67363
G01 X9.48774Y8.46274
G01 X9.69863Y8.23006
G01 X9.8857Y7.97782
G01 X10.04715Y7.70847
G01 X10.18141Y7.42459
G01 X10.28721Y7.12891
G01 X10.36351Y6.82429
G01 X10.36351Y6.82429
M5
G01 X48.05712Y36.48054
M3
G01 X48.12446Y36.44018
G01 X48.18751Y36.39341
G01 X48.24569Y36.34069
G01 X48.29841Y36.28251
G01 X48.34518Y36.21946
G01 X48.38554Y36.15212
G01 X48.4191Y36.08115
G01 X48.44555Y36.00723
G01 X48.46463Y35.93107
G01 X48.47615Y35.85341
G01 X48.47927Y35.14142
G01 X50.23284Y33.38784
G01 X50.2592Y33.35876
G01 X50.28259Y33.32723
G01 X50.30277Y33.29356
G01 X50.31955Y33.25807
G01 X50.33278Y33.22111
G01 X50.34231Y33.18304
G01 X50.34807Y33.14421
G01 X50.35Y33.105
G01 X50.35Y32.925
G01 X50.8Y32.925
G01 X50.8Y31.225
G01 X49.1Y31.225
G01 X49.1Y32.925
G01 X49.55Y32.925
G01 X49.55Y32.93931
G01 X48.15605Y34.33326
G01 X48.12446Y34.30982
G01 X48.05712Y34.26946
G01 X47.98615Y34.2359
G01 X47.91223Y34.20945
G01 X47.83607Y34.19037
G01 X47.75841Y34.17885
G01 X47.68Y34.175
G01 X47.60159Y34.17885
G01 X47.52393Y34.19037
G01 X47.44777Y34.20945
G01 X47.37385Y34.2359
G01 X47.30288Y34.26946
G01 X47.23554Y34.30982
G01 X47.17249Y34.35659
G01 X47.11431Y34.40931
G01 X47.06159Y34.46749
G01 X47.01482Y34.53054
G01 X46.97446Y34.59788
G01 X46.9409Y34.66885
G01 X46.91445Y34.74277
G01 X46.89537Y34.81893
G01 X46.88385Y34.89659
G01 X46.88Y35.775
G01 X46.88385Y35.85341
G01 X46.89537Y35.93107
G01 X46.91445Y36.00723
G01 X46.9409Y36.08115
G01 X46.97446Y36.15212
G01 X47.01482Y36.21946
G01 X47.06159Y36.28251
G01 X47.11431Y36.34069
G01 X47.17249Y36.39341
G01 X47.23554Y36.44018
G01 X47.30288Y36.48054
G01 X47.37385Y36.5141
G01 X47.44777Y36.54055
G01 X47.52393Y36.55963
G01 X47.60159Y36.57115
G01 X47.68Y36.575
G01 X47.75841Y36.57115
G01 X47.83607Y36.55963
G01 X47.91223Y36.54055
G01 X47.98615Y36.5141
G01 X48.05712Y36.48054
G01 X48.05712Y36.48054
M5
G01 X50.03331Y30.38091
M3
G01 X50.11583Y30.36867
G01 X50.19674Y30.3484
G01 X50.27528Y30.3203
G01 X50.35069Y30.28463
G01 X50.42223Y30.24175
G01 X50.48923Y30.19206
G01 X50.55104Y30.13604
G01 X50.60706Y30.07423
G01 X50.65675Y30.00723
G01 X50.67367Y29.97901
G01 X51.075Y30.38035
G01 X51.075Y33.95431
G01 X50.69605Y34.33326
G01 X50.66446Y34.30982
G01 X50.59712Y34.26946
G01 X50.52615Y34.2359
G01 X50.45223Y34.20945
G01 X50.37607Y34.19037
G01 X50.29841Y34.17885
G01 X50.22Y34.175
G01 X50.14159Y34.17885
G01 X50.06393Y34.19037
G01 X49.98777Y34.20945
G01 X49.91385Y34.2359
G01 X49.84288Y34.26946
G01 X49.77554Y34.30982
G01 X49.71249Y34.35659
G01 X49.65431Y34.40931
G01 X49.60159Y34.46749
G01 X49.55482Y34.53054
G01 X49.51446Y34.59788
G01 X49.4809Y34.66885
G01 X49.45445Y34.74277
G01 X49.43537Y34.81893
G01 X49.42385Y34.89659
G01 X49.42Y35.775
G01 X49.42385Y35.85341
G01 X49.43537Y35.93107
G01 X49.45445Y36.00723
G01 X49.4809Y36.08115
G01 X49.51446Y36.15212
G01 X49.55482Y36.21946
G01 X49.60159Y36.28251
G01 X49.65431Y36.34069
G01 X49.71249Y36.39341
G01 X49.77554Y36.44018
G01 X49.84288Y36.48054
G01 X49.91385Y36.5141
G01 X49.98777Y36.54055
G01 X50.06393Y36.55963
G01 X50.14159Y36.57115
G01 X50.22Y36.575
G01 X50.29841Y36.57115
G01 X50.37607Y36.55963
G01 X50.45223Y36.54055
G01 X50.52615Y36.5141
G01 X50.59712Y36.48054
G01 X50.66446Y36.44018
G01 X50.72751Y36.39341
G01 X50.78569Y36.34069
G01 X50.83841Y36.28251
G01 X50.88518Y36.21946
G01 X50.92554Y36.15212
G01 X50.9591Y36.08115
G01 X50.98555Y36.00723
G01 X51.00463Y35.93107
G01 X51.01615Y35.85341
G01 X51.01927Y35.14142
G01 X51.75784Y34.40284
G01 X51.7842Y34.37376
G01 X51.80759Y34.34223
G01 X51.82777Y34.30856
G01 X51.84455Y34.27307
G01 X51.85778Y34.23611
G01 X51.86731Y34.19804
G01 X51.87307Y34.15921
G01 X51.875Y34.12
G01 X51.875Y30.21466
G01 X51.87307Y30.17545
G01 X51.86731Y30.13662
G01 X51.85778Y30.09855
G01 X51.84455Y30.06159
G01 X51.82777Y30.0261
G01 X51.80759Y29.99243
G01 X51.7842Y29.9609
G01 X51.75784Y29.93182
G01 X51.07818Y29.25216
G01 X51.0491Y29.2258
G01 X51.01757Y29.20241
G01 X50.9839Y29.18223
G01 X50.94841Y29.16545
G01 X50.91145Y29.15222
G01 X50.87338Y29.14269
G01 X50.83455Y29.13693
G01 X50.79534Y29.135
G01 X50.69996Y29.135
G01 X50.69963Y29.13431
G01 X50.65675Y29.06277
G01 X50.60706Y28.99577
G01 X50.55104Y28.93396
G01 X50.48923Y28.87794
G01 X50.42223Y28.82825
G01 X50.35069Y28.78537
G01 X50.27528Y28.7497
G01 X50.19674Y28.7216
G01 X50.11583Y28.70133
G01 X50.03331Y28.68909
G01 X49.95Y28.685
G01 X49.86669Y28.68909
G01 X49.78417Y28.70133
G01 X49.70326Y28.7216
G01 X49.62472Y28.7497
G01 X49.54931Y28.78537
G01 X49.47777Y28.82825
G01 X49.41077Y28.87794
G01 X49.34896Y28.93396
G01 X49.29294Y28.99577
G01 X49.24325Y29.06277
G01 X49.20037Y29.13431
G01 X49.1647Y29.20972
G01 X49.1366Y29.28826
G01 X49.11633Y29.36917
G01 X49.10409Y29.45169
G01 X49.1Y29.535
G01 X49.10409Y29.61831
G01 X49.11633Y29.70083
G01 X49.1366Y29.78174
G01 X49.1647Y29.86028
G01 X49.20037Y29.93569
G01 X49.24325Y30.00723
G01 X49.29294Y30.07423
G01 X49.34896Y30.13604
G01 X49.41077Y30.19206
G01 X49.47777Y30.24175
G01 X49.54931Y30.28463
G01 X49.62472Y30.3203
G01 X49.70326Y30.3484
G01 X49.78417Y30.36867
G01 X49.86669Y30.38091
G01 X49.95Y30.385
G01 X50.03331Y30.38091
G01 X50.03331Y30.38091
M5
G01 X58.8375Y34.5225
M3
G01 X58.84209Y34.61586
G01 X58.8558Y34.70832
G01 X58.87851Y34.799
G01 X58.91Y34.88701
G01 X58.94997Y34.97151
G01 X58.99803Y35.05168
G01 X59.04Y35.10828
G01 X59.04Y36.85
G01 X59.04361Y36.92351
G01 X59.05441Y36.99632
G01 X59.07229Y37.06771
G01 X59.075Y37.07527
G01 X59.075Y38.165
G01 X59.075Y38.45
G01 X59.075Y41.62431
G01 X59.07229Y41.63189
G01 X59.06892Y41.63751
G01 X59.06356Y41.64645
G01 X59.04527Y41.68512
G01 X59.03209Y41.71299
G01 X59.00729Y41.78229
G01 X58.98941Y41.85368
G01 X58.97861Y41.92649
G01 X58.97571Y41.98555
G01 X58.975Y42.0
G01 X58.975Y46.27509
G01 X58.9397Y46.34972
G01 X58.9116Y46.42826
G01 X58.89133Y46.50917
G01 X58.87909Y46.59169
G01 X58.875Y46.975
G01 X58.87909Y47.05831
G01 X58.89133Y47.14083
G01 X58.9116Y47.22174
G01 X58.9397Y47.30028
G01 X58.97537Y47.37569
G01 X59.01825Y47.44723
G01 X59.06794Y47.51423
G01 X59.12396Y47.57604
G01 X59.18577Y47.63206
G01 X59.25277Y47.68175
G01 X59.32431Y47.72463
G01 X59.39972Y47.7603
G01 X59.47826Y47.7884
G01 X59.55917Y47.80867
G01 X59.64169Y47.82091
G01 X59.725Y47.825
G01 X59.80831Y47.82091
G01 X59.89083Y47.80867
G01 X59.97174Y47.7884
G01 X60.05028Y47.7603
G01 X60.12569Y47.72463
G01 X60.19723Y47.68175
G01 X60.26423Y47.63206
G01 X60.32604Y47.57604
G01 X60.38206Y47.51423
G01 X60.43175Y47.44723
G01 X60.47463Y47.37569
G01 X60.5103Y47.30028
G01 X60.5384Y47.22174
G01 X60.55867Y47.14083
G01 X60.57091Y47.05831
G01 X60.575Y46.675
G01 X60.57091Y46.59169
G01 X60.55867Y46.50917
G01 X60.5384Y46.42826
G01 X60.5103Y46.34972
G01 X60.475Y46.27509
G01 X60.475Y42.36492
G01 X60.49018Y42.34446
G01 X60.53054Y42.27712
G01 X60.5641Y42.20615
G01 X60.59055Y42.13223
G01 X60.60963Y42.05607
G01 X60.62115Y41.97841
G01 X60.625Y41.9
G01 X60.62115Y41.82159
G01 X60.60963Y41.74393
G01 X60.59055Y41.66777
G01 X60.575Y41.62431
G01 X60.575Y38.47566
G01 X60.80039Y38.25027
G01 X60.84212Y38.23054
G01 X60.90946Y38.19018
G01 X60.97251Y38.14341
G01 X61.03069Y38.09069
G01 X61.08341Y38.03251
G01 X61.13018Y37.96946
G01 X61.17054Y37.90212
G01 X61.2041Y37.83115
G01 X61.23055Y37.75723
G01 X61.24963Y37.68107
G01 X61.26115Y37.60341
G01 X61.265Y37.525
G01 X61.26115Y37.44659
G01 X61.24963Y37.36893
G01 X61.23055Y37.29277
G01 X61.2041Y37.21885
G01 X61.17054Y37.14788
G01 X61.13018Y37.08054
G01 X61.08341Y37.01749
G01 X61.03069Y36.95931
G01 X60.97251Y36.90659
G01 X60.90946Y36.85982
G01 X60.84212Y36.81946
G01 X60.80039Y36.79973
G01 X60.54Y36.53934
G01 X60.54Y35.10828
G01 X60.58197Y35.05168
G01 X60.63003Y34.97151
G01 X60.67Y34.88701
G01 X60.70149Y34.799
G01 X60.7242Y34.70832
G01 X60.73791Y34.61586
G01 X60.7425Y34.4275
G01 X60.73791Y34.33414
G01 X60.7242Y34.24168
G01 X60.70149Y34.151
G01 X60.67Y34.06299
G01 X60.63003Y33.97849
G01 X60.58197Y33.89832
G01 X60.54Y33.84172
G01 X60.54Y30.16979
G01 X60.57197Y30.12668
G01 X60.62003Y30.04651
G01 X60.66Y29.96201
G01 X60.69149Y29.874
G01 X60.7142Y29.78332
G01 X60.72791Y29.69086
G01 X60.7325Y29.5025
G01 X60.72791Y29.40914
G01 X60.7142Y29.31668
G01 X60.69149Y29.226
G01 X60.66Y29.13799
G01 X60.62003Y29.05349
G01 X60.57197Y28.97332
G01 X60.53Y28.91672
G01 X60.53Y17.48
G01 X60.52639Y17.40649
G01 X60.51559Y17.33368
G01 X60.49771Y17.26229
G01 X60.47291Y17.19299
G01 X60.44144Y17.12645
G01 X60.4036Y17.06332
G01 X60.35976Y17.00421
G01 X60.31033Y16.94967
G01 X55.05533Y11.69467
G01 X55.00079Y11.64524
G01 X54.94168Y11.6014
G01 X54.87855Y11.56356
G01 X54.81201Y11.53209
G01 X54.74271Y11.50729
G01 X54.67132Y11.48941
G01 X54.59851Y11.47861
G01 X54.525Y11.475
G01 X52.13566Y11.475
G01 X53.91066Y9.7
G01 X54.45Y9.7
G01 X54.45Y8.1
G01 X52.85Y8.1
G01 X52.85Y8.63934
G01 X50.01434Y11.475
G01 X42.04566Y11.475
G01 X39.13527Y8.56461
G01 X39.11554Y8.52288
G01 X39.07518Y8.45554
G01 X39.02841Y8.39249
G01 X38.97569Y8.33431
G01 X38.91751Y8.28159
G01 X38.85446Y8.23482
G01 X38.78712Y8.19446
G01 X38.74539Y8.17473
G01 X36.04033Y5.46967
G01 X36.03371Y5.46367
G01 X35.98579Y5.42024
G01 X35.9352Y5.38272
G01 X35.92668Y5.3764
G01 X35.86355Y5.33856
G01 X35.79701Y5.30709
G01 X35.7728Y5.29843
G01 X35.72771Y5.28229
G01 X35.65632Y5.26441
G01 X35.58351Y5.25361
G01 X35.51Y5.25
G01 X34.275Y5.25
G01 X34.20149Y5.25361
G01 X34.12868Y5.26441
G01 X34.05729Y5.28229
G01 X33.98799Y5.30709
G01 X33.92145Y5.33856
G01 X33.85832Y5.3764
G01 X33.79921Y5.42024
G01 X33.74467Y5.46967
G01 X31.41467Y7.79967
G01 X31.36524Y7.85421
G01 X31.3214Y7.91332
G01 X31.28356Y7.97645
G01 X31.25209Y8.04299
G01 X31.24064Y8.075
G01 X31.145Y8.075
G01 X31.145Y8.61434
G01 X28.48434Y11.275
G01 X20.16566Y11.275
G01 X17.43027Y8.53961
G01 X17.41054Y8.49788
G01 X17.37018Y8.43054
G01 X17.32341Y8.36749
G01 X17.27069Y8.30931
G01 X17.21251Y8.25659
G01 X17.14946Y8.20982
G01 X17.08212Y8.16946
G01 X17.01115Y8.1359
G01 X16.93723Y8.10945
G01 X16.86107Y8.09037
G01 X16.78341Y8.07885
G01 X16.705Y8.075
G01 X16.62659Y8.07885
G01 X16.54893Y8.09037
G01 X16.47277Y8.10945
G01 X16.39885Y8.1359
G01 X16.32788Y8.16946
G01 X16.26054Y8.20982
G01 X16.19749Y8.25659
G01 X16.13931Y8.30931
G01 X16.08659Y8.36749
G01 X16.03982Y8.43054
G01 X15.99946Y8.49788
G01 X15.9659Y8.56885
G01 X15.93945Y8.64277
G01 X15.92037Y8.71893
G01 X15.90885Y8.79659
G01 X15.905Y8.875
G01 X15.90885Y8.95341
G01 X15.92037Y9.03107
G01 X15.93945Y9.10723
G01 X15.9659Y9.18115
G01 X15.99946Y9.25212
G01 X16.03982Y9.31946
G01 X16.08659Y9.38251
G01 X16.13931Y9.44069
G01 X16.19749Y9.49341
G01 X16.26054Y9.54018
G01 X16.32788Y9.58054
G01 X16.36961Y9.60027
G01 X19.32467Y12.55533
G01 X19.37921Y12.60476
G01 X19.43832Y12.6486
G01 X19.50145Y12.68644
G01 X19.56799Y12.71791
G01 X19.63729Y12.74271
G01 X19.70868Y12.76059
G01 X19.78149Y12.77139
G01 X19.855Y12.775
G01 X28.795Y12.775
G01 X28.86851Y12.77139
G01 X28.94132Y12.76059
G01 X29.01271Y12.74271
G01 X29.08201Y12.71791
G01 X29.14855Y12.68644
G01 X29.21168Y12.6486
G01 X29.27079Y12.60476
G01 X29.32533Y12.55533
G01 X32.20566Y9.675
G01 X32.745Y9.675
G01 X32.745Y8.59066
G01 X34.58566Y6.75
G01 X35.19934Y6.75
G01 X37.68473Y9.23539
G01 X37.70446Y9.27712
G01 X37.74482Y9.34446
G01 X37.79159Y9.40751
G01 X37.84431Y9.46569
G01 X37.90249Y9.51841
G01 X37.96554Y9.56518
G01 X38.03288Y9.60554
G01 X38.07461Y9.62527
G01 X41.20467Y12.75533
G01 X41.21646Y12.76601
G01 X41.25921Y12.80476
G01 X41.30344Y12.83756
G01 X41.31832Y12.8486
G01 X41.38145Y12.88644
G01 X41.44799Y12.91791
G01 X41.51729Y12.94271
G01 X41.58868Y12.96059
G01 X41.66149Y12.97139
G01 X41.735Y12.975
G01 X50.325Y12.975
G01 X54.21434Y12.975
G01 X59.03Y17.79066
G01 X59.03Y28.91672
G01 X58.98803Y28.97332
G01 X58.93997Y29.05349
G01 X58.9Y29.13799
G01 X58.86851Y29.226
G01 X58.8458Y29.31668
G01 X58.83209Y29.40914
G01 X58.8275Y29.5975
G01 X58.83209Y29.69086
G01 X58.8458Y29.78332
G01 X58.86851Y29.874
G01 X58.9Y29.96201
G01 X58.93997Y30.04651
G01 X58.98803Y30.12668
G01 X59.04Y30.19676
G01 X59.04Y33.84172
G01 X58.99803Y33.89832
G01 X58.94997Y33.97849
G01 X58.91Y34.06299
G01 X58.87851Y34.151
G01 X58.8558Y34.24168
G01 X58.84209Y34.33414
G01 X58.8375Y34.5225
G01 X58.8375Y34.5225
M5
G01 X50.60249Y9.51841
M3
G01 X50.66554Y9.56518
G01 X50.73288Y9.60554
G01 X50.80385Y9.6391
G01 X50.87777Y9.66555
G01 X50.95393Y9.68463
G01 X51.03159Y9.69615
G01 X51.11Y9.7
G01 X51.18841Y9.69615
G01 X51.26607Y9.68463
G01 X51.34223Y9.66555
G01 X51.41615Y9.6391
G01 X51.48712Y9.60554
G01 X51.55446Y9.56518
G01 X51.61751Y9.51841
G01 X51.67569Y9.46569
G01 X51.72841Y9.40751
G01 X51.77518Y9.34446
G01 X51.81554Y9.27712
G01 X51.8491Y9.20615
G01 X51.87555Y9.13223
G01 X51.89463Y9.05607
G01 X51.90615Y8.97841
G01 X51.91Y8.9
G01 X51.90615Y8.82159
G01 X51.89463Y8.74393
G01 X51.87555Y8.66777
G01 X51.8491Y8.59385
G01 X51.81554Y8.52288
G01 X51.77518Y8.45554
G01 X51.72841Y8.39249
G01 X51.67569Y8.33431
G01 X51.61751Y8.28159
G01 X51.55446Y8.23482
G01 X51.48712Y8.19446
G01 X51.41615Y8.1609
G01 X51.34223Y8.13445
G01 X51.26607Y8.11537
G01 X51.18841Y8.10385
G01 X51.11Y8.1
G01 X51.03159Y8.10385
G01 X50.95393Y8.11537
G01 X50.87777Y8.13445
G01 X50.80385Y8.1609
G01 X50.73288Y8.19446
G01 X50.66554Y8.23482
G01 X50.60249Y8.28159
G01 X50.54431Y8.33431
G01 X50.49159Y8.39249
G01 X50.44482Y8.45554
G01 X50.40446Y8.52288
G01 X50.3709Y8.59385
G01 X50.34445Y8.66777
G01 X50.32537Y8.74393
G01 X50.31385Y8.82159
G01 X50.31Y8.9
G01 X50.31385Y8.97841
G01 X50.32537Y9.05607
G01 X50.34445Y9.13223
G01 X50.3709Y9.20615
G01 X50.40446Y9.27712
G01 X50.44482Y9.34446
G01 X50.49159Y9.40751
G01 X50.54431Y9.46569
G01 X50.60249Y9.51841
G01 X50.60249Y9.51841
M5
G01 X47.78537Y8.74393
M3
G01 X47.77385Y8.82159
G01 X47.77Y8.9
G01 X47.77385Y8.97841
G01 X47.78537Y9.05607
G01 X47.80445Y9.13223
G01 X47.8309Y9.20615
G01 X47.86446Y9.27712
G01 X47.90482Y9.34446
G01 X47.95159Y9.40751
G01 X48.00431Y9.46569
G01 X48.06249Y9.51841
G01 X48.12554Y9.56518
G01 X48.19288Y9.60554
G01 X48.26385Y9.6391
G01 X48.33777Y9.66555
G01 X48.41393Y9.68463
G01 X48.49159Y9.69615
G01 X48.57Y9.7
G01 X48.64841Y9.69615
G01 X48.72607Y9.68463
G01 X48.80223Y9.66555
G01 X48.87615Y9.6391
G01 X48.94712Y9.60554
G01 X49.01446Y9.56518
G01 X49.07751Y9.51841
G01 X49.13569Y9.46569
G01 X49.18841Y9.40751
G01 X49.23518Y9.34446
G01 X49.27554Y9.27712
G01 X49.3091Y9.20615
G01 X49.33555Y9.13223
G01 X49.35463Y9.05607
G01 X49.36615Y8.97841
G01 X49.37Y8.9
G01 X49.36615Y8.82159
G01 X49.35463Y8.74393
G01 X49.33555Y8.66777
G01 X49.32Y8.62431
G01 X49.32Y6.21408
G01 X49.33551Y6.20992
G01 X49.375Y6.19151
G01 X49.4107Y6.16651
G01 X49.44151Y6.1357
G01 X49.46651Y6.1
G01 X49.48492Y6.06051
G01 X49.4962Y6.01841
G01 X49.5Y5.975
G01 X49.5Y4.525
G01 X49.4962Y4.48159
G01 X49.48492Y4.43949
G01 X49.46651Y4.4
G01 X49.44151Y4.3643
G01 X49.4107Y4.33349
G01 X49.375Y4.30849
G01 X49.33551Y4.29008
G01 X49.29341Y4.2788
G01 X49.25Y4.275
G01 X48.05Y4.275
G01 X48.00659Y4.2788
G01 X47.96449Y4.29008
G01 X47.925Y4.30849
G01 X47.8893Y4.33349
G01 X47.85849Y4.3643
G01 X47.83349Y4.4
G01 X47.81508Y4.43949
G01 X47.8038Y4.48159
G01 X47.8Y4.525
G01 X47.8Y5.975
G01 X47.8038Y6.01841
G01 X47.81508Y6.06051
G01 X47.82Y6.07106
G01 X47.82Y8.62431
G01 X47.80445Y8.66777
G01 X47.78537Y8.74393
G01 X47.78537Y8.74393
M5
G01 X45.54896Y4.52396
M3
G01 X45.49294Y4.58577
G01 X45.44325Y4.65277
G01 X45.40037Y4.72431
G01 X45.3647Y4.79972
G01 X45.3366Y4.87826
G01 X45.31633Y4.95917
G01 X45.30409Y5.04169
G01 X45.3Y5.375
G01 X45.30409Y5.45831
G01 X45.31633Y5.54083
G01 X45.3366Y5.62174
G01 X45.3647Y5.70028
G01 X45.4Y5.77491
G01 X45.4Y8.40811
G01 X45.36482Y8.45554
G01 X45.32446Y8.52288
G01 X45.2909Y8.59385
G01 X45.26445Y8.66777
G01 X45.24537Y8.74393
G01 X45.23385Y8.82159
G01 X45.23Y8.9
G01 X45.23385Y8.97841
G01 X45.24537Y9.05607
G01 X45.26445Y9.13223
G01 X45.2909Y9.20615
G01 X45.32446Y9.27712
G01 X45.36482Y9.34446
G01 X45.41159Y9.40751
G01 X45.46431Y9.46569
G01 X45.52249Y9.51841
G01 X45.58554Y9.56518
G01 X45.65288Y9.60554
G01 X45.72385Y9.6391
G01 X45.79777Y9.66555
G01 X45.87393Y9.68463
G01 X45.95159Y9.69615
G01 X46.03Y9.7
G01 X46.10841Y9.69615
G01 X46.18607Y9.68463
G01 X46.26223Y9.66555
G01 X46.33615Y9.6391
G01 X46.40712Y9.60554
G01 X46.47446Y9.56518
G01 X46.53751Y9.51841
G01 X46.59569Y9.46569
G01 X46.64841Y9.40751
G01 X46.69518Y9.34446
G01 X46.73554Y9.27712
G01 X46.7691Y9.20615
G01 X46.77146Y9.19957
G01 X46.7736Y9.19668
G01 X46.7736Y9.19668
G01 X46.7736Y9.19668
G01 X46.81144Y9.13355
G01 X46.84291Y9.06701
G01 X46.86771Y8.99771
G01 X46.87887Y8.95314
G01 X46.88559Y8.92632
G01 X46.89639Y8.85351
G01 X46.9Y8.78
G01 X46.9Y8.78
G01 X46.9Y8.78
G01 X46.9Y5.77491
G01 X46.9353Y5.70028
G01 X46.9634Y5.62174
G01 X46.98367Y5.54083
G01 X46.99591Y5.45831
G01 X47.0Y5.125
G01 X46.99591Y5.04169
G01 X46.98367Y4.95917
G01 X46.9634Y4.87826
G01 X46.9353Y4.79972
G01 X46.89963Y4.72431
G01 X46.85675Y4.65277
G01 X46.80706Y4.58577
G01 X46.75104Y4.52396
G01 X46.68923Y4.46794
G01 X46.62223Y4.41825
G01 X46.55069Y4.37537
G01 X46.47528Y4.3397
G01 X46.39674Y4.3116
G01 X46.31583Y4.29133
G01 X46.23331Y4.27909
G01 X46.15Y4.275
G01 X46.06669Y4.27909
G01 X45.98417Y4.29133
G01 X45.90326Y4.3116
G01 X45.82472Y4.3397
G01 X45.74931Y4.37537
G01 X45.67777Y4.41825
G01 X45.61077Y4.46794
G01 X45.54896Y4.52396
G01 X45.54896Y4.52396
M5
G01 X43.11077Y4.46794
M3
G01 X43.04896Y4.52396
G01 X42.99294Y4.58577
G01 X42.94325Y4.65277
G01 X42.90037Y4.72431
G01 X42.8647Y4.79972
G01 X42.8366Y4.87826
G01 X42.81633Y4.95917
G01 X42.80409Y5.04169
G01 X42.8Y5.375
G01 X42.80409Y5.45831
G01 X42.81633Y5.54083
G01 X42.8366Y5.62174
G01 X42.8647Y5.70028
G01 X42.9Y5.77491
G01 X42.9Y8.36114
G01 X42.87159Y8.39249
G01 X42.82482Y8.45554
G01 X42.78446Y8.52288
G01 X42.7509Y8.59385
G01 X42.72445Y8.66777
G01 X42.70537Y8.74393
G01 X42.69385Y8.82159
G01 X42.69Y8.9
G01 X42.69385Y8.97841
G01 X42.70537Y9.05607
G01 X42.72445Y9.13223
G01 X42.7509Y9.20615
G01 X42.78446Y9.27712
G01 X42.82482Y9.34446
G01 X42.87159Y9.40751
G01 X42.92431Y9.46569
G01 X42.98249Y9.51841
G01 X43.04554Y9.56518
G01 X43.11288Y9.60554
G01 X43.18385Y9.6391
G01 X43.25777Y9.66555
G01 X43.33393Y9.68463
G01 X43.41159Y9.69615
G01 X43.49Y9.7
G01 X43.56841Y9.69615
G01 X43.64607Y9.68463
G01 X43.72223Y9.66555
G01 X43.79615Y9.6391
G01 X43.86712Y9.60554
G01 X43.93446Y9.56518
G01 X43.99751Y9.51841
G01 X44.05569Y9.46569
G01 X44.10841Y9.40751
G01 X44.15518Y9.34446
G01 X44.19554Y9.27712
G01 X44.21885Y9.22783
G01 X44.22976Y9.21579
G01 X44.26228Y9.17195
G01 X44.2736Y9.15668
G01 X44.31144Y9.09355
G01 X44.32803Y9.05848
G01 X44.34291Y9.02701
G01 X44.36771Y8.95771
G01 X44.38559Y8.88632
G01 X44.38719Y8.87552
G01 X44.39639Y8.81351
G01 X44.39978Y8.74446
G01 X44.4Y8.74
G01 X44.4Y8.74
G01 X44.4Y5.77491
G01 X44.4353Y5.70028
G01 X44.4634Y5.62174
G01 X44.48367Y5.54083
G01 X44.49591Y5.45831
G01 X44.5Y5.125
G01 X44.49591Y5.04169
G01 X44.48367Y4.95917
G01 X44.4634Y4.87826
G01 X44.4353Y4.79972
G01 X44.39963Y4.72431
G01 X44.35675Y4.65277
G01 X44.30706Y4.58577
G01 X44.25104Y4.52396
G01 X44.18923Y4.46794
G01 X44.12223Y4.41825
G01 X44.05069Y4.37537
G01 X43.97528Y4.3397
G01 X43.89674Y4.3116
G01 X43.81583Y4.29133
G01 X43.73331Y4.27909
G01 X43.65Y4.275
G01 X43.56669Y4.27909
G01 X43.48417Y4.29133
G01 X43.40326Y4.3116
G01 X43.32472Y4.3397
G01 X43.24931Y4.37537
G01 X43.17777Y4.41825
G01 X43.11077Y4.46794
G01 X43.11077Y4.46794
M5
G01 X40.82472Y4.3397
M3
G01 X40.74931Y4.37537
G01 X40.67777Y4.41825
G01 X40.61077Y4.46794
G01 X40.54896Y4.52396
G01 X40.49294Y4.58577
G01 X40.44325Y4.65277
G01 X40.40037Y4.72431
G01 X40.3647Y4.79972
G01 X40.3366Y4.87826
G01 X40.31633Y4.95917
G01 X40.30409Y5.04169
G01 X40.3Y5.375
G01 X40.30409Y5.45831
G01 X40.31633Y5.54083
G01 X40.3366Y5.62174
G01 X40.3647Y5.70028
G01 X40.4Y5.77491
G01 X40.4Y8.3201
G01 X40.38431Y8.33431
G01 X40.33159Y8.39249
G01 X40.28482Y8.45554
G01 X40.24446Y8.52288
G01 X40.2109Y8.59385
G01 X40.18445Y8.66777
G01 X40.16537Y8.74393
G01 X40.15385Y8.82159
G01 X40.15Y8.9
G01 X40.15385Y8.97841
G01 X40.16537Y9.05607
G01 X40.18445Y9.13223
G01 X40.2109Y9.20615
G01 X40.24446Y9.27712
G01 X40.28482Y9.34446
G01 X40.33159Y9.40751
G01 X40.38431Y9.46569
G01 X40.44249Y9.51841
G01 X40.50554Y9.56518
G01 X40.57288Y9.60554
G01 X40.64385Y9.6391
G01 X40.71777Y9.66555
G01 X40.79393Y9.68463
G01 X40.87159Y9.69615
G01 X40.95Y9.7
G01 X41.02841Y9.69615
G01 X41.10607Y9.68463
G01 X41.18223Y9.66555
G01 X41.25615Y9.6391
G01 X41.32712Y9.60554
G01 X41.39446Y9.56518
G01 X41.45751Y9.51841
G01 X41.51569Y9.46569
G01 X41.56841Y9.40751
G01 X41.61518Y9.34446
G01 X41.65554Y9.27712
G01 X41.67527Y9.23539
G01 X41.68033Y9.23033
G01 X41.69482Y9.21435
G01 X41.72976Y9.17579
G01 X41.75732Y9.13863
G01 X41.7736Y9.11668
G01 X41.81144Y9.05355
G01 X41.84291Y8.98701
G01 X41.84735Y8.97461
G01 X41.86771Y8.91771
G01 X41.88335Y8.85527
G01 X41.88559Y8.84632
G01 X41.89639Y8.77351
G01 X41.9Y8.7
G01 X41.9Y8.7
G01 X41.9Y8.7
G01 X41.9Y5.77491
G01 X41.9353Y5.70028
G01 X41.9634Y5.62174
G01 X41.98367Y5.54083
G01 X41.99591Y5.45831
G01 X42.0Y5.125
G01 X41.99591Y5.04169
G01 X41.98367Y4.95917
G01 X41.9634Y4.87826
G01 X41.9353Y4.79972
G01 X41.89963Y4.72431
G01 X41.85675Y4.65277
G01 X41.80706Y4.58577
G01 X41.75104Y4.52396
G01 X41.68923Y4.46794
G01 X41.62223Y4.41825
G01 X41.55069Y4.37537
G01 X41.47528Y4.3397
G01 X41.39674Y4.3116
G01 X41.31583Y4.29133
G01 X41.23331Y4.27909
G01 X41.15Y4.275
G01 X41.06669Y4.27909
G01 X40.98417Y4.29133
G01 X40.90326Y4.3116
G01 X40.82472Y4.3397
G01 X40.82472Y4.3397
M5
G01 X57.90144Y19.91145
M3
G01 X57.8636Y19.84832
G01 X57.81976Y19.78921
G01 X57.77033Y19.73467
G01 X52.93033Y14.89467
G01 X52.87579Y14.84524
G01 X52.81668Y14.8014
G01 X52.75355Y14.76356
G01 X52.68701Y14.73209
G01 X52.61771Y14.70729
G01 X52.54632Y14.68941
G01 X52.47351Y14.67861
G01 X52.4Y14.675
G01 X42.70566Y14.675
G01 X36.59527Y8.56461
G01 X36.57554Y8.52288
G01 X36.53518Y8.45554
G01 X36.48841Y8.39249
G01 X36.43569Y8.33431
G01 X36.37751Y8.28159
G01 X36.31446Y8.23482
G01 X36.24712Y8.19446
G01 X36.17615Y8.1609
G01 X36.10223Y8.13445
G01 X36.02607Y8.11537
G01 X35.94841Y8.10385
G01 X35.87Y8.1
G01 X35.79159Y8.10385
G01 X35.71393Y8.11537
G01 X35.63777Y8.13445
G01 X35.56385Y8.1609
G01 X35.49288Y8.19446
G01 X35.42554Y8.23482
G01 X35.36249Y8.28159
G01 X35.30431Y8.33431
G01 X35.25159Y8.39249
G01 X35.20482Y8.45554
G01 X35.16446Y8.52288
G01 X35.1309Y8.59385
G01 X35.10445Y8.66777
G01 X35.08537Y8.74393
G01 X35.07385Y8.82159
G01 X35.07Y8.9
G01 X35.07385Y8.97841
G01 X35.08537Y9.05607
G01 X35.10445Y9.13223
G01 X35.1309Y9.20615
G01 X35.16446Y9.27712
G01 X35.20482Y9.34446
G01 X35.25159Y9.40751
G01 X35.30431Y9.46569
G01 X35.36249Y9.51841
G01 X35.42554Y9.56518
G01 X35.49288Y9.60554
G01 X35.53461Y9.62527
G01 X40.58434Y14.675
G01 X21.02566Y14.675
G01 X14.89027Y8.53961
G01 X14.87054Y8.49788
G01 X14.83018Y8.43054
G01 X14.78341Y8.36749
G01 X14.73069Y8.30931
G01 X14.67251Y8.25659
G01 X14.60946Y8.20982
G01 X14.54212Y8.16946
G01 X14.47115Y8.1359
G01 X14.39723Y8.10945
G01 X14.32107Y8.09037
G01 X14.24341Y8.07885
G01 X14.165Y8.075
G01 X14.08659Y8.07885
G01 X14.00893Y8.09037
G01 X13.93277Y8.10945
G01 X13.85885Y8.1359
G01 X13.78788Y8.16946
G01 X13.72054Y8.20982
G01 X13.65749Y8.25659
G01 X13.59931Y8.30931
G01 X13.54659Y8.36749
G01 X13.49982Y8.43054
G01 X13.45946Y8.49788
G01 X13.4259Y8.56885
G01 X13.39945Y8.64277
G01 X13.38037Y8.71893
G01 X13.36885Y8.79659
G01 X13.365Y8.875
G01 X13.36885Y8.95341
G01 X13.38037Y9.03107
G01 X13.39945Y9.10723
G01 X13.4259Y9.18115
G01 X13.45946Y9.25212
G01 X13.49982Y9.31946
G01 X13.54659Y9.38251
G01 X13.59931Y9.44069
G01 X13.65749Y9.49341
G01 X13.72054Y9.54018
G01 X13.78788Y9.58054
G01 X13.82961Y9.60027
G01 X20.18467Y15.95533
G01 X20.23921Y16.00476
G01 X20.29832Y16.0486
G01 X20.36145Y16.08644
G01 X20.42799Y16.11791
G01 X20.49729Y16.14271
G01 X20.56868Y16.16059
G01 X20.64149Y16.17139
G01 X20.715Y16.175
G01 X42.395Y16.175
G01 X52.08934Y16.175
G01 X56.49Y20.57566
G01 X56.49Y28.55
G01 X56.2875Y28.55
G01 X56.2875Y30.55
G01 X56.49Y30.55
G01 X56.49Y33.475
G01 X56.2975Y33.475
G01 X56.2975Y35.475
G01 X56.5Y35.475
G01 X56.5Y41.825
G01 X56.50361Y41.89851
G01 X56.51441Y41.97132
G01 X56.525Y42.01359
G01 X56.525Y42.7
G01 X56.575Y42.7
G01 X56.575Y45.83056
G01 X56.53949Y45.84008
G01 X56.5Y45.85849
G01 X56.4643Y45.88349
G01 X56.43349Y45.9143
G01 X56.40849Y45.95
G01 X56.39008Y45.98949
G01 X56.3788Y46.03159
G01 X56.375Y46.075
G01 X56.375Y47.575
G01 X56.3788Y47.61841
G01 X56.39008Y47.66051
G01 X56.40849Y47.7
G01 X56.43349Y47.7357
G01 X56.4643Y47.76651
G01 X56.5Y47.79151
G01 X56.53949Y47.80992
G01 X56.58159Y47.8212
G01 X56.625Y47.825
G01 X57.825Y47.825
G01 X57.86841Y47.8212
G01 X57.91051Y47.80992
G01 X57.95Y47.79151
G01 X57.9857Y47.76651
G01 X58.01651Y47.7357
G01 X58.04151Y47.7
G01 X58.05992Y47.66051
G01 X58.0712Y47.61841
G01 X58.075Y47.575
G01 X58.075Y46.725
G01 X58.075Y46.725
G01 X58.075Y46.075
G01 X58.075Y42.7
G01 X58.125Y42.7
G01 X58.125Y41.1
G01 X58.0Y41.1
G01 X58.0Y35.475
G01 X58.2025Y35.475
G01 X58.2025Y33.475
G01 X57.99Y33.475
G01 X57.99Y30.55
G01 X58.1925Y30.55
G01 X58.1925Y28.55
G01 X57.99Y28.55
G01 X57.99Y20.265
G01 X57.98639Y20.19149
G01 X57.97559Y20.11868
G01 X57.95771Y20.04729
G01 X57.93291Y19.97799
G01 X57.90144Y19.91145
G01 X57.90144Y19.91145
M5
G01 X14.17841Y25.77115
M3
G01 X14.25607Y25.75963
G01 X14.30635Y25.74703
G01 X16.81216Y28.25284
G01 X16.84124Y28.2792
G01 X16.87277Y28.30259
G01 X16.90644Y28.32277
G01 X16.94193Y28.33955
G01 X16.97889Y28.35278
G01 X17.01696Y28.36231
G01 X17.05579Y28.36807
G01 X17.095Y28.37
G01 X20.73551Y28.37
G01 X20.74194Y28.37583
G01 X20.78333Y28.40652
G01 X20.82752Y28.43301
G01 X20.87409Y28.45504
G01 X20.9226Y28.47239
G01 X20.97258Y28.48491
G01 X21.02354Y28.49247
G01 X21.525Y28.495
G01 X21.57646Y28.49247
G01 X21.62742Y28.48491
G01 X21.6774Y28.47239
G01 X21.72591Y28.45504
G01 X21.77248Y28.43301
G01 X21.81667Y28.40652
G01 X21.85806Y28.37583
G01 X21.89623Y28.34123
G01 X21.93083Y28.30306
G01 X21.96152Y28.26167
G01 X21.98801Y28.21748
G01 X22.01004Y28.17091
G01 X22.02739Y28.1224
G01 X22.03991Y28.07242
G01 X22.04747Y28.02146
G01 X22.05Y27.97
G01 X22.04747Y27.91854
G01 X22.03991Y27.86758
G01 X22.02739Y27.8176
G01 X22.01004Y27.76909
G01 X21.98801Y27.72252
G01 X21.96152Y27.67833
G01 X21.93083Y27.63694
G01 X21.89623Y27.59877
G01 X21.85806Y27.56417
G01 X21.81667Y27.53348
G01 X21.77248Y27.50699
G01 X21.72591Y27.48496
G01 X21.6774Y27.46761
G01 X21.62742Y27.45509
G01 X21.57646Y27.44753
G01 X21.075Y27.445
G01 X21.02354Y27.44753
G01 X20.97258Y27.45509
G01 X20.9226Y27.46761
G01 X20.87409Y27.48496
G01 X20.82752Y27.50699
G01 X20.78333Y27.53348
G01 X20.74194Y27.56417
G01 X20.73551Y27.57
G01 X17.26069Y27.57
G01 X14.87203Y25.18135
G01 X14.88463Y25.13107
G01 X14.89615Y25.05341
G01 X14.9Y24.975
G01 X14.89615Y24.89659
G01 X14.88463Y24.81893
G01 X14.86555Y24.74277
G01 X14.8391Y24.66885
G01 X14.80554Y24.59788
G01 X14.76518Y24.53054
G01 X14.71841Y24.46749
G01 X14.66569Y24.40931
G01 X14.60751Y24.35659
G01 X14.565Y24.32506
G01 X14.565Y22.26682
G01 X14.60946Y22.24018
G01 X14.67251Y22.19341
G01 X14.73069Y22.14069
G01 X14.78341Y22.08251
G01 X14.83018Y22.01946
G01 X14.87054Y21.95212
G01 X14.9041Y21.88115
G01 X14.93055Y21.80723
G01 X14.94963Y21.73107
G01 X14.96115Y21.65341
G01 X14.965Y21.575
G01 X14.96115Y21.49659
G01 X14.94963Y21.41893
G01 X14.93703Y21.36865
G01 X16.93069Y19.375
G01 X33.07931Y19.375
G01 X35.09797Y21.39365
G01 X35.08537Y21.44393
G01 X35.07385Y21.52159
G01 X35.07Y21.6
G01 X35.07385Y21.67841
G01 X35.08537Y21.75607
G01 X35.10445Y21.83223
G01 X35.1309Y21.90615
G01 X35.16446Y21.97712
G01 X35.20482Y22.04446
G01 X35.25159Y22.10751
G01 X35.30431Y22.16569
G01 X35.36249Y22.21841
G01 X35.42554Y22.26518
G01 X35.49288Y22.30554
G01 X35.56385Y22.3391
G01 X35.63777Y22.36555
G01 X35.71393Y22.38463
G01 X35.79159Y22.39615
G01 X35.87Y22.4
G01 X35.94841Y22.39615
G01 X36.02607Y22.38463
G01 X36.10223Y22.36555
G01 X36.17615Y22.3391
G01 X36.24712Y22.30554
G01 X36.31446Y22.26518
G01 X36.37751Y22.21841
G01 X36.43569Y22.16569
G01 X36.48841Y22.10751
G01 X36.53518Y22.04446
G01 X36.57554Y21.97712
G01 X36.6091Y21.90615
G01 X36.63555Y21.83223
G01 X36.65463Y21.75607
G01 X36.66615Y21.67841
G01 X36.67Y21.6
G01 X36.66615Y21.52159
G01 X36.65463Y21.44393
G01 X36.63555Y21.36777
G01 X36.6091Y21.29385
G01 X36.57554Y21.22288
G01 X36.53518Y21.15554
G01 X36.48841Y21.09249
G01 X36.43569Y21.03431
G01 X36.37751Y20.98159
G01 X36.31446Y20.93482
G01 X36.24712Y20.89446
G01 X36.17615Y20.8609
G01 X36.10223Y20.83445
G01 X36.02607Y20.81537
G01 X35.94841Y20.80385
G01 X35.87Y20.8
G01 X35.79159Y20.80385
G01 X35.71393Y20.81537
G01 X35.66365Y20.82797
G01 X33.52784Y18.69216
G01 X33.49876Y18.6658
G01 X33.46723Y18.64241
G01 X33.43356Y18.62223
G01 X33.39807Y18.60545
G01 X33.36111Y18.59222
G01 X33.32304Y18.58269
G01 X33.28421Y18.57693
G01 X33.245Y18.575
G01 X16.765Y18.575
G01 X16.72579Y18.57693
G01 X16.68696Y18.58269
G01 X16.64889Y18.59222
G01 X16.61193Y18.60545
G01 X16.57644Y18.62223
G01 X16.54277Y18.64241
G01 X16.51124Y18.6658
G01 X16.48216Y18.69216
G01 X14.37135Y20.80297
G01 X14.32107Y20.79037
G01 X14.24341Y20.77885
G01 X14.165Y20.775
G01 X14.08659Y20.77885
G01 X14.00893Y20.79037
G01 X13.93277Y20.80945
G01 X13.85885Y20.8359
G01 X13.78788Y20.86946
G01 X13.72054Y20.90982
G01 X13.65749Y20.95659
G01 X13.59931Y21.00931
G01 X13.54659Y21.06749
G01 X13.49982Y21.13054
G01 X13.45946Y21.19788
G01 X13.4259Y21.26885
G01 X13.39945Y21.34277
G01 X13.38037Y21.41893
G01 X13.36885Y21.49659
G01 X13.365Y21.575
G01 X13.36885Y21.65341
G01 X13.38037Y21.73107
G01 X13.39945Y21.80723
G01 X13.4259Y21.88115
G01 X13.45946Y21.95212
G01 X13.49982Y22.01946
G01 X13.54659Y22.08251
G01 X13.59931Y22.14069
G01 X13.65749Y22.19341
G01 X13.72054Y22.24018
G01 X13.765Y22.26682
G01 X13.765Y24.24954
G01 X13.72288Y24.26946
G01 X13.65554Y24.30982
G01 X13.59249Y24.35659
G01 X13.53431Y24.40931
G01 X13.48159Y24.46749
G01 X13.43482Y24.53054
G01 X13.39446Y24.59788
G01 X13.3609Y24.66885
G01 X13.33445Y24.74277
G01 X13.31537Y24.81893
G01 X13.30385Y24.89659
G01 X13.3Y24.975
G01 X13.30385Y25.05341
G01 X13.31537Y25.13107
G01 X13.33445Y25.20723
G01 X13.3609Y25.28115
G01 X13.39446Y25.35212
G01 X13.43482Y25.41946
G01 X13.48159Y25.48251
G01 X13.53431Y25.54069
G01 X13.59249Y25.59341
G01 X13.65554Y25.64018
G01 X13.72288Y25.68054
G01 X13.79385Y25.7141
G01 X13.86777Y25.74055
G01 X13.94393Y25.75963
G01 X14.02159Y25.77115
G01 X14.1Y25.775
G01 X14.17841Y25.77115
G01 X14.17841Y25.77115
M5
G01 X37.61385Y21.67841
M3
G01 X37.62537Y21.75607
G01 X37.64445Y21.83223
G01 X37.6709Y21.90615
G01 X37.70446Y21.97712
G01 X37.74482Y22.04446
G01 X37.79159Y22.10751
G01 X37.84431Y22.16569
G01 X37.90249Y22.21841
G01 X37.96554Y22.26518
G01 X38.03288Y22.30554
G01 X38.10385Y22.3391
G01 X38.17777Y22.36555
G01 X38.25393Y22.38463
G01 X38.33159Y22.39615
G01 X38.41Y22.4
G01 X38.48841Y22.39615
G01 X38.56607Y22.38463
G01 X38.64223Y22.36555
G01 X38.71615Y22.3391
G01 X38.78712Y22.30554
G01 X38.85446Y22.26518
G01 X38.91751Y22.21841
G01 X38.97569Y22.16569
G01 X39.02841Y22.10751
G01 X39.07518Y22.04446
G01 X39.11554Y21.97712
G01 X39.1491Y21.90615
G01 X39.17555Y21.83223
G01 X39.19463Y21.75607
G01 X39.20615Y21.67841
G01 X39.21Y21.6
G01 X39.20615Y21.52159
G01 X39.19463Y21.44393
G01 X39.17555Y21.36777
G01 X39.1491Y21.29385
G01 X39.11554Y21.22288
G01 X39.07518Y21.15554
G01 X39.02841Y21.09249
G01 X38.97569Y21.03431
G01 X38.91751Y20.98159
G01 X38.85446Y20.93482
G01 X38.78712Y20.89446
G01 X38.71615Y20.8609
G01 X38.64223Y20.83445
G01 X38.56607Y20.81537
G01 X38.48841Y20.80385
G01 X38.41Y20.8
G01 X38.33159Y20.80385
G01 X38.25393Y20.81537
G01 X38.17777Y20.83445
G01 X38.10385Y20.8609
G01 X38.03288Y20.89446
G01 X37.96554Y20.93482
G01 X37.90249Y20.98159
G01 X37.84431Y21.03431
G01 X37.79159Y21.09249
G01 X37.74482Y21.15554
G01 X37.70446Y21.22288
G01 X37.6709Y21.29385
G01 X37.64445Y21.36777
G01 X37.62537Y21.44393
G01 X37.61385Y21.52159
G01 X37.61Y21.6
G01 X37.61385Y21.67841
G01 X37.61385Y21.67841
M5
G01 X40.15Y21.6
M3
G01 X40.15385Y21.67841
G01 X40.16537Y21.75607
G01 X40.18445Y21.83223
G01 X40.2109Y21.90615
G01 X40.24446Y21.97712
G01 X40.28482Y22.04446
G01 X40.33159Y22.10751
G01 X40.38431Y22.16569
G01 X40.44249Y22.21841
G01 X40.50554Y22.26518
G01 X40.57288Y22.30554
G01 X40.64385Y22.3391
G01 X40.71777Y22.36555
G01 X40.79393Y22.38463
G01 X40.87159Y22.39615
G01 X40.95Y22.4
G01 X41.02841Y22.39615
G01 X41.10607Y22.38463
G01 X41.18223Y22.36555
G01 X41.25615Y22.3391
G01 X41.32712Y22.30554
G01 X41.39446Y22.26518
G01 X41.45751Y22.21841
G01 X41.51569Y22.16569
G01 X41.56841Y22.10751
G01 X41.61518Y22.04446
G01 X41.65554Y21.97712
G01 X41.6891Y21.90615
G01 X41.71555Y21.83223
G01 X41.73463Y21.75607
G01 X41.74615Y21.67841
G01 X41.75Y21.6
G01 X41.74615Y21.52159
G01 X41.73463Y21.44393
G01 X41.71555Y21.36777
G01 X41.6891Y21.29385
G01 X41.65554Y21.22288
G01 X41.61518Y21.15554
G01 X41.56841Y21.09249
G01 X41.51569Y21.03431
G01 X41.45751Y20.98159
G01 X41.39446Y20.93482
G01 X41.32712Y20.89446
G01 X41.25615Y20.8609
G01 X41.18223Y20.83445
G01 X41.10607Y20.81537
G01 X41.02841Y20.80385
G01 X40.95Y20.8
G01 X40.87159Y20.80385
G01 X40.79393Y20.81537
G01 X40.71777Y20.83445
G01 X40.64385Y20.8609
G01 X40.57288Y20.89446
G01 X40.50554Y20.93482
G01 X40.44249Y20.98159
G01 X40.38431Y21.03431
G01 X40.33159Y21.09249
G01 X40.28482Y21.15554
G01 X40.24446Y21.22288
G01 X40.2109Y21.29385
G01 X40.18445Y21.36777
G01 X40.16537Y21.44393
G01 X40.15385Y21.52159
G01 X40.15Y21.6
G01 X40.15Y21.6
M5
G01 X42.69385Y21.52159
M3
G01 X42.69Y21.6
G01 X42.69385Y21.67841
G01 X42.70537Y21.75607
G01 X42.72445Y21.83223
G01 X42.7509Y21.90615
G01 X42.78446Y21.97712
G01 X42.82482Y22.04446
G01 X42.87159Y22.10751
G01 X42.92431Y22.16569
G01 X42.98249Y22.21841
G01 X43.04554Y22.26518
G01 X43.11288Y22.30554
G01 X43.18385Y22.3391
G01 X43.25777Y22.36555
G01 X43.33393Y22.38463
G01 X43.41159Y22.39615
G01 X43.49Y22.4
G01 X43.56841Y22.39615
G01 X43.64607Y22.38463
G01 X43.72223Y22.36555
G01 X43.79615Y22.3391
G01 X43.86712Y22.30554
G01 X43.93446Y22.26518
G01 X43.99751Y22.21841
G01 X44.05569Y22.16569
G01 X44.10841Y22.10751
G01 X44.15518Y22.04446
G01 X44.19554Y21.97712
G01 X44.2291Y21.90615
G01 X44.25555Y21.83223
G01 X44.27463Y21.75607
G01 X44.28615Y21.67841
G01 X44.29Y21.6
G01 X44.28615Y21.52159
G01 X44.27463Y21.44393
G01 X44.25555Y21.36777
G01 X44.2291Y21.29385
G01 X44.19554Y21.22288
G01 X44.15518Y21.15554
G01 X44.10841Y21.09249
G01 X44.05569Y21.03431
G01 X43.99751Y20.98159
G01 X43.93446Y20.93482
G01 X43.86712Y20.89446
G01 X43.79615Y20.8609
G01 X43.72223Y20.83445
G01 X43.64607Y20.81537
G01 X43.56841Y20.80385
G01 X43.49Y20.8
G01 X43.41159Y20.80385
G01 X43.33393Y20.81537
G01 X43.25777Y20.83445
G01 X43.18385Y20.8609
G01 X43.11288Y20.89446
G01 X43.04554Y20.93482
G01 X42.98249Y20.98159
G01 X42.92431Y21.03431
G01 X42.87159Y21.09249
G01 X42.82482Y21.15554
G01 X42.78446Y21.22288
G01 X42.7509Y21.29385
G01 X42.72445Y21.36777
G01 X42.70537Y21.44393
G01 X42.69385Y21.52159
G01 X42.69385Y21.52159
M5
G01 X28.73982Y22.01946
M3
G01 X28.78659Y22.08251
G01 X28.83931Y22.14069
G01 X28.89749Y22.19341
G01 X28.96054Y22.24018
G01 X29.02788Y22.28054
G01 X29.09885Y22.3141
G01 X29.17277Y22.34055
G01 X29.24893Y22.35963
G01 X29.32659Y22.37115
G01 X29.405Y22.375
G01 X29.48341Y22.37115
G01 X29.56107Y22.35963
G01 X29.63723Y22.34055
G01 X29.71115Y22.3141
G01 X29.78212Y22.28054
G01 X29.84946Y22.24018
G01 X29.91251Y22.19341
G01 X29.97069Y22.14069
G01 X30.02341Y22.08251
G01 X30.07018Y22.01946
G01 X30.11054Y21.95212
G01 X30.1441Y21.88115
G01 X30.17055Y21.80723
G01 X30.18963Y21.73107
G01 X30.20115Y21.65341
G01 X30.205Y21.575
G01 X30.20115Y21.49659
G01 X30.18963Y21.41893
G01 X30.17703Y21.36865
G01 X31.17069Y20.375
G01 X32.60431Y20.375
G01 X33.495Y21.26569
G01 X33.495Y21.59779
G01 X33.49693Y21.637
G01 X33.50269Y21.67583
G01 X33.51222Y21.7139
G01 X33.52545Y21.75086
G01 X33.54223Y21.78635
G01 X33.56241Y21.82002
G01 X33.5858Y21.85155
G01 X33.61216Y21.88063
G01 X35.01437Y23.28284
G01 X35.04345Y23.3092
G01 X35.07498Y23.33259
G01 X35.10865Y23.35277
G01 X35.14414Y23.36955
G01 X35.1811Y23.38278
G01 X35.21917Y23.39231
G01 X35.258Y23.39807
G01 X35.29721Y23.4
G01 X41.49131Y23.4
G01 X36.76631Y28.125
G01 X34.21Y28.125
G01 X34.17079Y28.12693
G01 X34.13196Y28.13269
G01 X34.09389Y28.14222
G01 X34.05693Y28.15545
G01 X34.02144Y28.17223
G01 X33.98777Y28.19241
G01 X33.95624Y28.2158
G01 X33.92716Y28.24216
G01 X27.83605Y34.33326
G01 X27.80446Y34.30982
G01 X27.73712Y34.26946
G01 X27.66615Y34.2359
G01 X27.59223Y34.20945
G01 X27.51607Y34.19037
G01 X27.43841Y34.17885
G01 X27.36Y34.175
G01 X27.28159Y34.17885
G01 X27.20393Y34.19037
G01 X27.12777Y34.20945
G01 X27.05385Y34.2359
G01 X26.98288Y34.26946
G01 X26.91554Y34.30982
G01 X26.85249Y34.35659
G01 X26.79431Y34.40931
G01 X26.74159Y34.46749
G01 X26.69482Y34.53054
G01 X26.65446Y34.59788
G01 X26.6209Y34.66885
G01 X26.59445Y34.74277
G01 X26.57537Y34.81893
G01 X26.56385Y34.89659
G01 X26.56Y35.775
G01 X26.56385Y35.85341
G01 X26.57537Y35.93107
G01 X26.59445Y36.00723
G01 X26.6209Y36.08115
G01 X26.65446Y36.15212
G01 X26.69482Y36.21946
G01 X26.74159Y36.28251
G01 X26.79431Y36.34069
G01 X26.85249Y36.39341
G01 X26.91554Y36.44018
G01 X26.98288Y36.48054
G01 X27.05385Y36.5141
G01 X27.12777Y36.54055
G01 X27.20393Y36.55963
G01 X27.28159Y36.57115
G01 X27.36Y36.575
G01 X27.43841Y36.57115
G01 X27.51607Y36.55963
G01 X27.59223Y36.54055
G01 X27.66615Y36.5141
G01 X27.73712Y36.48054
G01 X27.80446Y36.44018
G01 X27.86751Y36.39341
G01 X27.92569Y36.34069
G01 X27.97841Y36.28251
G01 X28.02518Y36.21946
G01 X28.06554Y36.15212
G01 X28.0991Y36.08115
G01 X28.12555Y36.00723
G01 X28.14463Y35.93107
G01 X28.15615Y35.85341
G01 X28.15927Y35.14142
G01 X34.37569Y28.925
G01 X36.932Y28.925
G01 X36.97121Y28.92307
G01 X37.01004Y28.91731
G01 X37.04811Y28.90778
G01 X37.08507Y28.89455
G01 X37.12056Y28.87777
G01 X37.15423Y28.85759
G01 X37.18576Y28.8342
G01 X37.21484Y28.80784
G01 X42.62269Y23.4
G01 X49.71Y23.4
G01 X49.74921Y23.39807
G01 X49.78804Y23.39231
G01 X49.82611Y23.38278
G01 X49.86307Y23.36955
G01 X49.89856Y23.35277
G01 X49.93223Y23.33259
G01 X49.96376Y23.3092
G01 X49.99284Y23.28284
G01 X50.90365Y22.37203
G01 X50.95393Y22.38463
G01 X51.03159Y22.39615
G01 X51.11Y22.4
G01 X51.18841Y22.39615
G01 X51.26607Y22.38463
G01 X51.34223Y22.36555
G01 X51.41615Y22.3391
G01 X51.48712Y22.30554
G01 X51.55446Y22.26518
G01 X51.61751Y22.21841
G01 X51.67569Y22.16569
G01 X51.72841Y22.10751
G01 X51.77518Y22.04446
G01 X51.81554Y21.97712
G01 X51.8491Y21.90615
G01 X51.87555Y21.83223
G01 X51.89463Y21.75607
G01 X51.90615Y21.67841
G01 X51.91Y21.6
G01 X51.90615Y21.52159
G01 X51.89463Y21.44393
G01 X51.87555Y21.36777
G01 X51.8491Y21.29385
G01 X51.81554Y21.22288
G01 X51.77518Y21.15554
G01 X51.72841Y21.09249
G01 X51.67569Y21.03431
G01 X51.61751Y20.98159
G01 X51.55446Y20.93482
G01 X51.48712Y20.89446
G01 X51.41615Y20.8609
G01 X51.34223Y20.83445
G01 X51.26607Y20.81537
G01 X51.18841Y20.80385
G01 X51.11Y20.8
G01 X51.03159Y20.80385
G01 X50.95393Y20.81537
G01 X50.87777Y20.83445
G01 X50.80385Y20.8609
G01 X50.73288Y20.89446
G01 X50.66554Y20.93482
G01 X50.60249Y20.98159
G01 X50.54431Y21.03431
G01 X50.49159Y21.09249
G01 X50.44482Y21.15554
G01 X50.40446Y21.22288
G01 X50.3709Y21.29385
G01 X50.34445Y21.36777
G01 X50.32537Y21.44393
G01 X50.31385Y21.52159
G01 X50.31Y21.6
G01 X50.31385Y21.67841
G01 X50.32537Y21.75607
G01 X50.33797Y21.80635
G01 X49.54431Y22.6
G01 X42.457Y22.6
G01 X35.4629Y22.6
G01 X34.295Y21.4321
G01 X34.295Y21.1
G01 X34.29307Y21.06079
G01 X34.28731Y21.02196
G01 X34.27778Y20.98389
G01 X34.26455Y20.94693
G01 X34.24777Y20.91144
G01 X34.22759Y20.87777
G01 X34.2042Y20.84624
G01 X34.17784Y20.81716
G01 X33.05284Y19.69216
G01 X33.02376Y19.6658
G01 X32.99223Y19.64241
G01 X32.95856Y19.62223
G01 X32.92307Y19.60545
G01 X32.88611Y19.59222
G01 X32.84804Y19.58269
G01 X32.80921Y19.57693
G01 X32.77Y19.575
G01 X31.005Y19.575
G01 X30.96579Y19.57693
G01 X30.92696Y19.58269
G01 X30.88889Y19.59222
G01 X30.85193Y19.60545
G01 X30.81644Y19.62223
G01 X30.78277Y19.64241
G01 X30.75124Y19.6658
G01 X30.72216Y19.69216
G01 X29.61135Y20.80297
G01 X29.56107Y20.79037
G01 X29.48341Y20.77885
G01 X29.405Y20.775
G01 X29.32659Y20.77885
G01 X29.24893Y20.79037
G01 X29.17277Y20.80945
G01 X29.09885Y20.8359
G01 X29.02788Y20.86946
G01 X28.96054Y20.90982
G01 X28.89749Y20.95659
G01 X28.83931Y21.00931
G01 X28.78659Y21.06749
G01 X28.73982Y21.13054
G01 X28.69946Y21.19788
G01 X28.6659Y21.26885
G01 X28.63945Y21.34277
G01 X28.62037Y21.41893
G01 X28.60885Y21.49659
G01 X28.605Y21.575
G01 X28.60885Y21.65341
G01 X28.62037Y21.73107
G01 X28.63945Y21.80723
G01 X28.6659Y21.88115
G01 X28.69946Y21.95212
G01 X28.73982Y22.01946
G01 X28.73982Y22.01946
M5
G01 X29.59385Y36.5141
M3
G01 X29.66777Y36.54055
G01 X29.74393Y36.55963
G01 X29.82159Y36.57115
G01 X29.9Y36.575
G01 X29.97841Y36.57115
G01 X30.05607Y36.55963
G01 X30.13223Y36.54055
G01 X30.20615Y36.5141
G01 X30.27712Y36.48054
G01 X30.34446Y36.44018
G01 X30.40751Y36.39341
G01 X30.46569Y36.34069
G01 X30.51841Y36.28251
G01 X30.56518Y36.21946
G01 X30.60554Y36.15212
G01 X30.6391Y36.08115
G01 X30.66555Y36.00723
G01 X30.68463Y35.93107
G01 X30.69615Y35.85341
G01 X30.69927Y35.14142
G01 X35.84069Y30.0
G01 X37.27121Y30.0
G01 X37.31042Y29.99807
G01 X37.34925Y29.99231
G01 X37.38732Y29.98278
G01 X37.42428Y29.96955
G01 X37.45977Y29.95277
G01 X37.49344Y29.93259
G01 X37.52497Y29.9092
G01 X37.55405Y29.88284
G01 X43.0369Y24.4
G01 X51.25Y24.4
G01 X51.28921Y24.39807
G01 X51.32804Y24.39231
G01 X51.36611Y24.38278
G01 X51.40307Y24.36955
G01 X51.43856Y24.35277
G01 X51.47223Y24.33259
G01 X51.50376Y24.3092
G01 X51.53284Y24.28284
G01 X53.44365Y22.37203
G01 X53.49393Y22.38463
G01 X53.57159Y22.39615
G01 X53.65Y22.4
G01 X53.72841Y22.39615
G01 X53.80607Y22.38463
G01 X53.88223Y22.36555
G01 X53.95615Y22.3391
G01 X54.02712Y22.30554
G01 X54.09446Y22.26518
G01 X54.15751Y22.21841
G01 X54.21569Y22.16569
G01 X54.26841Y22.10751
G01 X54.31518Y22.04446
G01 X54.35554Y21.97712
G01 X54.3891Y21.90615
G01 X54.41555Y21.83223
G01 X54.43463Y21.75607
G01 X54.44615Y21.67841
G01 X54.45Y21.6
G01 X54.44615Y21.52159
G01 X54.43463Y21.44393
G01 X54.41555Y21.36777
G01 X54.3891Y21.29385
G01 X54.35554Y21.22288
G01 X54.31518Y21.15554
G01 X54.26841Y21.09249
G01 X54.21569Y21.03431
G01 X54.15751Y20.98159
G01 X54.09446Y20.93482
G01 X54.02712Y20.89446
G01 X53.95615Y20.8609
G01 X53.88223Y20.83445
G01 X53.80607Y20.81537
G01 X53.72841Y20.80385
G01 X53.65Y20.8
G01 X53.57159Y20.80385
G01 X53.49393Y20.81537
G01 X53.41777Y20.83445
G01 X53.34385Y20.8609
G01 X53.27288Y20.89446
G01 X53.20554Y20.93482
G01 X53.14249Y20.98159
G01 X53.08431Y21.03431
G01 X53.03159Y21.09249
G01 X52.98482Y21.15554
G01 X52.94446Y21.22288
G01 X52.9109Y21.29385
G01 X52.88445Y21.36777
G01 X52.86537Y21.44393
G01 X52.85385Y21.52159
G01 X52.85Y21.6
G01 X52.85385Y21.67841
G01 X52.86537Y21.75607
G01 X52.87797Y21.80635
G01 X51.08431Y23.6
G01 X42.87121Y23.6
G01 X42.832Y23.60193
G01 X42.79317Y23.60769
G01 X42.7551Y23.61722
G01 X42.71814Y23.63045
G01 X42.68265Y23.64723
G01 X42.64898Y23.66741
G01 X42.61745Y23.6908
G01 X42.58837Y23.71716
G01 X37.10552Y29.2
G01 X35.675Y29.2
G01 X35.63579Y29.20193
G01 X35.59696Y29.20769
G01 X35.55889Y29.21722
G01 X35.52193Y29.23045
G01 X35.48644Y29.24723
G01 X35.45277Y29.26741
G01 X35.42124Y29.2908
G01 X35.39216Y29.31716
G01 X30.37605Y34.33326
G01 X30.34446Y34.30982
G01 X30.27712Y34.26946
G01 X30.20615Y34.2359
G01 X30.13223Y34.20945
G01 X30.05607Y34.19037
G01 X29.97841Y34.17885
G01 X29.9Y34.175
G01 X29.82159Y34.17885
G01 X29.74393Y34.19037
G01 X29.66777Y34.20945
G01 X29.59385Y34.2359
G01 X29.52288Y34.26946
G01 X29.45554Y34.30982
G01 X29.39249Y34.35659
G01 X29.33431Y34.40931
G01 X29.28159Y34.46749
G01 X29.23482Y34.53054
G01 X29.19446Y34.59788
G01 X29.1609Y34.66885
G01 X29.13445Y34.74277
G01 X29.11537Y34.81893
G01 X29.10385Y34.89659
G01 X29.1Y35.775
G01 X29.10385Y35.85341
G01 X29.11537Y35.93107
G01 X29.13445Y36.00723
G01 X29.1609Y36.08115
G01 X29.19446Y36.15212
G01 X29.23482Y36.21946
G01 X29.28159Y36.28251
G01 X29.33431Y36.34069
G01 X29.39249Y36.39341
G01 X29.45554Y36.44018
G01 X29.52288Y36.48054
G01 X29.59385Y36.5141
G01 X29.59385Y36.5141
M5
G01 X61.65648Y33.75398
M3
G01 X61.59371Y33.82324
G01 X61.53803Y33.89832
G01 X61.48997Y33.97849
G01 X61.45Y34.06299
G01 X61.41851Y34.151
G01 X61.3958Y34.24168
G01 X61.38209Y34.33414
G01 X61.3775Y34.5225
G01 X61.38209Y34.61586
G01 X61.3958Y34.70832
G01 X61.41851Y34.799
G01 X61.45Y34.88701
G01 X61.48997Y34.97151
G01 X61.53803Y35.05168
G01 X61.59371Y35.12676
G01 X61.65648Y35.19602
G01 X61.72574Y35.25879
G01 X61.80082Y35.31447
G01 X61.88099Y35.36253
G01 X61.93Y35.38571
G01 X61.93Y46.30431
G01 X60.20931Y48.025
G01 X56.43861Y48.025
G01 X56.0875Y47.67389
G01 X56.0875Y30.6125
G01 X56.08557Y30.57329
G01 X56.07981Y30.53446
G01 X56.07028Y30.49639
G01 X56.05705Y30.45943
G01 X56.04027Y30.42394
G01 X56.02009Y30.39027
G01 X55.9967Y30.35874
G01 X55.97034Y30.32966
G01 X50.90284Y25.26216
G01 X50.87376Y25.2358
G01 X50.84223Y25.21241
G01 X50.80856Y25.19223
G01 X50.77307Y25.17545
G01 X50.73611Y25.16222
G01 X50.69804Y25.15269
G01 X50.65921Y25.14693
G01 X50.62Y25.145
G01 X43.28Y25.145
G01 X43.24079Y25.14693
G01 X43.20196Y25.15269
G01 X43.16389Y25.16222
G01 X43.12693Y25.17545
G01 X43.09144Y25.19223
G01 X43.05777Y25.21241
G01 X43.02624Y25.2358
G01 X42.99716Y25.26216
G01 X38.05931Y30.2
G01 X37.05Y30.2
G01 X37.00659Y30.2038
G01 X36.96449Y30.21508
G01 X36.925Y30.23349
G01 X36.8893Y30.25849
G01 X36.85849Y30.2893
G01 X36.83349Y30.325
G01 X36.81508Y30.36449
G01 X36.8038Y30.40659
G01 X36.8Y30.45
G01 X36.8Y31.9
G01 X36.8038Y31.94341
G01 X36.81508Y31.98551
G01 X36.83349Y32.025
G01 X36.85849Y32.0607
G01 X36.8893Y32.09151
G01 X36.925Y32.11651
G01 X36.96449Y32.13492
G01 X37.00659Y32.1462
G01 X37.05Y32.15
G01 X38.25Y32.15
G01 X38.29341Y32.1462
G01 X38.33551Y32.13492
G01 X38.375Y32.11651
G01 X38.4107Y32.09151
G01 X38.44151Y32.0607
G01 X38.46651Y32.025
G01 X38.48492Y31.98551
G01 X38.4962Y31.94341
G01 X38.5Y31.9
G01 X38.5Y30.89069
G01 X43.44569Y25.945
G01 X50.45431Y25.945
G01 X55.2875Y30.77819
G01 X55.2875Y47.83958
G01 X55.28943Y47.87879
G01 X55.29519Y47.91762
G01 X55.30472Y47.95569
G01 X55.31795Y47.99265
G01 X55.33473Y48.02814
G01 X55.35491Y48.06181
G01 X55.3783Y48.09334
G01 X55.40466Y48.12242
G01 X55.99008Y48.70784
G01 X56.01916Y48.7342
G01 X56.05069Y48.75759
G01 X56.08436Y48.77777
G01 X56.11985Y48.79455
G01 X56.15681Y48.80778
G01 X56.19488Y48.81731
G01 X56.23371Y48.82307
G01 X56.27292Y48.825
G01 X60.375Y48.825
G01 X60.41421Y48.82307
G01 X60.45304Y48.81731
G01 X60.49111Y48.80778
G01 X60.52807Y48.79455
G01 X60.56356Y48.77777
G01 X60.59723Y48.75759
G01 X60.62876Y48.7342
G01 X60.65784Y48.70784
G01 X62.61284Y46.75284
G01 X62.6392Y46.72376
G01 X62.66259Y46.69223
G01 X62.68277Y46.65856
G01 X62.69955Y46.62307
G01 X62.71278Y46.58611
G01 X62.72231Y46.54804
G01 X62.72807Y46.50921
G01 X62.73Y46.47
G01 X62.73Y35.38571
G01 X62.77901Y35.36253
G01 X62.85918Y35.31447
G01 X62.93426Y35.25879
G01 X63.00352Y35.19602
G01 X63.06629Y35.12676
G01 X63.12197Y35.05168
G01 X63.17003Y34.97151
G01 X63.21Y34.88701
G01 X63.24149Y34.799
G01 X63.2642Y34.70832
G01 X63.27791Y34.61586
G01 X63.2825Y34.4275
G01 X63.27791Y34.33414
G01 X63.2642Y34.24168
G01 X63.24149Y34.151
G01 X63.21Y34.06299
G01 X63.17003Y33.97849
G01 X63.12197Y33.89832
G01 X63.06629Y33.82324
G01 X63.00352Y33.75398
G01 X62.93426Y33.69121
G01 X62.85918Y33.63553
G01 X62.77901Y33.58747
G01 X62.69451Y33.5475
G01 X62.6065Y33.51601
G01 X62.51582Y33.4933
G01 X62.42336Y33.47959
G01 X62.33Y33.475
G01 X62.23664Y33.47959
G01 X62.14418Y33.4933
G01 X62.0535Y33.51601
G01 X61.96549Y33.5475
G01 X61.88099Y33.58747
G01 X61.80082Y33.63553
G01 X61.72574Y33.69121
G01 X61.65648Y33.75398
G01 X61.65648Y33.75398
M5
G01 X58.50137Y58.10506
M3
G01 X58.71226Y58.33774
G01 X58.94494Y58.54863
G01 X59.19718Y58.7357
G01 X59.46653Y58.89715
G01 X59.75041Y59.03141
G01 X60.04609Y59.13721
G01 X60.35071Y59.21351
G01 X60.66135Y59.25959
G01 X60.975Y59.275
G01 X61.28865Y59.25959
G01 X61.59929Y59.21351
G01 X61.90391Y59.13721
G01 X62.19959Y59.03141
G01 X62.48347Y58.89715
G01 X62.75282Y58.7357
G01 X63.00506Y58.54863
G01 X63.23774Y58.33774
G01 X63.44863Y58.10506
G01 X63.6357Y57.85282
G01 X63.79715Y57.58347
G01 X63.93141Y57.29959
G01 X64.03721Y57.00391
G01 X64.11351Y56.69929
G01 X64.15959Y56.38865
G01 X64.175Y56.075
G01 X64.15959Y55.76135
G01 X64.11351Y55.45071
G01 X64.03721Y55.14609
G01 X63.93141Y54.85041
G01 X63.79715Y54.56653
G01 X63.6357Y54.29718
G01 X63.44863Y54.04494
G01 X63.23774Y53.81226
G01 X63.00506Y53.60137
G01 X62.75282Y53.4143
G01 X62.48347Y53.25285
G01 X62.19959Y53.11859
G01 X61.90391Y53.01279
G01 X61.59929Y52.93649
G01 X61.28865Y52.89041
G01 X60.975Y52.875
G01 X60.66135Y52.89041
G01 X60.35071Y52.93649
G01 X60.04609Y53.01279
G01 X59.75041Y53.11859
G01 X59.46653Y53.25285
G01 X59.19718Y53.4143
G01 X58.94494Y53.60137
G01 X58.71226Y53.81226
G01 X58.50137Y54.04494
G01 X58.3143Y54.29718
G01 X58.15285Y54.56653
G01 X58.01859Y54.85041
G01 X57.91279Y55.14609
G01 X57.83649Y55.45071
G01 X57.79041Y55.76135
G01 X57.775Y56.075
G01 X57.79041Y56.38865
G01 X57.83649Y56.69929
G01 X57.91279Y57.00391
G01 X58.01859Y57.29959
G01 X58.15285Y57.58347
G01 X58.3143Y57.85282
G01 X58.50137Y58.10506
G01 X58.50137Y58.10506
M5
G01 X28.65615Y25.3609
M3
G01 X28.58223Y25.33445
G01 X28.50607Y25.31537
G01 X28.42841Y25.30385
G01 X28.35Y25.3
G01 X28.27159Y25.30385
G01 X28.19393Y25.31537
G01 X28.11777Y25.33445
G01 X28.04385Y25.3609
G01 X27.97288Y25.39446
G01 X27.90554Y25.43482
G01 X27.84249Y25.48159
G01 X27.78431Y25.53431
G01 X27.73159Y25.59249
G01 X27.68482Y25.65554
G01 X27.65818Y25.7
G01 X25.3879Y25.7
G01 X24.83505Y25.14716
G01 X24.80597Y25.1208
G01 X24.77444Y25.09741
G01 X24.74077Y25.07723
G01 X24.70528Y25.06045
G01 X24.66832Y25.04722
G01 X24.63025Y25.03769
G01 X24.59142Y25.03193
G01 X24.55221Y25.03
G01 X22.05Y25.03
G01 X22.05Y24.905
G01 X20.55Y24.905
G01 X20.55Y25.955
G01 X22.05Y25.955
G01 X22.05Y25.83
G01 X24.38652Y25.83
G01 X24.93937Y26.38284
G01 X24.96845Y26.4092
G01 X24.99998Y26.43259
G01 X25.03365Y26.45277
G01 X25.06914Y26.46955
G01 X25.1061Y26.48278
G01 X25.14417Y26.49231
G01 X25.183Y26.49807
G01 X25.22221Y26.5
G01 X27.65818Y26.5
G01 X27.68482Y26.54446
G01 X27.73159Y26.60751
G01 X27.78431Y26.66569
G01 X27.84249Y26.71841
G01 X27.90554Y26.76518
G01 X27.97288Y26.80554
G01 X28.04385Y26.8391
G01 X28.11777Y26.86555
G01 X28.19393Y26.88463
G01 X28.27159Y26.89615
G01 X28.35Y26.9
G01 X28.42841Y26.89615
G01 X28.50607Y26.88463
G01 X28.58223Y26.86555
G01 X28.65615Y26.8391
G01 X28.72712Y26.80554
G01 X28.79446Y26.76518
G01 X28.85751Y26.71841
G01 X28.91569Y26.66569
G01 X28.96841Y26.60751
G01 X29.01518Y26.54446
G01 X29.05554Y26.47712
G01 X29.0891Y26.40615
G01 X29.11555Y26.33223
G01 X29.13463Y26.25607
G01 X29.14615Y26.17841
G01 X29.15Y26.1
G01 X29.14615Y26.02159
G01 X29.13463Y25.94393
G01 X29.11555Y25.86777
G01 X29.0891Y25.79385
G01 X29.05554Y25.72288
G01 X29.01518Y25.65554
G01 X28.96841Y25.59249
G01 X28.91569Y25.53431
G01 X28.85751Y25.48159
G01 X28.79446Y25.43482
G01 X28.72712Y25.39446
G01 X28.65615Y25.3609
G01 X28.65615Y25.3609
M5
G01 X20.82752Y26.23699
M3
G01 X20.78333Y26.26348
G01 X20.74194Y26.29417
G01 X20.73551Y26.3
G01 X20.61216Y26.3
G01 X20.35Y26.03784
G01 X20.35Y24.82216
G01 X20.80429Y24.36787
G01 X24.84189Y24.36787
G01 X24.84037Y24.37393
G01 X24.82885Y24.45159
G01 X24.825Y24.53
G01 X24.82885Y24.60841
G01 X24.84037Y24.68607
G01 X24.85945Y24.76223
G01 X24.8859Y24.83615
G01 X24.91946Y24.90712
G01 X24.95982Y24.97446
G01 X25.00659Y25.03751
G01 X25.05931Y25.09569
G01 X25.11749Y25.14841
G01 X25.18054Y25.19518
G01 X25.24788Y25.23554
G01 X25.31885Y25.2691
G01 X25.39277Y25.29555
G01 X25.46893Y25.31463
G01 X25.54659Y25.32615
G01 X25.625Y25.33
G01 X25.70341Y25.32615
G01 X25.78107Y25.31463
G01 X25.85723Y25.29555
G01 X25.93115Y25.2691
G01 X26.00212Y25.23554
G01 X26.06946Y25.19518
G01 X26.13251Y25.14841
G01 X26.19069Y25.09569
G01 X26.24341Y25.03751
G01 X26.29018Y24.97446
G01 X26.33054Y24.90712
G01 X26.3641Y24.83615
G01 X26.39055Y24.76223
G01 X26.40963Y24.68607
G01 X26.42115Y24.60841
G01 X26.425Y24.53
G01 X26.42115Y24.45159
G01 X26.40963Y24.37393
G01 X26.39055Y24.29777
G01 X26.3641Y24.22385
G01 X26.33054Y24.15288
G01 X26.29018Y24.08554
G01 X26.24341Y24.02249
G01 X26.19069Y23.96431
G01 X26.13251Y23.91159
G01 X26.06946Y23.86482
G01 X26.00212Y23.82446
G01 X25.93115Y23.7909
G01 X25.85723Y23.76445
G01 X25.78107Y23.74537
G01 X25.70341Y23.73385
G01 X25.625Y23.73
G01 X25.54659Y23.73385
G01 X25.46893Y23.74537
G01 X25.41865Y23.75797
G01 X25.34571Y23.68503
G01 X25.31663Y23.65867
G01 X25.2851Y23.63528
G01 X25.25143Y23.6151
G01 X25.24004Y23.60971
G01 X25.21594Y23.59832
G01 X25.17898Y23.58509
G01 X25.14091Y23.57556
G01 X25.10208Y23.5698
G01 X25.06287Y23.56787
G01 X20.6386Y23.56787
G01 X20.59939Y23.5698
G01 X20.56056Y23.57556
G01 X20.52249Y23.58509
G01 X20.48553Y23.59832
G01 X20.45004Y23.6151
G01 X20.41637Y23.63528
G01 X20.38484Y23.65867
G01 X20.35576Y23.68503
G01 X19.66716Y24.37363
G01 X19.6408Y24.40271
G01 X19.61741Y24.43424
G01 X19.59723Y24.46791
G01 X19.58045Y24.5034
G01 X19.56722Y24.54036
G01 X19.55769Y24.57843
G01 X19.55193Y24.61726
G01 X19.55Y24.65647
G01 X19.55Y26.20353
G01 X19.55193Y26.24274
G01 X19.55769Y26.28157
G01 X19.56722Y26.31964
G01 X19.58045Y26.3566
G01 X19.59723Y26.39209
G01 X19.61741Y26.42576
G01 X19.6408Y26.45729
G01 X19.66716Y26.48637
G01 X20.16363Y26.98284
G01 X20.19271Y27.0092
G01 X20.22424Y27.03259
G01 X20.25791Y27.05277
G01 X20.2693Y27.05816
G01 X20.2934Y27.06955
G01 X20.33036Y27.08278
G01 X20.36843Y27.09231
G01 X20.40726Y27.09807
G01 X20.44647Y27.1
G01 X20.73551Y27.1
G01 X20.74194Y27.10583
G01 X20.78333Y27.13652
G01 X20.82752Y27.16301
G01 X20.87409Y27.18504
G01 X20.9226Y27.20239
G01 X20.97258Y27.21491
G01 X21.02354Y27.22247
G01 X21.525Y27.225
G01 X21.57646Y27.22247
G01 X21.62742Y27.21491
G01 X21.6774Y27.20239
G01 X21.72591Y27.18504
G01 X21.77248Y27.16301
G01 X21.81667Y27.13652
G01 X21.85806Y27.10583
G01 X21.89623Y27.07123
G01 X21.93083Y27.03306
G01 X21.96152Y26.99167
G01 X21.98801Y26.94748
G01 X22.01004Y26.90091
G01 X22.02739Y26.8524
G01 X22.03991Y26.80242
G01 X22.04747Y26.75146
G01 X22.05Y26.7
G01 X22.04747Y26.64854
G01 X22.03991Y26.59758
G01 X22.02739Y26.5476
G01 X22.01004Y26.49909
G01 X21.98801Y26.45252
G01 X21.96152Y26.40833
G01 X21.93083Y26.36694
G01 X21.89623Y26.32877
G01 X21.85806Y26.29417
G01 X21.81667Y26.26348
G01 X21.77248Y26.23699
G01 X21.72591Y26.21496
G01 X21.6774Y26.19761
G01 X21.62742Y26.18509
G01 X21.57646Y26.17753
G01 X21.075Y26.175
G01 X21.02354Y26.17753
G01 X20.97258Y26.18509
G01 X20.9226Y26.19761
G01 X20.87409Y26.21496
G01 X20.82752Y26.23699
G01 X20.82752Y26.23699
M5
G01 X31.75385Y45.67841
M3
G01 X31.76537Y45.75607
G01 X31.78445Y45.83223
G01 X31.8109Y45.90615
G01 X31.84446Y45.97712
G01 X31.88482Y46.04446
G01 X31.93159Y46.10751
G01 X31.98431Y46.16569
G01 X32.04249Y46.21841
G01 X32.10554Y46.26518
G01 X32.17288Y46.30554
G01 X32.24385Y46.3391
G01 X32.31777Y46.36555
G01 X32.39393Y46.38463
G01 X32.47159Y46.39615
G01 X32.55Y46.4
G01 X32.62841Y46.39615
G01 X32.70607Y46.38463
G01 X32.78223Y46.36555
G01 X32.85615Y46.3391
G01 X32.92712Y46.30554
G01 X32.99446Y46.26518
G01 X33.05751Y46.21841
G01 X33.11569Y46.16569
G01 X33.16841Y46.10751
G01 X33.21518Y46.04446
G01 X33.25554Y45.97712
G01 X33.2891Y45.90615
G01 X33.31555Y45.83223
G01 X33.33463Y45.75607
G01 X33.34615Y45.67841
G01 X33.35Y45.6
G01 X33.34615Y45.52159
G01 X33.33463Y45.44393
G01 X33.31555Y45.36777
G01 X33.2891Y45.29385
G01 X33.25554Y45.22288
G01 X33.21518Y45.15554
G01 X33.16841Y45.09249
G01 X33.11569Y45.03431
G01 X33.05751Y44.98159
G01 X32.99446Y44.93482
G01 X32.92712Y44.89446
G01 X32.85615Y44.8609
G01 X32.78223Y44.83445
G01 X32.70607Y44.81537
G01 X32.62841Y44.80385
G01 X32.55Y44.8
G01 X32.47159Y44.80385
G01 X32.39393Y44.81537
G01 X32.34365Y44.82797
G01 X30.69743Y43.18174
G01 X30.7Y42.595
G01 X30.69615Y42.51659
G01 X30.68463Y42.43893
G01 X30.66555Y42.36277
G01 X30.6391Y42.28885
G01 X30.60554Y42.21788
G01 X30.56518Y42.15054
G01 X30.51841Y42.08749
G01 X30.46569Y42.02931
G01 X30.40751Y41.97659
G01 X30.34446Y41.92982
G01 X30.27712Y41.88946
G01 X30.20615Y41.8559
G01 X30.13223Y41.82945
G01 X30.05607Y41.81037
G01 X29.97841Y41.79885
G01 X29.9Y41.795
G01 X29.82159Y41.79885
G01 X29.74393Y41.81037
G01 X29.66777Y41.82945
G01 X29.59385Y41.8559
G01 X29.52288Y41.88946
G01 X29.45554Y41.92982
G01 X29.39249Y41.97659
G01 X29.33431Y42.02931
G01 X29.28159Y42.08749
G01 X29.23482Y42.15054
G01 X29.19446Y42.21788
G01 X29.1609Y42.28885
G01 X29.13445Y42.36277
G01 X29.11537Y42.43893
G01 X29.10385Y42.51659
G01 X29.1Y43.395
G01 X29.10385Y43.47341
G01 X29.11537Y43.55107
G01 X29.13445Y43.62723
G01 X29.1609Y43.70115
G01 X29.19446Y43.77212
G01 X29.23482Y43.83946
G01 X29.28159Y43.90251
G01 X29.33431Y43.96069
G01 X29.39249Y44.01341
G01 X29.45554Y44.06018
G01 X29.52288Y44.10054
G01 X29.59385Y44.1341
G01 X29.66777Y44.16055
G01 X29.74393Y44.17963
G01 X29.82159Y44.19115
G01 X29.9Y44.195
G01 X29.97841Y44.19115
G01 X30.05607Y44.17963
G01 X30.13223Y44.16055
G01 X30.20615Y44.1341
G01 X30.27712Y44.10054
G01 X30.34446Y44.06018
G01 X30.40189Y44.01758
G01 X31.77797Y45.39365
G01 X31.76537Y45.44393
G01 X31.75385Y45.52159
G01 X31.75Y45.6
G01 X31.75385Y45.67841
G01 X31.75385Y45.67841
M5
G01 X42.76794Y52.33077
M3
G01 X42.71825Y52.39777
G01 X42.67537Y52.46931
G01 X42.6397Y52.54472
G01 X42.6116Y52.62326
G01 X42.59133Y52.70417
G01 X42.57909Y52.78669
G01 X42.575Y52.87
G01 X42.57909Y52.95331
G01 X42.59133Y53.03583
G01 X42.6116Y53.11674
G01 X42.6397Y53.19528
G01 X42.67537Y53.27069
G01 X42.71825Y53.34223
G01 X42.76794Y53.40923
G01 X42.82396Y53.47104
G01 X42.88577Y53.52706
G01 X42.95277Y53.57675
G01 X43.02431Y53.61963
G01 X43.09972Y53.6553
G01 X43.17826Y53.6834
G01 X43.25917Y53.70367
G01 X43.34169Y53.71591
G01 X43.425Y53.72
G01 X43.50831Y53.71591
G01 X43.59083Y53.70367
G01 X43.67174Y53.6834
G01 X43.75028Y53.6553
G01 X43.82569Y53.61963
G01 X43.89723Y53.57675
G01 X43.96423Y53.52706
G01 X44.02604Y53.47104
G01 X44.08206Y53.40923
G01 X44.13175Y53.34223
G01 X44.17463Y53.27069
G01 X44.2103Y53.19528
G01 X44.2384Y53.11674
G01 X44.25867Y53.03583
G01 X44.27091Y52.95331
G01 X44.275Y52.87
G01 X44.27091Y52.78669
G01 X44.25867Y52.70417
G01 X44.2384Y52.62326
G01 X44.23814Y52.62254
G01 X45.25784Y51.60284
G01 X45.2842Y51.57376
G01 X45.30759Y51.54223
G01 X45.32777Y51.50856
G01 X45.34455Y51.47307
G01 X45.35778Y51.43611
G01 X45.36731Y51.39804
G01 X45.37307Y51.35921
G01 X45.375Y51.32
G01 X45.375Y49.1
G01 X45.37307Y49.06079
G01 X45.36731Y49.02196
G01 X45.35778Y48.98389
G01 X45.34455Y48.94693
G01 X45.32777Y48.91144
G01 X45.30759Y48.87777
G01 X45.2842Y48.84624
G01 X45.25784Y48.81716
G01 X41.75784Y45.31716
G01 X41.72876Y45.2908
G01 X41.69723Y45.26741
G01 X41.66356Y45.24723
G01 X41.62807Y45.23045
G01 X41.59111Y45.21722
G01 X41.55304Y45.20769
G01 X41.51421Y45.20193
G01 X41.475Y45.2
G01 X40.86182Y45.2
G01 X40.83518Y45.15554
G01 X40.78841Y45.09249
G01 X40.73569Y45.03431
G01 X40.67751Y44.98159
G01 X40.61446Y44.93482
G01 X40.54712Y44.89446
G01 X40.47615Y44.8609
G01 X40.40223Y44.83445
G01 X40.32607Y44.81537
G01 X40.24841Y44.80385
G01 X40.17Y44.8
G01 X40.09159Y44.80385
G01 X40.01393Y44.81537
G01 X39.93777Y44.83445
G01 X39.86385Y44.8609
G01 X39.79288Y44.89446
G01 X39.72554Y44.93482
G01 X39.66249Y44.98159
G01 X39.60431Y45.03431
G01 X39.55159Y45.09249
G01 X39.50482Y45.15554
G01 X39.46446Y45.22288
G01 X39.4309Y45.29385
G01 X39.40445Y45.36777
G01 X39.38537Y45.44393
G01 X39.37385Y45.52159
G01 X39.37Y45.6
G01 X39.37385Y45.67841
G01 X39.38537Y45.75607
G01 X39.40445Y45.83223
G01 X39.4309Y45.90615
G01 X39.46446Y45.97712
G01 X39.50482Y46.04446
G01 X39.55159Y46.10751
G01 X39.60431Y46.16569
G01 X39.66249Y46.21841
G01 X39.72554Y46.26518
G01 X39.79288Y46.30554
G01 X39.86385Y46.3391
G01 X39.93777Y46.36555
G01 X40.01393Y46.38463
G01 X40.09159Y46.39615
G01 X40.17Y46.4
G01 X40.24841Y46.39615
G01 X40.32607Y46.38463
G01 X40.40223Y46.36555
G01 X40.47615Y46.3391
G01 X40.54712Y46.30554
G01 X40.61446Y46.26518
G01 X40.67751Y46.21841
G01 X40.73569Y46.16569
G01 X40.78841Y46.10751
G01 X40.83518Y46.04446
G01 X40.86182Y46.0
G01 X41.30931Y46.0
G01 X44.575Y49.26569
G01 X44.575Y51.15431
G01 X43.67246Y52.05686
G01 X43.67174Y52.0566
G01 X43.59083Y52.03633
G01 X43.50831Y52.02409
G01 X43.425Y52.02
G01 X43.34169Y52.02409
G01 X43.25917Y52.03633
G01 X43.17826Y52.0566
G01 X43.09972Y52.0847
G01 X43.02431Y52.12037
G01 X42.95277Y52.16325
G01 X42.88577Y52.21294
G01 X42.82396Y52.26896
G01 X42.76794Y52.33077
G01 X42.76794Y52.33077
M5
G01 X21.13115Y54.3709
M3
G01 X21.05723Y54.34445
G01 X20.98107Y54.32537
G01 X20.90341Y54.31385
G01 X20.825Y54.31
G01 X20.74659Y54.31385
G01 X20.66893Y54.32537
G01 X20.61865Y54.33797
G01 X15.4Y49.11931
G01 X15.4Y48.025
G01 X13.6Y48.025
G01 X13.6Y49.825
G01 X14.97431Y49.825
G01 X20.05297Y54.90365
G01 X20.04037Y54.95393
G01 X20.02885Y55.03159
G01 X20.025Y55.11
G01 X20.02885Y55.18841
G01 X20.04037Y55.26607
G01 X20.05945Y55.34223
G01 X20.0859Y55.41615
G01 X20.11946Y55.48712
G01 X20.15982Y55.55446
G01 X20.20659Y55.61751
G01 X20.25931Y55.67569
G01 X20.31749Y55.72841
G01 X20.38054Y55.77518
G01 X20.44788Y55.81554
G01 X20.51885Y55.8491
G01 X20.59277Y55.87555
G01 X20.66893Y55.89463
G01 X20.74659Y55.90615
G01 X20.825Y55.91
G01 X20.90341Y55.90615
G01 X20.98107Y55.89463
G01 X21.05723Y55.87555
G01 X21.13115Y55.8491
G01 X21.20212Y55.81554
G01 X21.26946Y55.77518
G01 X21.33251Y55.72841
G01 X21.39069Y55.67569
G01 X21.44341Y55.61751
G01 X21.49018Y55.55446
G01 X21.53054Y55.48712
G01 X21.5641Y55.41615
G01 X21.59055Y55.34223
G01 X21.60963Y55.26607
G01 X21.62115Y55.18841
G01 X21.625Y55.11
G01 X21.62115Y55.03159
G01 X21.60963Y54.95393
G01 X21.59055Y54.87777
G01 X21.5641Y54.80385
G01 X21.53054Y54.73288
G01 X21.49018Y54.66554
G01 X21.44341Y54.60249
G01 X21.39069Y54.54431
G01 X21.33251Y54.49159
G01 X21.26946Y54.44482
G01 X21.20212Y54.40446
G01 X21.13115Y54.3709
G01 X21.13115Y54.3709
M5
G01 X21.60963Y47.64607
M3
G01 X21.62115Y47.56841
G01 X21.625Y47.49
G01 X21.62115Y47.41159
G01 X21.60963Y47.33393
G01 X21.59055Y47.25777
G01 X21.5641Y47.18385
G01 X21.53054Y47.11288
G01 X21.49018Y47.04554
G01 X21.44341Y46.98249
G01 X21.39069Y46.92431
G01 X21.33251Y46.87159
G01 X21.26946Y46.82482
G01 X21.20212Y46.78446
G01 X21.13115Y46.7509
G01 X21.05723Y46.72445
G01 X20.98107Y46.70537
G01 X20.90341Y46.69385
G01 X20.825Y46.69
G01 X20.74659Y46.69385
G01 X20.66893Y46.70537
G01 X20.61865Y46.71797
G01 X18.0Y44.09931
G01 X18.0Y41.795
G01 X16.4Y41.795
G01 X16.4Y44.195
G01 X16.96431Y44.195
G01 X20.05297Y47.28365
G01 X20.04037Y47.33393
G01 X20.02885Y47.41159
G01 X20.025Y47.49
G01 X20.02885Y47.56841
G01 X20.04037Y47.64607
G01 X20.05945Y47.72223
G01 X20.0859Y47.79615
G01 X20.11946Y47.86712
G01 X20.15982Y47.93446
G01 X20.20659Y47.99751
G01 X20.25931Y48.05569
G01 X20.31749Y48.10841
G01 X20.38054Y48.15518
G01 X20.44788Y48.19554
G01 X20.51885Y48.2291
G01 X20.59277Y48.25555
G01 X20.66893Y48.27463
G01 X20.74659Y48.28615
G01 X20.825Y48.29
G01 X20.90341Y48.28615
G01 X20.98107Y48.27463
G01 X21.05723Y48.25555
G01 X21.13115Y48.2291
G01 X21.20212Y48.19554
G01 X21.26946Y48.15518
G01 X21.33251Y48.10841
G01 X21.39069Y48.05569
G01 X21.44341Y47.99751
G01 X21.49018Y47.93446
G01 X21.53054Y47.86712
G01 X21.5641Y47.79615
G01 X21.59055Y47.72223
G01 X21.60963Y47.64607
G01 X21.60963Y47.64607
M5
G01 X20.30569Y42.02931
M3
G01 X20.24751Y41.97659
G01 X20.18446Y41.92982
G01 X20.11712Y41.88946
G01 X20.04615Y41.8559
G01 X19.97223Y41.82945
G01 X19.89607Y41.81037
G01 X19.81841Y41.79885
G01 X19.74Y41.795
G01 X19.66159Y41.79885
G01 X19.58393Y41.81037
G01 X19.50777Y41.82945
G01 X19.43385Y41.8559
G01 X19.36288Y41.88946
G01 X19.29554Y41.92982
G01 X19.23249Y41.97659
G01 X19.17431Y42.02931
G01 X19.12159Y42.08749
G01 X19.07482Y42.15054
G01 X19.03446Y42.21788
G01 X19.0009Y42.28885
G01 X18.97445Y42.36277
G01 X18.95537Y42.43893
G01 X18.94385Y42.51659
G01 X18.94Y43.395
G01 X18.94385Y43.47341
G01 X18.95537Y43.55107
G01 X18.97445Y43.62723
G01 X19.0009Y43.70115
G01 X19.03446Y43.77212
G01 X19.07482Y43.83946
G01 X19.12159Y43.90251
G01 X19.17431Y43.96069
G01 X19.23249Y44.01341
G01 X19.29554Y44.06018
G01 X19.36288Y44.10054
G01 X19.43385Y44.1341
G01 X19.50777Y44.16055
G01 X19.58393Y44.17963
G01 X19.66159Y44.19115
G01 X19.74Y44.195
G01 X19.81841Y44.19115
G01 X19.89607Y44.17963
G01 X19.97223Y44.16055
G01 X20.04615Y44.1341
G01 X20.11712Y44.10054
G01 X20.18446Y44.06018
G01 X20.24751Y44.01341
G01 X20.30569Y43.96069
G01 X20.35841Y43.90251
G01 X20.40518Y43.83946
G01 X20.44554Y43.77212
G01 X20.4791Y43.70115
G01 X20.50555Y43.62723
G01 X20.52463Y43.55107
G01 X20.53615Y43.47341
G01 X20.54Y42.595
G01 X20.53615Y42.51659
G01 X20.52463Y42.43893
G01 X20.50555Y42.36277
G01 X20.4791Y42.28885
G01 X20.44554Y42.21788
G01 X20.40518Y42.15054
G01 X20.35841Y42.08749
G01 X20.30569Y42.02931
G01 X20.30569Y42.02931
M5
G01 X22.89841Y42.08749
M3
G01 X22.84569Y42.02931
G01 X22.78751Y41.97659
G01 X22.72446Y41.92982
G01 X22.65712Y41.88946
G01 X22.58615Y41.8559
G01 X22.51223Y41.82945
G01 X22.43607Y41.81037
G01 X22.35841Y41.79885
G01 X22.28Y41.795
G01 X22.20159Y41.79885
G01 X22.12393Y41.81037
G01 X22.04777Y41.82945
G01 X21.97385Y41.8559
G01 X21.90288Y41.88946
G01 X21.83554Y41.92982
G01 X21.77249Y41.97659
G01 X21.71431Y42.02931
G01 X21.66159Y42.08749
G01 X21.61482Y42.15054
G01 X21.57446Y42.21788
G01 X21.5409Y42.28885
G01 X21.51445Y42.36277
G01 X21.49537Y42.43893
G01 X21.48385Y42.51659
G01 X21.48Y43.395
G01 X21.48385Y43.47341
G01 X21.49537Y43.55107
G01 X21.51445Y43.62723
G01 X21.5409Y43.70115
G01 X21.57446Y43.77212
G01 X21.61482Y43.83946
G01 X21.66159Y43.90251
G01 X21.71431Y43.96069
G01 X21.77249Y44.01341
G01 X21.83554Y44.06018
G01 X21.90288Y44.10054
G01 X21.97385Y44.1341
G01 X22.04777Y44.16055
G01 X22.12393Y44.17963
G01 X22.20159Y44.19115
G01 X22.28Y44.195
G01 X22.35841Y44.19115
G01 X22.43607Y44.17963
G01 X22.51223Y44.16055
G01 X22.58615Y44.1341
G01 X22.65712Y44.10054
G01 X22.72446Y44.06018
G01 X22.78751Y44.01341
G01 X22.84569Y43.96069
G01 X22.89841Y43.90251
G01 X22.94518Y43.83946
G01 X22.98554Y43.77212
G01 X23.0191Y43.70115
G01 X23.04555Y43.62723
G01 X23.06463Y43.55107
G01 X23.07615Y43.47341
G01 X23.08Y42.595
G01 X23.07615Y42.51659
G01 X23.06463Y42.43893
G01 X23.04555Y42.36277
G01 X23.0191Y42.28885
G01 X22.98554Y42.21788
G01 X22.94518Y42.15054
G01 X22.89841Y42.08749
G01 X22.89841Y42.08749
M5
G01 X25.48518Y42.15054
M3
G01 X25.43841Y42.08749
G01 X25.38569Y42.02931
G01 X25.32751Y41.97659
G01 X25.26446Y41.92982
G01 X25.19712Y41.88946
G01 X25.12615Y41.8559
G01 X25.05223Y41.82945
G01 X24.97607Y41.81037
G01 X24.89841Y41.79885
G01 X24.82Y41.795
G01 X24.74159Y41.79885
G01 X24.66393Y41.81037
G01 X24.58777Y41.82945
G01 X24.51385Y41.8559
G01 X24.44288Y41.88946
G01 X24.37554Y41.92982
G01 X24.31249Y41.97659
G01 X24.25431Y42.02931
G01 X24.20159Y42.08749
G01 X24.15482Y42.15054
G01 X24.11446Y42.21788
G01 X24.0809Y42.28885
G01 X24.05445Y42.36277
G01 X24.03537Y42.43893
G01 X24.02385Y42.51659
G01 X24.02Y43.395
G01 X24.02385Y43.47341
G01 X24.03537Y43.55107
G01 X24.05445Y43.62723
G01 X24.0809Y43.70115
G01 X24.11446Y43.77212
G01 X24.15482Y43.83946
G01 X24.20159Y43.90251
G01 X24.25431Y43.96069
G01 X24.31249Y44.01341
G01 X24.37554Y44.06018
G01 X24.44288Y44.10054
G01 X24.51385Y44.1341
G01 X24.58777Y44.16055
G01 X24.66393Y44.17963
G01 X24.74159Y44.19115
G01 X24.82Y44.195
G01 X24.89841Y44.19115
G01 X24.97607Y44.17963
G01 X25.05223Y44.16055
G01 X25.12615Y44.1341
G01 X25.19712Y44.10054
G01 X25.26446Y44.06018
G01 X25.32751Y44.01341
G01 X25.38569Y43.96069
G01 X25.43841Y43.90251
G01 X25.48518Y43.83946
G01 X25.52554Y43.77212
G01 X25.5591Y43.70115
G01 X25.58555Y43.62723
G01 X25.60463Y43.55107
G01 X25.61615Y43.47341
G01 X25.62Y42.595
G01 X25.61615Y42.51659
G01 X25.60463Y42.43893
G01 X25.58555Y42.36277
G01 X25.5591Y42.28885
G01 X25.52554Y42.21788
G01 X25.48518Y42.15054
G01 X25.48518Y42.15054
M5
G01 X28.02518Y42.15054
M3
G01 X27.97841Y42.08749
G01 X27.92569Y42.02931
G01 X27.86751Y41.97659
G01 X27.80446Y41.92982
G01 X27.73712Y41.88946
G01 X27.66615Y41.8559
G01 X27.59223Y41.82945
G01 X27.51607Y41.81037
G01 X27.43841Y41.79885
G01 X27.36Y41.795
G01 X27.28159Y41.79885
G01 X27.20393Y41.81037
G01 X27.12777Y41.82945
G01 X27.05385Y41.8559
G01 X26.98288Y41.88946
G01 X26.91554Y41.92982
G01 X26.85249Y41.97659
G01 X26.79431Y42.02931
G01 X26.74159Y42.08749
G01 X26.69482Y42.15054
G01 X26.65446Y42.21788
G01 X26.6209Y42.28885
G01 X26.59445Y42.36277
G01 X26.57537Y42.43893
G01 X26.56385Y42.51659
G01 X26.56Y43.395
G01 X26.56385Y43.47341
G01 X26.57537Y43.55107
G01 X26.59445Y43.62723
G01 X26.6209Y43.70115
G01 X26.65446Y43.77212
G01 X26.69482Y43.83946
G01 X26.74159Y43.90251
G01 X26.79431Y43.96069
G01 X26.85249Y44.01341
G01 X26.91554Y44.06018
G01 X26.98288Y44.10054
G01 X27.05385Y44.1341
G01 X27.12777Y44.16055
G01 X27.20393Y44.17963
G01 X27.28159Y44.19115
G01 X27.36Y44.195
G01 X27.43841Y44.19115
G01 X27.51607Y44.17963
G01 X27.59223Y44.16055
G01 X27.66615Y44.1341
G01 X27.73712Y44.10054
G01 X27.80446Y44.06018
G01 X27.83605Y44.03674
G01 X31.8334Y48.03409
